; generated by Slic3r 1.3.1-dev (Build 2d100c4) on 2020-10-25 at 11:16:50

; external perimeters extrusion width = 0.44mm (2.86mm^3/s)
; perimeters extrusion width = 0.56mm (4.14mm^3/s)
; infill extrusion width = 0.50mm (3.66mm^3/s)
; solid infill extrusion width = 0.56mm (3.10mm^3/s)
; top infill extrusion width = 0.56mm (3.10mm^3/s)

M107
G92 E0
;D3D:START:START
T0
M104 S215 T0

G21
G90
M107
T0
G28
G29
M109 T0 S215 T0
G0 F3000
M107
T0
G92 E0
G0 X0 Y149 Z0.1 F3600
G1 Y49 E6.5 F1200
G0 Z1
G92 E0
; Filament gcode

G21 ; set units to millimeters
G90 ; use absolute coordinates
M82 ; use absolute distances for extrusion
G92 E0
G1 Z0.300 F7800.000
G1 E-2.00000 F2400.00000
G92 E0
G1 X18.504 Y17.654 F7800.000
G1 E2.00000 F2400.00000
G1 F1800.000
G1 X131.496 Y17.654 E5.74339
G1 X131.496 Y132.346 E9.54310
G1 X18.504 Y132.346 E13.28649
G1 X18.504 Y17.714 E17.08421
G1 X18.769 Y17.919 F7800.000
G1 F1800.000
G1 X131.231 Y17.919 E20.81001
G1 X131.231 Y132.081 E24.59211
G1 X18.769 Y132.081 E28.31791
G1 X18.769 Y17.979 E32.09803
G1 X19.035 Y18.185 F7800.000
G1 F1800.000
G1 X130.965 Y18.185 E35.80622
G1 X130.965 Y131.815 E39.57073
G1 X19.035 Y131.815 E43.27892
G1 X19.035 Y18.245 E47.04144
G1 X18.056 Y17.346 F7800.000
G1 F1800.000
G1 X131.944 Y17.346 E50.81449
G1 X131.944 Y132.654 E54.63457
G1 X18.056 Y132.654 E58.40762
G1 X18.056 Y17.406 E62.22571
G1 X17.791 Y17.081 F7800.000
G1 F1800.000
G1 X132.209 Y17.081 E66.01636
G1 X132.209 Y132.919 E69.85404
G1 X17.791 Y132.919 E73.64468
G1 X17.791 Y17.141 E77.48038
G1 X17.525 Y16.815 F7800.000
G1 F1800.000
G1 X132.475 Y16.815 E81.28862
G1 X132.475 Y133.185 E85.14390
G1 X17.525 Y133.185 E88.95215
G1 X17.525 Y16.875 E92.80544
G1 X18.280 Y17.479 F7800.000
G1 F1800.000
G1 X18.280 Y132.521 E94.49174
G1 X18.189 Y132.409 F7800.000
G1 F1800.000
G1 X18.371 Y132.500 E94.49223
G1 X131.629 Y132.500 E94.76511
G1 X131.811 Y132.409 E94.76560
G1 X131.720 Y132.521 F7800.000
G1 F1800.000
G1 X131.720 Y17.479 E96.45205
G1 X131.811 Y17.591 F7800.000
G1 F1800.000
G1 X131.629 Y17.500 E96.45254
G1 X18.371 Y17.500 E96.72692
G1 X18.189 Y17.591 E96.72742
M106 S255
G1 Z0.500 F7800.000
G1 X18.523 Y17.673 F7800.000
G1 F2400.000
G1 X131.477 Y17.673 E101.58393
G1 X131.477 Y132.327 E106.51352
G1 X18.523 Y132.327 E111.37003
G1 X18.523 Y17.733 E116.29705
G1 X18.980 Y18.130 F7800.000
G1 F2160.000
G1 X131.020 Y18.130 E119.99632
G1 X131.020 Y131.870 E123.75170
G1 X18.980 Y131.870 E127.45097
G1 X18.980 Y18.190 E131.20438
G1 X18.037 Y17.327 F7800.000
G1 F2400.000
G1 X131.963 Y17.327 E136.10267
G1 X131.963 Y132.673 E141.06200
G1 X18.037 Y132.673 E145.96029
G1 X18.037 Y17.387 E150.91704
G1 X17.580 Y16.870 F7800.000
G1 F2160.000
G1 X132.420 Y16.870 E154.70875
G1 X132.420 Y133.130 E158.54734
G1 X17.580 Y133.130 E162.33906
G1 X17.580 Y16.930 E166.17567
G1 Z0.700 F7800.000
G1 X18.523 Y17.673 F7800.000
G1 F2400.000
G1 X131.477 Y17.673 E171.03218
G1 X131.477 Y132.327 E175.96177
G1 X18.523 Y132.327 E180.81829
G1 X18.523 Y17.733 E185.74530
G1 X18.980 Y18.130 F7800.000
G1 F2160.000
G1 X131.020 Y18.130 E189.44457
G1 X131.020 Y131.870 E193.19996
G1 X18.980 Y131.870 E196.89922
G1 X18.980 Y18.190 E200.65263
G1 X18.037 Y17.327 F7800.000
G1 F2400.000
G1 X131.963 Y17.327 E205.55092
G1 X131.963 Y132.673 E210.51025
G1 X18.037 Y132.673 E215.40854
G1 X18.037 Y17.387 E220.36529
G1 X17.580 Y16.870 F7800.000
G1 F2160.000
G1 X132.420 Y16.870 E224.15701
G1 X132.420 Y133.130 E227.99560
G1 X17.580 Y133.130 E231.78731
G1 X17.580 Y16.930 E235.62392
G1 Z0.900 F7800.000
G1 X18.523 Y17.673 F7800.000
G1 F2400.000
G1 X131.477 Y17.673 E240.48043
G1 X131.477 Y132.327 E245.41003
G1 X18.523 Y132.327 E250.26654
G1 X18.523 Y17.733 E255.19355
G1 X18.980 Y18.130 F7800.000
G1 F2160.000
G1 X131.020 Y18.130 E258.89282
G1 X131.020 Y131.870 E262.64821
G1 X18.980 Y131.870 E266.34747
G1 X18.980 Y18.190 E270.10088
G1 X18.037 Y17.327 F7800.000
G1 F2400.000
G1 X131.963 Y17.327 E274.99917
G1 X131.963 Y132.673 E279.95850
G1 X18.037 Y132.673 E284.85679
G1 X18.037 Y17.387 E289.81354
G1 X17.580 Y16.870 F7800.000
G1 F2160.000
G1 X132.420 Y16.870 E293.60526
G1 X132.420 Y133.130 E297.44385
G1 X17.580 Y133.130 E301.23556
G1 X17.580 Y16.930 E305.07217
G1 Z1.100 F7800.000
G1 X18.523 Y17.673 F7800.000
G1 F2400.000
G1 X131.477 Y17.673 E309.92868
G1 X131.477 Y132.327 E314.85828
G1 X18.523 Y132.327 E319.71479
G1 X18.523 Y17.733 E324.64180
G1 X18.980 Y18.130 F7800.000
G1 F2160.000
G1 X131.020 Y18.130 E328.34107
G1 X131.020 Y131.870 E332.09646
G1 X18.980 Y131.870 E335.79572
G1 X18.980 Y18.190 E339.54913
G1 X18.037 Y17.327 F7800.000
G1 F2400.000
G1 X131.963 Y17.327 E344.44742
G1 X131.963 Y132.673 E349.40675
G1 X18.037 Y132.673 E354.30504
G1 X18.037 Y17.387 E359.26179
G1 X17.580 Y16.870 F7800.000
G1 F2160.000
G1 X132.420 Y16.870 E363.05351
G1 X132.420 Y133.130 E366.89210
G1 X17.580 Y133.130 E370.68381
G1 X17.580 Y16.930 E374.52042
G1 Z1.300 F7800.000
G1 X18.523 Y17.673 F7800.000
G1 F2400.000
G1 X131.477 Y17.673 E379.37693
G1 X131.477 Y132.327 E384.30653
G1 X18.523 Y132.327 E389.16304
G1 X18.523 Y17.733 E394.09006
G1 X18.980 Y18.130 F7800.000
G1 F2160.000
G1 X131.020 Y18.130 E397.78932
G1 X131.020 Y131.870 E401.54471
G1 X18.980 Y131.870 E405.24397
G1 X18.980 Y18.190 E408.99738
G1 X18.037 Y17.327 F7800.000
G1 F2400.000
G1 X131.963 Y17.327 E413.89567
G1 X131.963 Y132.673 E418.85500
G1 X18.037 Y132.673 E423.75329
G1 X18.037 Y17.387 E428.71005
G1 X17.580 Y16.870 F7800.000
G1 F2160.000
G1 X132.420 Y16.870 E432.50176
G1 X132.420 Y133.130 E436.34035
G1 X17.580 Y133.130 E440.13206
G1 X17.580 Y16.930 E443.96867
G1 Z1.500 F7800.000
G1 X18.523 Y17.673 F7800.000
G1 F2400.000
G1 X131.477 Y17.673 E448.82518
G1 X131.477 Y132.327 E453.75478
G1 X18.523 Y132.327 E458.61129
G1 X18.523 Y17.733 E463.53831
G1 X18.980 Y18.130 F7800.000
G1 F2160.000
G1 X131.020 Y18.130 E467.23757
G1 X131.020 Y131.870 E470.99296
G1 X18.980 Y131.870 E474.69223
G1 X18.980 Y18.190 E478.44563
G1 X18.037 Y17.327 F7800.000
G1 F2400.000
G1 X131.963 Y17.327 E483.34392
G1 X131.963 Y132.673 E488.30325
G1 X18.037 Y132.673 E493.20154
G1 X18.037 Y17.387 E498.15830
G1 X17.580 Y16.870 F7800.000
G1 F2160.000
G1 X132.420 Y16.870 E501.95001
G1 X132.420 Y133.130 E505.78860
G1 X17.580 Y133.130 E509.58032
G1 X17.580 Y16.930 E513.41692
G1 Z1.700 F7800.000
G1 X18.523 Y17.673 F7800.000
G1 F2400.000
G1 X131.477 Y17.673 E518.27344
G1 X131.477 Y132.327 E523.20303
G1 X18.523 Y132.327 E528.05954
G1 X18.523 Y17.733 E532.98656
G1 X18.980 Y18.130 F7800.000
G1 F2160.000
G1 X131.020 Y18.130 E536.68582
G1 X131.020 Y131.870 E540.44121
G1 X18.980 Y131.870 E544.14048
G1 X18.980 Y18.190 E547.89388
G1 X18.037 Y17.327 F7800.000
G1 F2400.000
G1 X131.963 Y17.327 E552.79217
G1 X131.963 Y132.673 E557.75151
G1 X18.037 Y132.673 E562.64980
G1 X18.037 Y17.387 E567.60655
G1 X17.580 Y16.870 F7800.000
G1 F2160.000
G1 X132.420 Y16.870 E571.39826
G1 X132.420 Y133.130 E575.23685
G1 X17.580 Y133.130 E579.02857
G1 X17.580 Y16.930 E582.86518
G1 Z1.900 F7800.000
G1 E580.86518 F2400.00000
G92 E0
G1 X18.523 Y27.573 F7800.000
G1 E2.00000 F2400.00000
G1 F2400.000
G1 X19.400 Y27.573 E2.03771
M106 S255

G1 F2400.000
G1 X28.423 Y27.573 E2.50911
G1 X28.423 Y18.550 E2.98051
M106 S255

G1 F2400.000
G1 X28.423 Y17.673 E3.01822
G1 X121.577 Y17.673 E7.02343
G1 X121.577 Y18.550 E7.06114
M106 S255

G1 F2400.000
G1 X121.577 Y27.573 E7.53254
G1 X130.600 Y27.573 E8.00394
M106 S255

G1 F2400.000
G1 X131.477 Y27.573 E8.04165
G1 X131.477 Y122.427 E12.11994
G1 X130.600 Y122.427 E12.15765
M106 S255

G1 F2400.000
G1 X121.577 Y122.427 E12.62905
G1 X121.577 Y131.450 E13.10045
M106 S255

G1 F2400.000
G1 X121.577 Y132.327 E13.13816
G1 X28.423 Y132.327 E17.14337
G1 X28.423 Y131.450 E17.18108
M106 S255

G1 F2400.000
G1 X28.423 Y122.427 E17.65248
G1 X19.400 Y122.427 E18.12388
M106 S255

G1 F2400.000
G1 X18.523 Y122.427 E18.16159
G1 X18.523 Y27.633 E22.23730
G1 X18.980 Y28.030 F7800.000
G1 F2160.000
G1 X19.400 Y28.030 E22.25117
M106 S255

G1 F2400.000
G1 X28.880 Y28.030 E22.74645
G1 X28.880 Y18.550 E23.24173
M106 S255

G1 F2160.000
G1 X28.880 Y18.130 E23.25560
G1 X121.120 Y18.130 E26.30112
G1 X121.120 Y18.550 E26.31499
M106 S255

G1 F2400.000
G1 X121.120 Y28.030 E26.81027
G1 X130.600 Y28.030 E27.30555
M106 S255

G1 F2160.000
G1 X131.020 Y28.030 E27.31942
G1 X131.020 Y121.970 E30.42106
G1 X130.600 Y121.970 E30.43493
M106 S255

G1 F2400.000
G1 X121.120 Y121.970 E30.93021
G1 X121.120 Y131.450 E31.42549
M106 S255

G1 F2160.000
G1 X121.120 Y131.870 E31.43936
G1 X28.880 Y131.870 E34.48488
G1 X28.880 Y131.450 E34.49875
M106 S255

G1 F2400.000
G1 X28.880 Y121.970 E34.99403
G1 X19.400 Y121.970 E35.48931
M106 S255

G1 F2160.000
G1 X18.980 Y121.970 E35.50318
G1 X18.980 Y28.090 E38.60284
G1 E36.60284 F2400.00000
G92 E0
G1 X124.858 Y125.771 F7800.000
G1 E2.00000 F2400.00000
M106 S255

G1 F2400.000
G1 X125.059 Y125.593 E2.01406
G1 X125.291 Y125.456 E2.02813
G1 X125.544 Y125.365 E2.04219
G1 X125.810 Y125.323 E2.05625
G1 X126.090 Y125.332 E2.07088
G1 X126.417 Y125.416 E2.08852
G1 X126.666 Y125.543 E2.10313
G1 X126.879 Y125.708 E2.11720
G1 X127.057 Y125.909 E2.13126
G1 X127.194 Y126.141 E2.14532
G1 X127.285 Y126.394 E2.15938
G1 X127.327 Y126.660 E2.17345
G1 X127.319 Y126.929 E2.18751
G1 X127.260 Y127.192 E2.20157
G1 X127.149 Y127.449 E2.21620
G1 X126.951 Y127.722 E2.23383
G1 X126.741 Y127.907 E2.24846
G1 X126.509 Y128.044 E2.26251
G1 X126.256 Y128.135 E2.27657
G1 X125.990 Y128.177 E2.29064
G1 X125.721 Y128.169 E2.30470
G1 X125.458 Y128.110 E2.31877
G1 X125.211 Y128.003 E2.33284
G1 X124.980 Y127.846 E2.34746
G1 X124.749 Y127.600 E2.36508
G1 X124.606 Y127.359 E2.37971
G1 X124.515 Y127.106 E2.39377
G1 X124.471 Y126.829 E2.40840
G1 X124.492 Y126.492 E2.42604
G1 X124.570 Y126.223 E2.44066
G1 X124.693 Y125.984 E2.45472
G1 X124.821 Y125.818 E2.46565
M106 S255

G1 X125.192 Y126.085 F7800.000
M106 S255

G1 F2400.000
G1 X125.329 Y125.965 E2.47519
G1 X125.487 Y125.871 E2.48474
G1 X125.659 Y125.810 E2.49429
G1 X125.839 Y125.781 E2.50384
G1 X126.025 Y125.787 E2.51357
G1 X126.254 Y125.846 E2.52594
G1 X126.420 Y125.930 E2.53566
G1 X126.565 Y126.042 E2.54521
G1 X126.686 Y126.179 E2.55475
G1 X126.779 Y126.337 E2.56431
G1 X126.841 Y126.509 E2.57385
G1 X126.869 Y126.689 E2.58340
G1 X126.863 Y126.872 E2.59295
G1 X126.824 Y127.050 E2.60250
G1 X126.750 Y127.221 E2.61223
G1 X126.611 Y127.412 E2.62459
G1 X126.471 Y127.536 E2.63432
G1 X126.313 Y127.629 E2.64386
G1 X126.142 Y127.690 E2.65341
G1 X125.961 Y127.719 E2.66296
G1 X125.778 Y127.713 E2.67251
G1 X125.600 Y127.673 E2.68206
G1 X125.432 Y127.601 E2.69161
G1 X125.278 Y127.496 E2.70134
G1 X125.116 Y127.324 E2.71370
G1 X125.021 Y127.163 E2.72343
G1 X124.960 Y126.992 E2.73297
G1 X124.930 Y126.808 E2.74271
G1 X124.945 Y126.571 E2.75507
G1 X124.997 Y126.393 E2.76480
G1 X125.080 Y126.230 E2.77434
G1 X125.155 Y126.133 E2.78076
M106 S255

G1 E0.78076 F2400.00000
G92 E0
G1 X25.529 Y126.671 F7800.000
G1 E2.00000 F2400.00000
M106 S255

G1 F2400.000
G1 X25.508 Y127.008 E2.01764
G1 X25.430 Y127.277 E2.03226
G1 X25.307 Y127.516 E2.04632
G1 X25.143 Y127.729 E2.06038
G1 X24.941 Y127.907 E2.07445
G1 X24.709 Y128.044 E2.08851
G1 X24.456 Y128.135 E2.10257
G1 X24.190 Y128.177 E2.11664
G1 X23.910 Y128.169 E2.13126
G1 X23.583 Y128.085 E2.14890
G1 X23.334 Y127.958 E2.16351
G1 X23.121 Y127.793 E2.17758
G1 X22.943 Y127.591 E2.19164
G1 X22.806 Y127.359 E2.20570
G1 X22.715 Y127.106 E2.21977
G1 X22.673 Y126.840 E2.23384
G1 X22.681 Y126.571 E2.24789
G1 X22.740 Y126.308 E2.26195
G1 X22.851 Y126.051 E2.27658
G1 X23.049 Y125.778 E2.29421
G1 X23.259 Y125.593 E2.30884
G1 X23.491 Y125.456 E2.32290
G1 X23.744 Y125.365 E2.33696
G1 X24.010 Y125.323 E2.35102
G1 X24.279 Y125.331 E2.36509
G1 X24.542 Y125.390 E2.37915
G1 X24.789 Y125.497 E2.39322
G1 X25.020 Y125.654 E2.40784
G1 X25.251 Y125.900 E2.42546
G1 X25.394 Y126.141 E2.44009
G1 X25.485 Y126.394 E2.45416
G1 X25.520 Y126.612 E2.46565
M106 S255

G1 X25.070 Y126.693 F7800.000
M106 S255

G1 F2400.000
G1 X25.055 Y126.929 E2.47801
G1 X25.003 Y127.107 E2.48774
G1 X24.920 Y127.270 E2.49728
G1 X24.808 Y127.415 E2.50683
G1 X24.671 Y127.536 E2.51638
G1 X24.513 Y127.629 E2.52593
G1 X24.341 Y127.690 E2.53547
G1 X24.161 Y127.719 E2.54503
G1 X23.975 Y127.713 E2.55476
G1 X23.746 Y127.654 E2.56712
G1 X23.580 Y127.570 E2.57684
G1 X23.435 Y127.458 E2.58640
G1 X23.314 Y127.321 E2.59594
G1 X23.221 Y127.163 E2.60549
G1 X23.159 Y126.992 E2.61504
G1 X23.131 Y126.811 E2.62459
G1 X23.137 Y126.628 E2.63413
G1 X23.176 Y126.450 E2.64368
G1 X23.250 Y126.279 E2.65341
G1 X23.389 Y126.088 E2.66577
G1 X23.529 Y125.964 E2.67550
G1 X23.687 Y125.871 E2.68505
G1 X23.858 Y125.810 E2.69460
G1 X24.039 Y125.781 E2.70414
G1 X24.222 Y125.787 E2.71370
G1 X24.400 Y125.827 E2.72324
G1 X24.568 Y125.899 E2.73279
G1 X24.722 Y126.004 E2.74252
G1 X24.884 Y126.176 E2.75488
G1 X24.979 Y126.337 E2.76461
G1 X25.040 Y126.509 E2.77416
G1 X25.060 Y126.633 E2.78076
M106 S255

G1 E0.78076 F2400.00000
G92 E0
G1 X24.191 Y24.677 F7800.000
G1 E2.00000 F2400.00000
M106 S255

G1 F2400.000
G1 X23.921 Y24.669 E2.01408
G1 X23.658 Y24.610 E2.02819
G1 X23.402 Y24.499 E2.04274
G1 X23.128 Y24.301 E2.06039
G1 X22.943 Y24.090 E2.07508
G1 X22.806 Y23.858 E2.08916
G1 X22.715 Y23.605 E2.10319
G1 X22.673 Y23.340 E2.11723
G1 X22.681 Y23.071 E2.13129
G1 X22.740 Y22.808 E2.14538
G1 X22.847 Y22.561 E2.15943
G1 X23.004 Y22.330 E2.17401
G1 X23.249 Y22.099 E2.19164
G1 X23.518 Y21.939 E2.20798
G1 X23.979 Y21.821 E2.23282
G1 X24.281 Y21.832 E2.24861
G1 X24.542 Y21.890 E2.26259
G1 X24.798 Y22.001 E2.27716
G1 X25.071 Y22.199 E2.29479
G1 X25.257 Y22.410 E2.30948
G1 X25.394 Y22.641 E2.32353
G1 X25.485 Y22.893 E2.33753
G1 X25.527 Y23.161 E2.35166
G1 X25.519 Y23.429 E2.36571
G1 X25.460 Y23.692 E2.37979
G1 X25.353 Y23.939 E2.39382
G1 X25.196 Y24.170 E2.40842
G1 X24.950 Y24.401 E2.42605
G1 X24.708 Y24.545 E2.44080
G1 X24.454 Y24.635 E2.45488
G1 X24.250 Y24.667 E2.46566
M106 S255

G1 X24.161 Y24.219 F7800.000
M106 S255

G1 F2400.000
G1 X23.978 Y24.213 E2.47521
G1 X23.800 Y24.173 E2.48477
G1 X23.629 Y24.099 E2.49448
G1 X23.438 Y23.961 E2.50683
G1 X23.314 Y23.821 E2.51659
G1 X23.221 Y23.663 E2.52616
G1 X23.159 Y23.491 E2.53570
G1 X23.131 Y23.311 E2.54523
G1 X23.137 Y23.128 E2.55477
G1 X23.176 Y22.950 E2.56434
G1 X23.249 Y22.782 E2.57386
G1 X23.354 Y22.628 E2.58358
G1 X23.526 Y22.466 E2.59595
G1 X23.695 Y22.366 E2.60624
G1 X24.029 Y22.280 E2.62422
G1 X24.222 Y22.287 E2.63433
G1 X24.400 Y22.327 E2.64386
G1 X24.571 Y22.401 E2.65357
G1 X24.762 Y22.539 E2.66592
G1 X24.886 Y22.679 E2.67567
G1 X24.978 Y22.837 E2.68523
G1 X25.040 Y23.008 E2.69473
G1 X25.069 Y23.189 E2.70433
G1 X25.063 Y23.372 E2.71386
G1 X25.023 Y23.550 E2.72343
G1 X24.951 Y23.718 E2.73295
G1 X24.846 Y23.872 E2.74268
G1 X24.674 Y24.034 E2.75504
G1 X24.513 Y24.129 E2.76482
G1 X24.341 Y24.190 E2.77436
G1 X24.220 Y24.209 E2.78072
M106 S255

G1 E0.78072 F2400.00000
G92 E0
G1 X124.473 Y23.340 F7800.000
G1 E2.00000 F2400.00000
M106 S255

G1 F2400.000
G1 X124.481 Y23.071 E2.01407
G1 X124.540 Y22.808 E2.02815
G1 X124.647 Y22.561 E2.04218
G1 X124.804 Y22.330 E2.05677
G1 X125.050 Y22.099 E2.07441
G1 X125.319 Y21.939 E2.09075
G1 X125.789 Y21.818 E2.11611
G1 X126.159 Y21.842 E2.13551
G1 X126.428 Y21.921 E2.15013
G1 X126.665 Y22.042 E2.16405
G1 X126.879 Y22.207 E2.17812
G1 X127.057 Y22.410 E2.19227
G1 X127.194 Y22.641 E2.20631
G1 X127.285 Y22.893 E2.22031
G1 X127.327 Y23.161 E2.23444
G1 X127.319 Y23.429 E2.24848
G1 X127.260 Y23.693 E2.26258
G1 X127.153 Y23.939 E2.27662
G1 X126.996 Y24.170 E2.29120
G1 X126.750 Y24.401 E2.30884
G1 X126.508 Y24.545 E2.32359
G1 X126.254 Y24.635 E2.33766
G1 X125.991 Y24.677 E2.35157
G1 X125.721 Y24.669 E2.36564
G1 X125.458 Y24.610 E2.37976
G1 X125.202 Y24.499 E2.39432
G1 X124.929 Y24.301 E2.41195
G1 X124.743 Y24.090 E2.42664
G1 X124.606 Y23.858 E2.44073
G1 X124.515 Y23.605 E2.45476
G1 X124.482 Y23.399 E2.46567
M106 S255

G1 X124.931 Y23.311 F7800.000
M106 S255

G1 F2400.000
G1 X124.937 Y23.128 E2.47522
G1 X124.977 Y22.950 E2.48478
G1 X125.049 Y22.783 E2.49430
G1 X125.154 Y22.628 E2.50403
G1 X125.326 Y22.466 E2.51639
G1 X125.496 Y22.366 E2.52669
G1 X125.832 Y22.279 E2.54484
G1 X126.079 Y22.295 E2.55778
