; generated by Slic3r 1.3.1-dev (Build 2d100c4) on 2021-01-20 at 18:23:06

; external perimeters extrusion width = 0.44mm (2.86mm^3/s)
; perimeters extrusion width = 0.56mm (4.14mm^3/s)
; infill extrusion width = 0.50mm (3.66mm^3/s)
; solid infill extrusion width = 0.56mm (3.10mm^3/s)
; top infill extrusion width = 0.56mm (3.10mm^3/s)

M107
G92 E0
;D3D:START:START
T0
M104 S215 T0

G21
G90
M107
T0
G28
G29
M109 T0 S215 T0
G0 F3000
M107
T0
G92 E0
G0 X0 Y149 Z0.1 F3600
G1 Y49 E6.5 F1200
G0 Z1
G92 E0
; Filament gcode

G21 ; set units to millimeters
G90 ; use absolute coordinates
M82 ; use absolute distances for extrusion
G92 E0
G1 Z0.300 F7800.000
G1 E-2.00000 F2400.00000
G92 E0
G1 X18.504 Y17.654 F7800.000
G1 E2.00000 F2400.00000
G1 F1800.000
G1 X131.496 Y17.654 E5.74339
G1 X131.496 Y132.346 E9.54310
G1 X18.504 Y132.346 E13.28649
G1 X18.504 Y17.714 E17.08421
G1 X18.769 Y17.919 F7800.000
G1 F1800.000
G1 X131.231 Y17.919 E20.81001
G1 X131.231 Y132.081 E24.59211
G1 X18.769 Y132.081 E28.31791
G1 X18.769 Y17.979 E32.09803
G1 X19.035 Y18.185 F7800.000
G1 F1800.000
G1 X130.965 Y18.185 E35.80622
G1 X130.965 Y131.815 E39.57073
G1 X19.035 Y131.815 E43.27892
G1 X19.035 Y18.245 E47.04144
G1 X18.932 Y17.798 F7800.000
G1 X18.056 Y17.346 F7800.000
G1 F1800.000
G1 X131.944 Y17.346 E50.81449
G1 X131.944 Y132.654 E54.63457
G1 X18.056 Y132.654 E58.40762
G1 X18.056 Y17.406 E62.22571
G1 X17.791 Y17.081 F7800.000
G1 F1800.000
G1 X132.209 Y17.081 E66.01636
G1 X132.209 Y132.919 E69.85404
G1 X17.791 Y132.919 E73.64468
G1 X17.791 Y17.141 E77.48038
G1 X17.525 Y16.815 F7800.000
G1 F1800.000
G1 X132.475 Y16.815 E81.28862
G1 X132.475 Y133.185 E85.14390
G1 X17.525 Y133.185 E88.95215
G1 X17.525 Y16.875 E92.80544
G1 X17.911 Y16.919 F7800.000
G1 X18.280 Y17.479 F7800.000
G1 F1800.000
G1 X18.280 Y132.521 E94.49174
G1 X18.189 Y132.409 F7800.000
G1 F1800.000
G1 X18.371 Y132.500 E94.49223
G1 X131.629 Y132.500 E94.76511
G1 X131.811 Y132.409 E94.76560
G1 X131.720 Y132.521 F7800.000
G1 F1800.000
G1 X131.720 Y17.479 E96.45205
G1 X131.811 Y17.591 F7800.000
G1 F1800.000
G1 X131.629 Y17.500 E96.45254
G1 X18.371 Y17.500 E96.72692
G1 X18.189 Y17.591 E96.72742
M106 S255
G1 Z0.500 F7800.000
G1 X18.523 Y17.673 F7800.000
G1 F2400.000
G1 X131.477 Y17.673 E101.58393
G1 X131.477 Y132.327 E106.51352
G1 X18.523 Y132.327 E111.37003
G1 X18.523 Y17.733 E116.29705
G1 X18.980 Y18.130 F7800.000
G1 F2160.000
G1 X131.020 Y18.130 E119.99632
G1 X131.020 Y131.870 E123.75170
G1 X18.980 Y131.870 E127.45097
G1 X18.980 Y18.190 E131.20438
G1 X18.877 Y17.743 F7800.000
G1 X18.037 Y17.327 F7800.000
G1 F2400.000
G1 X131.963 Y17.327 E136.10267
G1 X131.963 Y132.673 E141.06200
G1 X18.037 Y132.673 E145.96029
G1 X18.037 Y17.387 E150.91704
G1 X17.580 Y16.870 F7800.000
G1 F2160.000
G1 X132.420 Y16.870 E154.70875
G1 X132.420 Y133.130 E158.54734
G1 X17.580 Y133.130 E162.33906
G1 X17.580 Y16.930 E166.17567
G1 X17.966 Y16.974 F7800.000
G1 Z0.700 F7800.000
G1 X18.523 Y17.673 F7800.000
G1 F2400.000
G1 X131.477 Y17.673 E171.03218
G1 X131.477 Y132.327 E175.96177
G1 X18.523 Y132.327 E180.81829
G1 X18.523 Y17.733 E185.74530
G1 X18.980 Y18.130 F7800.000
G1 F2160.000
G1 X131.020 Y18.130 E189.44457
G1 X131.020 Y131.870 E193.19996
G1 X18.980 Y131.870 E196.89922
G1 X18.980 Y18.190 E200.65263
G1 X18.877 Y17.743 F7800.000
G1 X18.037 Y17.327 F7800.000
G1 F2400.000
G1 X131.963 Y17.327 E205.55092
G1 X131.963 Y132.673 E210.51025
G1 X18.037 Y132.673 E215.40854
G1 X18.037 Y17.387 E220.36529
G1 X17.580 Y16.870 F7800.000
G1 F2160.000
G1 X132.420 Y16.870 E224.15701
G1 X132.420 Y133.130 E227.99560
G1 X17.580 Y133.130 E231.78731
G1 X17.580 Y16.930 E235.62392
G1 X17.966 Y16.974 F7800.000
G1 Z0.900 F7800.000
G1 X18.523 Y17.673 F7800.000
G1 F2400.000
G1 X131.477 Y17.673 E240.48043
G1 X131.477 Y132.327 E245.41003
G1 X18.523 Y132.327 E250.26654
G1 X18.523 Y17.733 E255.19355
G1 X18.980 Y18.130 F7800.000
G1 F2160.000
G1 X131.020 Y18.130 E258.89282
G1 X131.020 Y131.870 E262.64821
G1 X18.980 Y131.870 E266.34747
G1 X18.980 Y18.190 E270.10088
G1 X18.877 Y17.743 F7800.000
G1 X18.037 Y17.327 F7800.000
G1 F2400.000
G1 X131.963 Y17.327 E274.99917
G1 X131.963 Y132.673 E279.95850
G1 X18.037 Y132.673 E284.85679
G1 X18.037 Y17.387 E289.81354
G1 X17.580 Y16.870 F7800.000
G1 F2160.000
G1 X132.420 Y16.870 E293.60526
G1 X132.420 Y133.130 E297.44385
G1 X17.580 Y133.130 E301.23556
G1 X17.580 Y16.930 E305.07217
G1 X17.966 Y16.974 F7800.000
G1 Z1.100 F7800.000
G1 X18.523 Y17.673 F7800.000
G1 F2400.000
G1 X131.477 Y17.673 E309.92868
G1 X131.477 Y132.327 E314.85828
G1 X18.523 Y132.327 E319.71479
G1 X18.523 Y17.733 E324.64180
G1 X18.980 Y18.130 F7800.000
G1 F2160.000
G1 X131.020 Y18.130 E328.34107
G1 X131.020 Y131.870 E332.09646
G1 X18.980 Y131.870 E335.79572
G1 X18.980 Y18.190 E339.54913
G1 X18.877 Y17.743 F7800.000
G1 X18.037 Y17.327 F7800.000
G1 F2400.000
G1 X131.963 Y17.327 E344.44742
G1 X131.963 Y132.673 E349.40675
G1 X18.037 Y132.673 E354.30504
G1 X18.037 Y17.387 E359.26179
G1 X17.580 Y16.870 F7800.000
G1 F2160.000
G1 X132.420 Y16.870 E363.05351
G1 X132.420 Y133.130 E366.89210
G1 X17.580 Y133.130 E370.68381
G1 X17.580 Y16.930 E374.52042
G1 X17.966 Y16.974 F7800.000
G1 Z1.300 F7800.000
G1 X18.523 Y17.673 F7800.000
G1 F2400.000
G1 X131.477 Y17.673 E379.37693
G1 X131.477 Y132.327 E384.30653
G1 X18.523 Y132.327 E389.16304
G1 X18.523 Y17.733 E394.09006
G1 X18.980 Y18.130 F7800.000
G1 F2160.000
G1 X131.020 Y18.130 E397.78932
G1 X131.020 Y131.870 E401.54471
G1 X18.980 Y131.870 E405.24397
G1 X18.980 Y18.190 E408.99738
G1 X18.877 Y17.743 F7800.000
G1 X18.037 Y17.327 F7800.000
G1 F2400.000
G1 X131.963 Y17.327 E413.89567
G1 X131.963 Y132.673 E418.85500
G1 X18.037 Y132.673 E423.75329
G1 X18.037 Y17.387 E428.71005
G1 X17.580 Y16.870 F7800.000
G1 F2160.000
G1 X132.420 Y16.870 E432.50176
G1 X132.420 Y133.130 E436.34035
G1 X17.580 Y133.130 E440.13206
G1 X17.580 Y16.930 E443.96867
G1 X17.966 Y16.974 F7800.000
G1 Z1.500 F7800.000
G1 X18.523 Y17.673 F7800.000
G1 F2400.000
G1 X131.477 Y17.673 E448.82518
G1 X131.477 Y132.327 E453.75478
G1 X18.523 Y132.327 E458.61129
G1 X18.523 Y17.733 E463.53831
G1 X18.980 Y18.130 F7800.000
G1 F2160.000
G1 X131.020 Y18.130 E467.23757
G1 X131.020 Y131.870 E470.99296
G1 X18.980 Y131.870 E474.69223
G1 X18.980 Y18.190 E478.44563
G1 X18.877 Y17.743 F7800.000
G1 X18.037 Y17.327 F7800.000
G1 F2400.000
G1 X131.963 Y17.327 E483.34392
G1 X131.963 Y132.673 E488.30325
G1 X18.037 Y132.673 E493.20154
G1 X18.037 Y17.387 E498.15830
G1 X17.580 Y16.870 F7800.000
G1 F2160.000
G1 X132.420 Y16.870 E501.95001
G1 X132.420 Y133.130 E505.78860
G1 X17.580 Y133.130 E509.58032
G1 X17.580 Y16.930 E513.41692
G1 X17.966 Y16.974 F7800.000
G1 Z1.700 F7800.000
G1 X18.523 Y17.673 F7800.000
G1 F2400.000
G1 X131.477 Y17.673 E518.27344
G1 X131.477 Y132.327 E523.20303
G1 X18.523 Y132.327 E528.05954
G1 X18.523 Y17.733 E532.98656
G1 X18.980 Y18.130 F7800.000
G1 F2160.000
G1 X131.020 Y18.130 E536.68582
G1 X131.020 Y131.870 E540.44121
G1 X18.980 Y131.870 E544.14048
G1 X18.980 Y18.190 E547.89388
G1 X18.877 Y17.743 F7800.000
G1 X18.037 Y17.327 F7800.000
G1 F2400.000
G1 X131.963 Y17.327 E552.79217
G1 X131.963 Y132.673 E557.75151
G1 X18.037 Y132.673 E562.64980
G1 X18.037 Y17.387 E567.60655
G1 X17.580 Y16.870 F7800.000
G1 F2160.000
G1 X132.420 Y16.870 E571.39826
G1 X132.420 Y133.130 E575.23685
G1 X17.580 Y133.130 E579.02857
G1 X17.580 Y16.930 E582.86518
G1 X17.966 Y16.974 F7800.000
G1 Z1.900 F7800.000
G1 E580.86518 F2400.00000
G92 E0
G1 X18.523 Y27.573 F7800.000
G1 E2.00000 F2400.00000
G1 F2400.000
G1 X19.400 Y27.573 E2.03771
M106 S255

G1 F2400.000
G1 X28.423 Y27.573 E2.50911
G1 X28.423 Y18.550 E2.98051
M106 S255

G1 F2400.000
G1 X28.423 Y17.673 E3.01822
G1 X121.577 Y17.673 E7.02343
G1 X121.577 Y18.550 E7.06114
M106 S255

G1 F2400.000
G1 X121.577 Y27.573 E7.53254
G1 X130.600 Y27.573 E8.00394
M106 S255

G1 F2400.000
G1 X131.477 Y27.573 E8.04165
G1 X131.477 Y122.427 E12.11994
G1 X130.600 Y122.427 E12.15765
M106 S255

G1 F2400.000
G1 X121.577 Y122.427 E12.62905
G1 X121.577 Y131.450 E13.10045
M106 S255

G1 F2400.000
G1 X121.577 Y132.327 E13.13816
G1 X28.423 Y132.327 E17.14337
G1 X28.423 Y131.450 E17.18108
M106 S255

G1 F2400.000
G1 X28.423 Y122.427 E17.65248
G1 X19.400 Y122.427 E18.12388
M106 S255

G1 F2400.000
G1 X18.523 Y122.427 E18.16159
G1 X18.523 Y27.633 E22.23730
G1 X18.980 Y28.030 F7800.000
G1 F2160.000
G1 X19.400 Y28.030 E22.25117
M106 S255

G1 F2400.000
G1 X28.880 Y28.030 E22.74645
G1 X28.880 Y18.550 E23.24173
M106 S255

G1 F2160.000
G1 X28.880 Y18.130 E23.25560
G1 X121.120 Y18.130 E26.30112
G1 X121.120 Y18.550 E26.31499
M106 S255

G1 F2400.000
G1 X121.120 Y28.030 E26.81027
G1 X130.600 Y28.030 E27.30555
M106 S255

G1 F2160.000
G1 X131.020 Y28.030 E27.31942
G1 X131.020 Y121.970 E30.42106
G1 X130.600 Y121.970 E30.43493
M106 S255

G1 F2400.000
G1 X121.120 Y121.970 E30.93021
G1 X121.120 Y131.450 E31.42549
M106 S255

G1 F2160.000
G1 X121.120 Y131.870 E31.43936
G1 X28.880 Y131.870 E34.48488
G1 X28.880 Y131.450 E34.49875
M106 S255

G1 F2400.000
G1 X28.880 Y121.970 E34.99403
G1 X19.400 Y121.970 E35.48931
M106 S255

G1 F2160.000
G1 X18.980 Y121.970 E35.50318
G1 X18.980 Y28.090 E38.60284
G1 X18.979 Y27.630 F7800.000
G1 E36.60284 F2400.00000
G92 E0
G1 X124.479 Y125.416 F7800.000
G1 E2.00000 F2400.00000
M106 S255

G1 F2400.000
G1 X124.754 Y125.173 E2.01917
G1 X125.070 Y124.986 E2.03834
G1 X125.415 Y124.862 E2.05751
G1 X125.778 Y124.804 E2.07668
G1 X126.163 Y124.817 E2.09685
G1 X126.601 Y124.929 E2.12045
G1 X126.945 Y125.104 E2.14060
G1 X127.235 Y125.329 E2.15977
G1 X127.477 Y125.604 E2.17894
G1 X127.664 Y125.920 E2.19811
G1 X127.788 Y126.265 E2.21728
G1 X127.846 Y126.628 E2.23646
G1 X127.834 Y126.994 E2.25562
G1 X127.754 Y127.352 E2.27478
G1 X127.601 Y127.707 E2.29496
G1 X127.335 Y128.072 E2.31855
G1 X127.046 Y128.327 E2.33871
G1 X126.730 Y128.514 E2.35788
G1 X126.385 Y128.638 E2.37704
G1 X126.023 Y128.696 E2.39621
G1 X125.656 Y128.684 E2.41539
G1 X125.298 Y128.604 E2.43456
G1 X124.961 Y128.458 E2.45374
G1 X124.642 Y128.241 E2.47390
G1 X124.333 Y127.912 E2.49748
G1 X124.136 Y127.580 E2.51765
G1 X124.012 Y127.235 E2.53681
G1 X123.951 Y126.854 E2.55697
G1 X123.980 Y126.403 E2.58058
G1 X124.088 Y126.032 E2.60074
G1 X124.254 Y125.705 E2.61991
G1 X124.442 Y125.463 E2.63594
M106 S255

G1 X124.858 Y125.771 F7800.000
M106 S255

G1 F2400.000
G1 X125.059 Y125.593 E2.65000
G1 X125.291 Y125.456 E2.66407
G1 X125.544 Y125.365 E2.67813
G1 X125.810 Y125.323 E2.69219
G1 X126.090 Y125.332 E2.70682
G1 X126.417 Y125.416 E2.72446
G1 X126.666 Y125.543 E2.73907
G1 X126.879 Y125.708 E2.75314
G1 X127.057 Y125.909 E2.76720
G1 X127.194 Y126.141 E2.78126
G1 X127.285 Y126.394 E2.79532
G1 X127.327 Y126.660 E2.80939
G1 X127.319 Y126.929 E2.82345
G1 X127.260 Y127.192 E2.83751
G1 X127.149 Y127.449 E2.85214
G1 X126.951 Y127.722 E2.86977
G1 X126.741 Y127.907 E2.88440
G1 X126.509 Y128.044 E2.89845
G1 X126.256 Y128.135 E2.91251
G1 X125.990 Y128.177 E2.92658
G1 X125.721 Y128.169 E2.94064
G1 X125.458 Y128.110 E2.95471
G1 X125.211 Y128.003 E2.96878
G1 X124.980 Y127.846 E2.98340
G1 X124.749 Y127.600 E3.00102
G1 X124.606 Y127.359 E3.01565
G1 X124.515 Y127.106 E3.02971
G1 X124.471 Y126.829 E3.04434
G1 X124.492 Y126.492 E3.06198
G1 X124.570 Y126.223 E3.07660
G1 X124.693 Y125.984 E3.09066
G1 X124.821 Y125.818 E3.10159
M106 S255

G1 X125.192 Y126.085 F7800.000
M106 S255

G1 F2400.000
G1 X125.329 Y125.965 E3.11113
G1 X125.487 Y125.871 E3.12068
G1 X125.659 Y125.810 E3.13023
G1 X125.839 Y125.781 E3.13978
G1 X126.025 Y125.787 E3.14951
G1 X126.254 Y125.846 E3.16188
G1 X126.420 Y125.930 E3.17160
G1 X126.565 Y126.042 E3.18115
G1 X126.686 Y126.179 E3.19069
G1 X126.779 Y126.337 E3.20025
G1 X126.841 Y126.509 E3.20979
G1 X126.869 Y126.689 E3.21934
G1 X126.863 Y126.872 E3.22889
G1 X126.824 Y127.050 E3.23844
G1 X126.750 Y127.221 E3.24817
G1 X126.611 Y127.412 E3.26053
G1 X126.471 Y127.536 E3.27026
G1 X126.313 Y127.629 E3.27980
G1 X126.142 Y127.690 E3.28935
G1 X125.961 Y127.719 E3.29890
G1 X125.778 Y127.713 E3.30845
G1 X125.600 Y127.673 E3.31800
G1 X125.432 Y127.601 E3.32755
G1 X125.278 Y127.496 E3.33728
G1 X125.116 Y127.324 E3.34964
G1 X125.021 Y127.163 E3.35937
G1 X124.960 Y126.992 E3.36891
G1 X124.930 Y126.808 E3.37865
G1 X124.945 Y126.571 E3.39101
G1 X124.997 Y126.393 E3.40074
G1 X125.080 Y126.230 E3.41028
G1 X125.155 Y126.133 E3.41670
M106 S255

G1 E1.41670 F2400.00000
G92 E0
G1 X122.094 Y122.944 F7800.000
G1 E2.00000 F2400.00000
M106 S255

G1 F2400.000
G1 X130.600 Y122.944 E2.44439
M106 S255

G1 F2400.000
G1 X131.446 Y122.944 E2.48075
G1 X131.446 Y132.156 E2.87681
G1 X122.094 Y132.156 E3.27889
G1 X122.094 Y131.450 E3.30924
M106 S255

G1 F2400.000
G1 X122.094 Y123.004 E3.75049
M106 S255

G1 E1.75049 F2400.00000
G92 E0
G1 X26.049 Y126.646 F7800.000
G1 E2.00000 F2400.00000
M106 S255

G1 F2400.000
G1 X26.020 Y127.097 E2.02361
G1 X25.913 Y127.468 E2.04377
G1 X25.746 Y127.795 E2.06293
G1 X25.521 Y128.084 E2.08210
G1 X25.246 Y128.327 E2.10127
G1 X24.930 Y128.514 E2.12044
G1 X24.585 Y128.638 E2.13961
G1 X24.222 Y128.696 E2.15878
G1 X23.837 Y128.684 E2.17895
G1 X23.399 Y128.571 E2.20255
G1 X23.055 Y128.396 E2.22270
G1 X22.765 Y128.171 E2.24188
G1 X22.523 Y127.896 E2.26104
G1 X22.336 Y127.580 E2.28021
G1 X22.212 Y127.235 E2.29938
G1 X22.154 Y126.872 E2.31856
G1 X22.166 Y126.506 E2.33772
G1 X22.246 Y126.148 E2.35688
G1 X22.399 Y125.793 E2.37706
G1 X22.665 Y125.428 E2.40065
G1 X22.954 Y125.173 E2.42081
G1 X23.270 Y124.986 E2.43998
G1 X23.615 Y124.862 E2.45914
G1 X23.977 Y124.804 E2.47831
G1 X24.344 Y124.816 E2.49749
G1 X24.702 Y124.896 E2.51666
G1 X25.039 Y125.042 E2.53583
G1 X25.358 Y125.259 E2.55600
G1 X25.667 Y125.588 E2.57958
G1 X25.864 Y125.920 E2.59975
G1 X25.988 Y126.265 E2.61892
G1 X26.039 Y126.587 E2.63594
M106 S255

G1 X25.529 Y126.671 F7800.000
M106 S255

G1 F2400.000
G1 X25.508 Y127.008 E2.65358
G1 X25.430 Y127.277 E2.66820
G1 X25.307 Y127.516 E2.68226
G1 X25.143 Y127.729 E2.69632
G1 X24.941 Y127.907 E2.71039
G1 X24.709 Y128.044 E2.72445
G1 X24.456 Y128.135 E2.73851
G1 X24.190 Y128.177 E2.75258
G1 X23.910 Y128.169 E2.76720
G1 X23.583 Y128.085 E2.78484
G1 X23.334 Y127.958 E2.79945
G1 X23.121 Y127.793 E2.81352
G1 X22.943 Y127.591 E2.82758
G1 X22.806 Y127.359 E2.84164
G1 X22.715 Y127.106 E2.85571
G1 X22.673 Y126.840 E2.86978
G1 X22.681 Y126.571 E2.88383
G1 X22.740 Y126.308 E2.89789
G1 X22.851 Y126.051 E2.91252
G1 X23.049 Y125.778 E2.93015
G1 X23.259 Y125.593 E2.94478
G1 X23.491 Y125.456 E2.95884
G1 X23.744 Y125.365 E2.97290
G1 X24.010 Y125.323 E2.98696
G1 X24.279 Y125.331 E3.00103
G1 X24.542 Y125.390 E3.01509
G1 X24.789 Y125.497 E3.02915
G1 X25.020 Y125.654 E3.04378
G1 X25.251 Y125.900 E3.06140
G1 X25.394 Y126.141 E3.07603
G1 X25.485 Y126.394 E3.09010
G1 X25.520 Y126.612 E3.10159
M106 S255

G1 X25.070 Y126.693 F7800.000
M106 S255

G1 F2400.000
G1 X25.055 Y126.929 E3.11395
G1 X25.003 Y127.107 E3.12368
G1 X24.920 Y127.270 E3.13322
G1 X24.808 Y127.415 E3.14277
G1 X24.671 Y127.536 E3.15232
G1 X24.513 Y127.629 E3.16187
G1 X24.341 Y127.690 E3.17141
G1 X24.161 Y127.719 E3.18097
G1 X23.975 Y127.713 E3.19070
G1 X23.746 Y127.654 E3.20306
G1 X23.580 Y127.570 E3.21278
G1 X23.435 Y127.458 E3.22234
G1 X23.314 Y127.321 E3.23188
G1 X23.221 Y127.163 E3.24143
G1 X23.159 Y126.992 E3.25098
G1 X23.131 Y126.811 E3.26053
G1 X23.137 Y126.628 E3.27007
G1 X23.176 Y126.450 E3.27962
G1 X23.250 Y126.279 E3.28935
G1 X23.389 Y126.088 E3.30171
G1 X23.529 Y125.964 E3.31144
G1 X23.687 Y125.871 E3.32099
G1 X23.858 Y125.810 E3.33054
G1 X24.039 Y125.781 E3.34008
G1 X24.222 Y125.787 E3.34964
G1 X24.400 Y125.827 E3.35918
G1 X24.568 Y125.899 E3.36873
G1 X24.722 Y126.004 E3.37846
G1 X24.884 Y126.176 E3.39082
G1 X24.979 Y126.337 E3.40055
G1 X25.040 Y126.509 E3.41010
G1 X25.060 Y126.633 E3.41670
M106 S255

G1 E1.41670 F2400.00000
G92 E0
G1 X27.906 Y122.944 F7800.000
G1 E2.00000 F2400.00000
M106 S255

G1 F2400.000
G1 X27.906 Y131.450 E2.44439
M106 S255

G1 F2400.000
G1 X27.906 Y132.156 E2.47473
G1 X18.554 Y132.156 E2.87681
G1 X18.554 Y122.944 E3.27287
G1 X19.400 Y122.944 E3.30924
M106 S255

G1 F2400.000
G1 X27.846 Y122.944 E3.75049
M106 S255

G1 E1.75049 F2400.00000
