; generated by Slic3r 1.3.1-dev (Build 2d100c4) on 2021-01-20 at 18:23:26

; external perimeters extrusion width = 0.44mm (2.86mm^3/s)
; perimeters extrusion width = 0.56mm (4.14mm^3/s)
; infill extrusion width = 0.50mm (3.66mm^3/s)
; solid infill extrusion width = 0.56mm (3.10mm^3/s)
; top infill extrusion width = 0.56mm (3.10mm^3/s)

M107
G92 E0
;D3D:START:START
T0
M104 S215 T0

G21
G90
M107
T0
G28
G29
M109 T0 S215 T0
G0 F3000
M107
T0
G92 E0
G0 X0 Y149 Z0.1 F3600
G1 Y49 E6.5 F1200
G0 Z1
G92 E0
; Filament gcode

G21 ; set units to millimeters
G90 ; use absolute coordinates
M82 ; use absolute distances for extrusion
G92 E0
G1 Z0.300 F7800.000
G1 E-2.00000 F2400.00000
G92 E0
G1 X108.631 Y108.518 F7800.000
G1 E2.00000 F2400.00000
G1 F1800.000
G1 X109.070 Y108.132 E2.01937
G1 X109.532 Y107.773 E2.03873
G1 X110.015 Y107.445 E2.05809
G1 X110.518 Y107.147 E2.07745
G1 X111.039 Y106.882 E2.09681
G1 X111.575 Y106.650 E2.11618
G1 X112.125 Y106.452 E2.13554
G1 X112.686 Y106.289 E2.15490
G1 X113.257 Y106.161 E2.17427
G1 X113.834 Y106.070 E2.19363
G1 X114.416 Y106.015 E2.21299
G1 X115.000 Y105.997 E2.23235
G1 X115.584 Y106.015 E2.25172
G1 X116.166 Y106.070 E2.27108
G1 X116.743 Y106.161 E2.29044
G1 X117.314 Y106.289 E2.30980
G1 X117.875 Y106.452 E2.32917
G1 X118.425 Y106.650 E2.34853
G1 X118.961 Y106.882 E2.36789
G1 X119.482 Y107.147 E2.38725
G1 X119.985 Y107.445 E2.40662
G1 X120.468 Y107.773 E2.42598
G1 X120.930 Y108.132 E2.44534
G1 X121.369 Y108.518 E2.46471
G1 X121.782 Y108.931 E2.48407
G1 X122.168 Y109.370 E2.50343
G1 X122.527 Y109.832 E2.52280
G1 X122.855 Y110.315 E2.54216
G1 X123.153 Y110.818 E2.56152
G1 X123.418 Y111.339 E2.58088
G1 X123.650 Y111.875 E2.60025
G1 X123.848 Y112.425 E2.61961
G1 X124.011 Y112.986 E2.63897
G1 X124.139 Y113.557 E2.65834
G1 X124.230 Y114.134 E2.67770
G1 X124.285 Y114.716 E2.69706
G1 X124.303 Y115.300 E2.71642
G1 X124.285 Y115.884 E2.73578
G1 X124.230 Y116.466 E2.75515
G1 X124.139 Y117.043 E2.77451
G1 X124.011 Y117.614 E2.79387
G1 X123.848 Y118.175 E2.81323
G1 X123.650 Y118.725 E2.83260
G1 X123.418 Y119.261 E2.85196
G1 X123.153 Y119.782 E2.87132
G1 X122.855 Y120.285 E2.89069
G1 X122.527 Y120.768 E2.91005
G1 X122.168 Y121.230 E2.92941
G1 X121.782 Y121.669 E2.94878
G1 X121.369 Y122.082 E2.96814
G1 X120.930 Y122.468 E2.98750
G1 X120.468 Y122.827 E3.00686
G1 X119.985 Y123.155 E3.02622
G1 X119.482 Y123.453 E3.04559
G1 X118.961 Y123.718 E3.06495
G1 X118.425 Y123.950 E3.08432
G1 X117.875 Y124.148 E3.10368
G1 X117.314 Y124.311 E3.12304
G1 X116.743 Y124.439 E3.14240
G1 X116.166 Y124.530 E3.16177
G1 X115.584 Y124.585 E3.18113
G1 X115.000 Y124.603 E3.20049
G1 X114.416 Y124.585 E3.21985
G1 X113.834 Y124.530 E3.23921
G1 X113.257 Y124.439 E3.25858
G1 X112.686 Y124.311 E3.27794
G1 X112.125 Y124.148 E3.29730
G1 X111.575 Y123.950 E3.31666
G1 X111.039 Y123.718 E3.33603
G1 X110.518 Y123.453 E3.35539
G1 X110.015 Y123.155 E3.37476
G1 X109.532 Y122.827 E3.39412
G1 X109.070 Y122.468 E3.41348
G1 X108.631 Y122.082 E3.43284
G1 X108.218 Y121.669 E3.45220
G1 X107.832 Y121.230 E3.47157
G1 X107.473 Y120.768 E3.49093
G1 X107.145 Y120.285 E3.51029
G1 X106.847 Y119.782 E3.52966
G1 X106.582 Y119.261 E3.54902
G1 X106.350 Y118.725 E3.56838
G1 X106.152 Y118.175 E3.58775
G1 X105.989 Y117.614 E3.60711
G1 X105.861 Y117.043 E3.62647
G1 X105.770 Y116.466 E3.64583
G1 X105.715 Y115.884 E3.66520
G1 X105.697 Y115.300 E3.68456
G1 X105.715 Y114.716 E3.70392
G1 X105.770 Y114.134 E3.72328
G1 X105.861 Y113.557 E3.74264
G1 X105.989 Y112.986 E3.76201
G1 X106.152 Y112.425 E3.78137
G1 X106.350 Y111.875 E3.80073
G1 X106.582 Y111.339 E3.82010
G1 X106.847 Y110.818 E3.83946
G1 X107.145 Y110.315 E3.85882
G1 X107.473 Y109.832 E3.87818
G1 X107.832 Y109.370 E3.89755
G1 X108.218 Y108.931 E3.91691
G1 X108.589 Y108.561 E3.93428
G1 X108.449 Y108.324 F7800.000
G1 F1800.000
G1 X108.900 Y107.927 E3.95420
G1 X109.375 Y107.558 E3.97412
G1 X109.873 Y107.220 E3.99403
G1 X110.390 Y106.914 E4.01395
G1 X110.926 Y106.642 E4.03386
G1 X111.477 Y106.403 E4.05378
G1 X112.043 Y106.199 E4.07370
G1 X112.620 Y106.031 E4.09361
G1 X113.207 Y105.900 E4.11353
G1 X113.801 Y105.806 E4.13344
G1 X114.399 Y105.750 E4.15336
G1 X115.000 Y105.731 E4.17328
G1 X115.601 Y105.750 E4.19319
G1 X116.199 Y105.806 E4.21311
G1 X116.793 Y105.900 E4.23302
G1 X117.380 Y106.031 E4.25294
G1 X117.957 Y106.199 E4.27285
G1 X118.523 Y106.403 E4.29277
G1 X119.074 Y106.642 E4.31269
G1 X119.610 Y106.914 E4.33260
G1 X120.127 Y107.220 E4.35252
G1 X120.625 Y107.558 E4.37243
G1 X121.100 Y107.927 E4.39235
G1 X121.551 Y108.324 E4.41227
G1 X121.976 Y108.749 E4.43218
G1 X122.373 Y109.200 E4.45210
G1 X122.742 Y109.675 E4.47201
G1 X123.080 Y110.173 E4.49193
G1 X123.386 Y110.690 E4.51184
G1 X123.658 Y111.226 E4.53176
G1 X123.897 Y111.777 E4.55168
G1 X124.101 Y112.343 E4.57159
G1 X124.268 Y112.920 E4.59151
G1 X124.400 Y113.507 E4.61143
G1 X124.494 Y114.101 E4.63134
G1 X124.550 Y114.699 E4.65126
G1 X124.569 Y115.300 E4.67117
G1 X124.550 Y115.901 E4.69109
G1 X124.494 Y116.499 E4.71100
G1 X124.400 Y117.093 E4.73092
G1 X124.269 Y117.680 E4.75084
G1 X124.101 Y118.257 E4.77075
G1 X123.897 Y118.823 E4.79067
G1 X123.658 Y119.374 E4.81058
G1 X123.386 Y119.910 E4.83050
G1 X123.080 Y120.427 E4.85041
G1 X122.742 Y120.925 E4.87033
G1 X122.373 Y121.400 E4.89025
G1 X121.976 Y121.851 E4.91016
G1 X121.551 Y122.276 E4.93008
G1 X121.100 Y122.673 E4.94999
G1 X120.625 Y123.042 E4.96991
G1 X120.127 Y123.379 E4.98982
G1 X119.610 Y123.685 E5.00974
G1 X119.074 Y123.958 E5.02966
G1 X118.523 Y124.197 E5.04957
G1 X117.957 Y124.401 E5.06949
G1 X117.380 Y124.568 E5.08940
G1 X116.793 Y124.700 E5.10932
G1 X116.199 Y124.794 E5.12924
G1 X115.601 Y124.850 E5.14915
G1 X115.000 Y124.869 E5.16907
G1 X114.399 Y124.850 E5.18898
G1 X113.801 Y124.794 E5.20890
G1 X113.207 Y124.700 E5.22881
G1 X112.620 Y124.569 E5.24873
G1 X112.043 Y124.401 E5.26865
G1 X111.477 Y124.197 E5.28856
G1 X110.926 Y123.958 E5.30848
G1 X110.390 Y123.685 E5.32839
G1 X109.873 Y123.379 E5.34831
G1 X109.375 Y123.042 E5.36822
G1 X108.900 Y122.673 E5.38814
G1 X108.449 Y122.276 E5.40806
G1 X108.024 Y121.851 E5.42797
G1 X107.627 Y121.400 E5.44789
G1 X107.258 Y120.925 E5.46780
G1 X106.920 Y120.427 E5.48772
G1 X106.614 Y119.910 E5.50764
G1 X106.342 Y119.374 E5.52755
G1 X106.103 Y118.823 E5.54747
G1 X105.899 Y118.257 E5.56738
G1 X105.731 Y117.680 E5.58730
G1 X105.600 Y117.093 E5.60721
G1 X105.506 Y116.499 E5.62713
G1 X105.450 Y115.901 E5.64705
G1 X105.431 Y115.300 E5.66696
G1 X105.450 Y114.699 E5.68688
G1 X105.506 Y114.101 E5.70679
G1 X105.600 Y113.507 E5.72671
G1 X105.731 Y112.920 E5.74662
G1 X105.899 Y112.343 E5.76654
G1 X106.103 Y111.777 E5.78646
G1 X106.342 Y111.226 E5.80637
G1 X106.614 Y110.690 E5.82629
G1 X106.920 Y110.173 E5.84620
G1 X107.258 Y109.675 E5.86612
G1 X107.627 Y109.200 E5.88604
G1 X108.024 Y108.749 E5.90595
G1 X108.407 Y108.367 E5.92388
G1 X108.267 Y108.131 F7800.000
G1 F1800.000
G1 X108.731 Y107.722 E5.94435
G1 X109.219 Y107.343 E5.96482
G1 X109.730 Y106.996 E5.98529
G1 X110.262 Y106.682 E6.00576
G1 X110.812 Y106.401 E6.02622
G1 X111.380 Y106.156 E6.04669
G1 X111.961 Y105.946 E6.06716
G1 X112.554 Y105.774 E6.08763
G1 X113.157 Y105.639 E6.10810
G1 X113.767 Y105.543 E6.12857
G1 X114.382 Y105.484 E6.14904
G1 X115.000 Y105.465 E6.16951
G1 X115.618 Y105.484 E6.18998
G1 X116.233 Y105.543 E6.21044
G1 X116.843 Y105.639 E6.23091
G1 X117.446 Y105.774 E6.25138
G1 X118.039 Y105.946 E6.27185
G1 X118.620 Y106.156 E6.29232
G1 X119.188 Y106.401 E6.31279
G1 X119.738 Y106.682 E6.33326
G1 X120.270 Y106.996 E6.35373
G1 X120.781 Y107.343 E6.37420
G1 X121.269 Y107.722 E6.39466
G1 X121.732 Y108.131 E6.41513
G1 X122.169 Y108.568 E6.43560
G1 X122.578 Y109.031 E6.45607
G1 X122.957 Y109.519 E6.47654
G1 X123.304 Y110.030 E6.49701
G1 X123.618 Y110.562 E6.51748
G1 X123.899 Y111.112 E6.53795
G1 X124.144 Y111.679 E6.55842
G1 X124.354 Y112.261 E6.57888
G1 X124.526 Y112.854 E6.59935
G1 X124.661 Y113.457 E6.61982
G1 X124.757 Y114.067 E6.64029
G1 X124.816 Y114.682 E6.66076
G1 X124.835 Y115.300 E6.68123
G1 X124.816 Y115.918 E6.70170
G1 X124.757 Y116.533 E6.72217
G1 X124.661 Y117.143 E6.74264
G1 X124.526 Y117.746 E6.76311
G1 X124.354 Y118.339 E6.78357
G1 X124.144 Y118.920 E6.80404
G1 X123.899 Y119.488 E6.82451
G1 X123.618 Y120.038 E6.84498
G1 X123.304 Y120.570 E6.86545
G1 X122.957 Y121.081 E6.88592
G1 X122.578 Y121.569 E6.90639
G1 X122.169 Y122.032 E6.92686
G1 X121.732 Y122.469 E6.94732
G1 X121.269 Y122.878 E6.96780
G1 X120.781 Y123.257 E6.98826
G1 X120.270 Y123.604 E7.00873
G1 X119.738 Y123.918 E7.02920
G1 X119.188 Y124.199 E7.04967
G1 X118.620 Y124.444 E7.07014
G1 X118.039 Y124.654 E7.09061
G1 X117.446 Y124.826 E7.11108
G1 X116.843 Y124.961 E7.13155
G1 X116.233 Y125.057 E7.15202
G1 X115.618 Y125.115 E7.17248
G1 X115.000 Y125.135 E7.19295
G1 X114.382 Y125.115 E7.21342
G1 X113.767 Y125.057 E7.23389
G1 X113.157 Y124.961 E7.25436
G1 X112.554 Y124.826 E7.27483
G1 X111.961 Y124.654 E7.29530
G1 X111.380 Y124.444 E7.31576
G1 X110.812 Y124.199 E7.33623
G1 X110.262 Y123.918 E7.35670
G1 X109.730 Y123.604 E7.37717
G1 X109.219 Y123.257 E7.39764
G1 X108.731 Y122.878 E7.41811
G1 X108.267 Y122.469 E7.43858
G1 X107.831 Y122.032 E7.45905
G1 X107.422 Y121.569 E7.47952
G1 X107.043 Y121.081 E7.49999
G1 X106.696 Y120.570 E7.52046
G1 X106.382 Y120.038 E7.54092
G1 X106.101 Y119.488 E7.56139
G1 X105.856 Y118.920 E7.58186
G1 X105.646 Y118.339 E7.60233
G1 X105.474 Y117.746 E7.62280
G1 X105.339 Y117.143 E7.64327
G1 X105.243 Y116.533 E7.66374
G1 X105.184 Y115.918 E7.68420
G1 X105.165 Y115.300 E7.70467
G1 X105.184 Y114.682 E7.72514
G1 X105.243 Y114.067 E7.74561
G1 X105.339 Y113.457 E7.76608
G1 X105.474 Y112.854 E7.78655
G1 X105.646 Y112.261 E7.80702
G1 X105.856 Y111.679 E7.82749
G1 X106.101 Y111.112 E7.84796
G1 X106.382 Y110.562 E7.86843
G1 X106.696 Y110.030 E7.88889
G1 X107.043 Y109.519 E7.90936
G1 X107.422 Y109.031 E7.92983
G1 X107.831 Y108.568 E7.95030
G1 X108.225 Y108.173 E7.96878
G1 X108.650 Y108.246 F7800.000
G1 X108.918 Y108.607 F7800.000
G1 F1800.000
G1 X108.307 Y109.218 E7.99743
G1 X107.933 Y109.642 E8.01617
G1 X107.585 Y110.091 E8.03498
G1 X107.158 Y110.743 E8.06080
G1 X110.443 Y107.458 E8.21473
G1 X110.749 Y107.277 E8.22653
G1 X111.259 Y107.017 E8.24550
G1 X106.717 Y111.559 E8.45835
G1 X106.447 Y112.205 E8.48155
G1 X111.905 Y106.747 E8.73733
G1 X112.475 Y106.554 E8.75725
G1 X106.254 Y112.774 E9.04878
G1 X106.113 Y113.291 E9.06653
G1 X112.991 Y106.413 E9.38888
G1 X113.470 Y106.310 E9.40511
G1 X106.010 Y113.770 E9.75473
G1 X105.939 Y114.216 E9.76971
G1 X113.917 Y106.239 E10.14357
G1 X114.335 Y106.196 E10.15752
G1 X105.896 Y114.635 E10.55302
G1 X105.871 Y115.036 E10.56633
G1 X114.736 Y106.171 E10.98181
G1 X115.123 Y106.160 E10.99462
G1 X105.860 Y115.423 E11.42873
G1 X105.871 Y115.787 E11.44080
G1 X115.487 Y106.171 E11.89145
G1 X115.841 Y106.193 E11.90319
G1 X105.893 Y116.141 E12.36939
G1 X105.925 Y116.484 E12.38082
G1 X116.184 Y106.225 E12.86158
G1 X116.512 Y106.274 E12.87254
G1 X105.974 Y116.812 E13.36637
G1 X106.027 Y117.134 E13.37719
G1 X116.834 Y106.327 E13.88362
G1 X117.141 Y106.396 E13.89404
G1 X106.096 Y117.441 E14.41164
G1 X106.170 Y117.743 E14.42194
G1 X117.443 Y106.470 E14.95024
G1 X117.734 Y106.554 E14.96029
G1 X106.254 Y118.034 E15.49827
G1 X106.345 Y118.319 E15.50817
G1 X118.019 Y106.645 E16.05521
G1 X118.295 Y106.745 E16.06494
G1 X106.445 Y118.595 E16.62026
G1 X106.552 Y118.864 E16.62985
G1 X118.564 Y106.852 E17.19280
G1 X118.826 Y106.965 E17.20226
G1 X106.665 Y119.126 E17.77218
G1 X106.785 Y119.382 E17.78153
G1 X119.082 Y107.085 E18.35776
G1 X119.330 Y107.212 E18.36702
G1 X106.912 Y119.630 E18.94897
G1 X107.045 Y119.873 E18.95814
G1 X119.573 Y107.345 E19.54522
G1 X119.809 Y107.485 E19.55431
G1 X107.185 Y120.109 E20.14591
G1 X107.330 Y120.340 E20.15495
G1 X120.040 Y107.630 E20.75058
G1 X120.264 Y107.782 E20.75954
G1 X107.482 Y120.564 E21.35854
G1 X107.638 Y120.784 E21.36747
G1 X120.484 Y107.938 E21.96946
G1 X120.695 Y108.102 E21.97833
G1 X107.802 Y120.995 E22.58254
G1 X107.969 Y121.204 E22.59140
G1 X120.904 Y108.268 E23.19762
G1 X121.104 Y108.445 E23.20644
G1 X108.145 Y121.404 E23.81376
G1 X108.309 Y121.590 E23.82197
G1 X108.321 Y121.603 E23.82258
G1 X121.303 Y108.621 E24.43093
G1 X121.491 Y108.809 E24.43973
G1 X108.509 Y121.791 E25.04809
G1 X108.697 Y121.979 E25.05689
G1 X121.679 Y108.997 E25.66524
G1 X121.855 Y109.196 E25.67406
G1 X108.896 Y122.155 E26.28138
G1 X109.096 Y122.331 E26.29020
G1 X122.032 Y109.396 E26.89641
G1 X122.198 Y109.605 E26.90527
G1 X109.305 Y122.498 E27.50949
G1 X109.516 Y122.662 E27.51836
G1 X122.362 Y109.816 E28.12035
G1 X122.518 Y110.036 E28.12928
G1 X109.736 Y122.818 E28.72827
G1 X109.960 Y122.970 E28.73724
G1 X122.670 Y110.260 E29.33287
G1 X122.815 Y110.491 E29.34190
G1 X110.191 Y123.115 E29.93351
G1 X110.427 Y123.255 E29.94260
G1 X122.955 Y110.727 E30.52968
G1 X123.088 Y110.970 E30.53885
G1 X110.670 Y123.388 E31.12080
G1 X110.919 Y123.515 E31.13006
G1 X123.215 Y111.218 E31.70628
G1 X123.335 Y111.474 E31.71564
G1 X111.174 Y123.635 E32.28555
G1 X111.436 Y123.748 E32.29502
G1 X123.449 Y111.736 E32.85796
G1 X123.555 Y112.005 E32.86755
G1 X111.705 Y123.855 E33.42287
G1 X111.981 Y123.955 E33.43260
G1 X123.655 Y112.281 E33.97964
G1 X123.746 Y112.566 E33.98954
G1 X112.266 Y124.046 E34.52752
G1 X112.557 Y124.130 E34.53757
G1 X123.830 Y112.857 E35.06586
G1 X123.904 Y113.159 E35.07616
G1 X112.859 Y124.204 E35.59376
G1 X113.166 Y124.273 E35.60418
G1 X123.973 Y113.466 E36.11060
G1 X124.026 Y113.788 E36.12143
G1 X113.489 Y124.326 E36.61525
G1 X113.816 Y124.375 E36.62621
G1 X124.075 Y114.116 E37.10697
G1 X124.107 Y114.459 E37.11840
G1 X114.159 Y124.407 E37.58459
G1 X114.513 Y124.429 E37.59634
G1 X124.129 Y114.813 E38.04698
G1 X124.140 Y115.177 E38.05905
G1 X114.877 Y124.440 E38.49316
G1 X115.264 Y124.429 E38.50597
G1 X124.129 Y115.564 E38.92145
G1 X124.104 Y115.965 E38.93476
G1 X115.665 Y124.404 E39.33026
G1 X116.084 Y124.361 E39.34421
G1 X124.061 Y116.384 E39.71806
G1 X123.990 Y116.830 E39.73303
G1 X116.530 Y124.290 E40.08265
G1 X117.009 Y124.187 E40.09888
G1 X123.887 Y117.309 E40.42123
G1 X123.746 Y117.826 E40.43898
G1 X117.526 Y124.046 E40.73050
G1 X118.095 Y123.853 E40.75042
G1 X123.553 Y118.395 E41.00619
G1 X123.283 Y119.041 E41.02939
G1 X118.741 Y123.583 E41.24223
G1 X119.251 Y123.323 E41.26119
G1 X119.557 Y123.142 E41.27300
G1 X122.842 Y119.857 E41.42691
G1 X122.415 Y120.509 E41.45272
G1 X122.067 Y120.958 E41.47153
G1 X121.692 Y121.382 E41.49030
G1 X121.082 Y121.992 E41.51889
G1 E39.51889 F2400.00000
G92 E0
G1 X44.230 Y114.134 F7800.000
G1 E2.00000 F2400.00000
G1 F1800.000
G1 X44.285 Y114.716 E2.01937
G1 X44.303 Y115.300 E2.03873
G1 X44.285 Y115.884 E2.05809
G1 X44.230 Y116.466 E2.07745
G1 X44.139 Y117.043 E2.09682
G1 X44.011 Y117.614 E2.11618
G1 X43.848 Y118.175 E2.13554
G1 X43.650 Y118.725 E2.15490
G1 X43.418 Y119.261 E2.17427
G1 X43.153 Y119.782 E2.19363
G1 X42.855 Y120.285 E2.21299
G1 X42.527 Y120.768 E2.23235
G1 X42.168 Y121.230 E2.25172
G1 X41.782 Y121.669 E2.27108
G1 X41.369 Y122.082 E2.29044
G1 X40.930 Y122.468 E2.30981
G1 X40.468 Y122.827 E2.32917
G1 X39.985 Y123.155 E2.34853
G1 X39.482 Y123.453 E2.36789
G1 X38.961 Y123.718 E2.38726
G1 X38.425 Y123.950 E2.40662
G1 X37.875 Y124.148 E2.42598
G1 X37.314 Y124.311 E2.44534
G1 X36.743 Y124.439 E2.46471
G1 X36.166 Y124.530 E2.48407
G1 X35.584 Y124.585 E2.50343
G1 X35.000 Y124.603 E2.52279
G1 X34.416 Y124.585 E2.54216
G1 X33.834 Y124.530 E2.56152
G1 X33.257 Y124.439 E2.58088
G1 X32.686 Y124.311 E2.60025
G1 X32.125 Y124.148 E2.61961
G1 X31.575 Y123.950 E2.63897
G1 X31.039 Y123.718 E2.65833
G1 X30.518 Y123.453 E2.67770
G1 X30.015 Y123.155 E2.69706
G1 X29.532 Y122.827 E2.71642
G1 X29.070 Y122.468 E2.73578
G1 X28.631 Y122.082 E2.75515
G1 X28.218 Y121.669 E2.77451
G1 X27.832 Y121.230 E2.79387
G1 X27.473 Y120.768 E2.81324
G1 X27.145 Y120.285 E2.83260
G1 X26.847 Y119.782 E2.85196
G1 X26.582 Y119.261 E2.87132
G1 X26.350 Y118.725 E2.89069
G1 X26.152 Y118.175 E2.91005
G1 X25.989 Y117.614 E2.92941
G1 X25.861 Y117.043 E2.94877
G1 X25.770 Y116.466 E2.96814
G1 X25.715 Y115.884 E2.98750
G1 X25.697 Y115.300 E3.00686
G1 X25.715 Y114.716 E3.02622
