; generated by Slic3r 1.3.1-dev (Build (Unknown revision)) on 2020-04-21 at 15:04:29

; external perimeters extrusion width = 0.44mm (2.86mm^3/s)
; perimeters extrusion width = 0.56mm (4.14mm^3/s)
; infill extrusion width = 0.50mm (3.66mm^3/s)
; solid infill extrusion width = 0.56mm (3.10mm^3/s)
; top infill extrusion width = 0.56mm (3.10mm^3/s)

M107
G92 E0
;D3D:START:START
T0
M104 S215 T0

G21
G90
M107
T0
G28
G29
M109 T0 S215 T0
G0 F3000
M107
T0
G92 E0
G0 X0 Y149 Z0.1 F3600
G1 Y49 E6.5 F1200
G0 Z1
G92 E0
; Filament gcode

G21 ; set units to millimeters
G90 ; use absolute coordinates
M82 ; use absolute distances for extrusion
G92 E0
G1 Z0.300 F7800.000
G1 E-2.00000 F2400.00000
G92 E0
G1 X72.474 Y74.341 F7800.000
G1 E2.00000 F2400.00000
G1 F1800.000
G1 X72.921 Y73.927 E2.02019
G1 X73.434 Y73.599 E2.04038
G1 X73.998 Y73.368 E2.06056
G1 X74.594 Y73.241 E2.08075
G1 X75.203 Y73.223 E2.10094
G1 X75.790 Y73.311 E2.12061
G1 X76.113 Y73.406 E2.13175
G1 X76.655 Y73.647 E2.15141
G1 X77.159 Y73.990 E2.17160
G1 X77.593 Y74.418 E2.19179
G1 X77.944 Y74.916 E2.21198
G1 X78.193 Y75.455 E2.23165
G1 X78.292 Y75.776 E2.24278
G1 X78.390 Y76.362 E2.26245
G1 X78.380 Y76.971 E2.28264
G1 X78.263 Y77.569 E2.30283
G1 X78.040 Y78.136 E2.32302
G1 X77.720 Y78.655 E2.34320
G1 X77.312 Y79.108 E2.36339
G1 X76.830 Y79.480 E2.38358
G1 X76.303 Y79.754 E2.40325
G1 X75.987 Y79.867 E2.41438
G1 X75.406 Y79.991 E2.43405
G1 X74.812 Y80.008 E2.45372
G1 X74.478 Y79.973 E2.46486
G1 X73.913 Y79.835 E2.48411
G1 X73.393 Y79.626 E2.50269
G1 X71.590 Y76.502 E2.62217
G1 X71.669 Y75.947 E2.64075
G1 X71.836 Y75.374 E2.66053
G1 X72.108 Y74.829 E2.68072
G1 X72.438 Y74.389 E2.69892
G1 X72.672 Y74.520 F7800.000
G1 F1800.000
G1 X73.084 Y74.138 E2.71752
G1 X73.557 Y73.836 E2.73613
G1 X74.077 Y73.623 E2.75473
G1 X74.626 Y73.506 E2.77333
G1 X75.187 Y73.489 E2.79194
G1 X75.733 Y73.571 E2.81022
G1 X76.021 Y73.656 E2.82017
G1 X76.525 Y73.880 E2.83845
G1 X76.989 Y74.196 E2.85706
G1 X77.389 Y74.590 E2.87566
G1 X77.713 Y75.050 E2.89427
G1 X77.945 Y75.550 E2.91255
G1 X78.033 Y75.837 E2.92250
G1 X78.124 Y76.382 E2.94078
G1 X78.115 Y76.943 E2.95938
G1 X78.007 Y77.494 E2.97799
G1 X77.802 Y78.017 E2.99659
G1 X77.506 Y78.495 E3.01520
G1 X77.131 Y78.912 E3.03380
G1 X76.686 Y79.256 E3.05241
G1 X76.197 Y79.510 E3.07069
G1 X75.914 Y79.611 E3.08064
G1 X75.374 Y79.726 E3.09892
G1 X74.822 Y79.742 E3.11720
G1 X74.524 Y79.711 E3.12715
G1 X73.995 Y79.582 E3.14518
G1 X73.578 Y79.414 E3.16009
G1 X71.866 Y76.449 E3.27351
G1 X71.929 Y76.003 E3.28842
G1 X72.084 Y75.471 E3.30677
G1 X72.335 Y74.969 E3.32537
G1 X72.636 Y74.568 E3.34199
G1 X72.870 Y74.698 F7800.000
G1 F1800.000
G1 X73.247 Y74.349 E3.35901
G1 X73.680 Y74.072 E3.37603
G1 X74.155 Y73.877 E3.39305
G1 X74.658 Y73.771 E3.41007
G1 X75.171 Y73.755 E3.42709
G1 X75.676 Y73.831 E3.44399
G1 X75.930 Y73.906 E3.45275
G1 X76.396 Y74.113 E3.46965
G1 X76.820 Y74.402 E3.48667
G1 X77.186 Y74.763 E3.50369
G1 X77.482 Y75.183 E3.52071
G1 X77.696 Y75.646 E3.53761
G1 X77.774 Y75.899 E3.54637
G1 X77.858 Y76.402 E3.56327
G1 X77.850 Y76.915 E3.58029
G1 X77.751 Y77.419 E3.59731
G1 X77.563 Y77.898 E3.61433
G1 X77.293 Y78.335 E3.63135
G1 X76.949 Y78.717 E3.64837
G1 X76.543 Y79.031 E3.66539
G1 X76.090 Y79.266 E3.68229
G1 X75.841 Y79.355 E3.69105
G1 X75.342 Y79.461 E3.70795
G1 X74.832 Y79.476 E3.72484
G1 X74.569 Y79.449 E3.73361
G1 X74.077 Y79.328 E3.75041
G1 X73.762 Y79.201 E3.76165
G1 X72.142 Y76.395 E3.86900
G1 X72.189 Y76.059 E3.88024
G1 X72.332 Y75.569 E3.89717
G1 X72.562 Y75.109 E3.91419
G1 X72.834 Y74.746 E3.92922
G1 E1.92922 F2400.00000
G92 E0
G1 X71.696 Y67.186 F7800.000
G1 E2.00000 F2400.00000
G1 F1800.000
G1 X71.696 Y51.784 E2.51027
G1 X73.876 Y51.588 E2.58277
G1 X76.124 Y51.588 E2.65725
G1 X78.304 Y51.784 E2.72975
G1 X78.304 Y67.186 E3.24002
G1 X85.651 Y63.641 E3.51027
G1 X86.151 Y63.454 E3.52796
G1 X86.666 Y63.312 E3.54566
G1 X87.191 Y63.216 E3.56336
G1 X87.723 Y63.168 E3.58105
G1 X88.258 Y63.168 E3.59875
G1 X88.790 Y63.216 E3.61645
G1 X89.315 Y63.312 E3.63415
G1 X89.830 Y63.454 E3.65185
G1 X90.330 Y63.641 E3.66954
G1 X90.812 Y63.873 E3.68724
G1 X91.270 Y64.147 E3.70494
G1 X91.702 Y64.461 E3.72264
G1 X92.105 Y64.813 E3.74034
G1 X92.474 Y65.199 E3.75803
G1 X92.807 Y65.617 E3.77573
G1 X93.101 Y66.062 E3.79343
G1 X93.354 Y66.533 E3.81112
G1 X93.564 Y67.024 E3.82882
G1 X93.729 Y67.532 E3.84652
G1 X93.848 Y68.053 E3.86422
G1 X93.920 Y68.582 E3.88192
G1 X93.944 Y69.116 E3.89961
G1 X93.920 Y69.649 E3.91731
G1 X93.848 Y70.179 E3.93501
G1 X93.729 Y70.700 E3.95271
G1 X93.564 Y71.208 E3.97040
G1 X93.354 Y71.699 E3.98810
G1 X93.101 Y72.169 E4.00580
G1 X92.807 Y72.615 E4.02350
G1 X92.474 Y73.033 E4.04120
G1 X92.105 Y73.419 E4.05889
G1 X91.702 Y73.770 E4.07659
G1 X89.255 Y75.467 E4.17525
G1 X84.820 Y78.471 E4.35269
G1 X98.139 Y86.160 E4.86218
G1 X97.572 Y87.486 E4.90995
G1 X96.507 Y89.466 E4.98442
G1 X95.268 Y91.342 E5.05891
G1 X94.836 Y91.883 E5.08185
G1 X81.517 Y84.193 E5.59137
G1 X80.931 Y92.140 E5.85534
G1 X80.858 Y92.679 E5.87337
G1 X80.739 Y93.200 E5.89107
G1 X80.574 Y93.708 E5.90877
G1 X80.364 Y94.199 E5.92647
G1 X80.111 Y94.669 E5.94416
G1 X79.816 Y95.115 E5.96186
G1 X79.483 Y95.533 E5.97956
G1 X79.114 Y95.919 E5.99726
G1 X78.712 Y96.270 E6.01496
G1 X78.280 Y96.584 E6.03265
G1 X77.821 Y96.858 E6.05035
G1 X77.340 Y97.090 E6.06805
G1 X76.840 Y97.278 E6.08574
G1 X76.325 Y97.420 E6.10344
G1 X75.799 Y97.515 E6.12114
G1 X75.267 Y97.563 E6.13884
G1 X74.733 Y97.563 E6.15654
G1 X74.201 Y97.515 E6.17423
G1 X73.675 Y97.420 E6.19193
G1 X73.160 Y97.278 E6.20963
G1 X72.660 Y97.090 E6.22733
G1 X72.179 Y96.858 E6.24503
G1 X71.720 Y96.584 E6.26272
G1 X71.288 Y96.270 E6.28042
G1 X70.886 Y95.919 E6.29812
G1 X70.517 Y95.533 E6.31582
G1 X70.184 Y95.115 E6.33351
G1 X69.889 Y94.669 E6.35121
G1 X69.636 Y94.199 E6.36891
G1 X69.426 Y93.708 E6.38661
G1 X69.261 Y93.200 E6.40430
G1 X69.142 Y92.679 E6.42200
G1 X69.069 Y92.140 E6.44003
G1 X68.483 Y84.193 E6.70400
G1 X55.164 Y91.883 E7.21353
G1 X54.732 Y91.342 E7.23648
G1 X53.493 Y89.466 E7.31095
G1 X52.428 Y87.486 E7.38543
G1 X51.861 Y86.160 E7.43320
G1 X65.180 Y78.471 E7.94268
G1 X60.745 Y75.467 E8.12012
G1 X58.298 Y73.770 E8.21878
G1 X57.895 Y73.419 E8.23648
G1 X57.526 Y73.033 E8.25418
G1 X57.193 Y72.615 E8.27188
G1 X56.899 Y72.169 E8.28958
G1 X56.646 Y71.699 E8.30727
G1 X56.436 Y71.208 E8.32497
G1 X56.271 Y70.700 E8.34267
G1 X56.152 Y70.179 E8.36037
G1 X56.080 Y69.649 E8.37806
G1 X56.056 Y69.116 E8.39576
G1 X56.080 Y68.582 E8.41346
G1 X56.152 Y68.053 E8.43116
G1 X56.271 Y67.532 E8.44885
G1 X56.436 Y67.024 E8.46655
G1 X56.646 Y66.533 E8.48425
G1 X56.899 Y66.062 E8.50195
G1 X57.193 Y65.617 E8.51964
G1 X57.526 Y65.199 E8.53734
G1 X57.895 Y64.813 E8.55504
G1 X58.298 Y64.461 E8.57274
G1 X58.730 Y64.147 E8.59044
G1 X59.188 Y63.873 E8.60813
G1 X59.670 Y63.641 E8.62583
G1 X60.170 Y63.454 E8.64353
G1 X60.685 Y63.312 E8.66123
G1 X61.210 Y63.216 E8.67893
G1 X61.742 Y63.168 E8.69662
G1 X62.277 Y63.168 E8.71432
G1 X62.809 Y63.216 E8.73202
G1 X63.334 Y63.312 E8.74972
G1 X63.849 Y63.454 E8.76742
G1 X64.349 Y63.641 E8.78510
G1 X71.642 Y67.160 E9.05337
G1 X71.431 Y66.763 F7800.000
G1 F1800.000
G1 X71.431 Y51.557 E9.55714
G1 X71.601 Y51.526 E9.56289
G1 X73.864 Y51.322 E9.63816
G1 X76.136 Y51.322 E9.71342
G1 X78.399 Y51.526 E9.78869
G1 X78.569 Y51.557 E9.79444
G1 X78.569 Y66.763 E10.29821
G1 X85.546 Y63.397 E10.55485
G1 X86.068 Y63.201 E10.57333
G1 X86.606 Y63.053 E10.59182
G1 X87.156 Y62.953 E10.61031
G1 X87.711 Y62.903 E10.62879
G1 X88.269 Y62.903 E10.64728
G1 X88.825 Y62.953 E10.66577
G1 X89.374 Y63.053 E10.68426
G1 X89.912 Y63.201 E10.70275
G1 X90.435 Y63.397 E10.72123
G1 X90.938 Y63.639 E10.73972
G1 X91.417 Y63.925 E10.75821
G1 X91.868 Y64.253 E10.77670
G1 X92.288 Y64.621 E10.79519
G1 X92.674 Y65.024 E10.81368
G1 X93.022 Y65.460 E10.83216
G1 X93.329 Y65.926 E10.85065
G1 X93.594 Y66.417 E10.86914
G1 X93.813 Y66.931 E10.88763
G1 X93.986 Y67.461 E10.90612
G1 X94.110 Y68.005 E10.92461
G1 X94.185 Y68.558 E10.94309
G1 X94.210 Y69.116 E10.96158
G1 X94.185 Y69.673 E10.98007
G1 X94.110 Y70.226 E10.99856
G1 X93.986 Y70.770 E11.01705
G1 X93.813 Y71.301 E11.03553
G1 X93.594 Y71.814 E11.05402
G1 X93.329 Y72.306 E11.07251
G1 X93.022 Y72.771 E11.09100
G1 X92.674 Y73.208 E11.10949
G1 X92.288 Y73.611 E11.12797
G1 X91.868 Y73.978 E11.14646
G1 X91.406 Y74.314 E11.16540
G1 X89.404 Y75.687 E11.24579
G1 X85.321 Y78.453 E11.40920
G1 X98.476 Y86.048 E11.91244
G1 X97.812 Y87.601 E11.96841
G1 X96.735 Y89.602 E12.04368
G1 X95.483 Y91.498 E12.11896
G1 X94.902 Y92.228 E12.14986
G1 X81.751 Y84.635 E12.65294
G1 X81.195 Y92.167 E12.90315
G1 X81.119 Y92.726 E12.92185
G1 X80.995 Y93.270 E12.94033
G1 X80.823 Y93.801 E12.95882
G1 X80.603 Y94.314 E12.97731
G1 X80.339 Y94.806 E12.99580
G1 X80.032 Y95.271 E13.01428
G1 X79.684 Y95.708 E13.03277
G1 X79.298 Y96.111 E13.05126
G1 X78.878 Y96.478 E13.06975
G1 X78.426 Y96.806 E13.08824
G1 X77.947 Y97.093 E13.10673
G1 X77.444 Y97.335 E13.12521
G1 X76.922 Y97.531 E13.14370
G1 X76.384 Y97.679 E13.16219
G1 X75.835 Y97.779 E13.18068
G1 X75.279 Y97.829 E13.19917
G1 X74.721 Y97.829 E13.21766
G1 X74.165 Y97.779 E13.23614
G1 X73.616 Y97.679 E13.25463
G1 X73.078 Y97.531 E13.27312
G1 X72.556 Y97.335 E13.29161
G1 X72.053 Y97.093 E13.31010
G1 X71.574 Y96.806 E13.32858
G1 X71.122 Y96.478 E13.34707
G1 X70.702 Y96.111 E13.36556
G1 X70.316 Y95.708 E13.38405
G1 X69.968 Y95.271 E13.40254
G1 X69.661 Y94.806 E13.42102
G1 X69.397 Y94.314 E13.43951
G1 X69.177 Y93.801 E13.45800
G1 X69.005 Y93.270 E13.47649
G1 X68.881 Y92.726 E13.49498
G1 X68.805 Y92.167 E13.51367
G1 X68.249 Y84.635 E13.76389
G1 X55.098 Y92.228 E14.26696
G1 X54.517 Y91.498 E14.29788
G1 X53.265 Y89.602 E14.37314
G1 X52.188 Y87.601 E14.44841
G1 X51.524 Y86.048 E14.50438
G1 X64.679 Y78.453 E15.00762
G1 X60.596 Y75.687 E15.17103
G1 X58.594 Y74.314 E15.25142
G1 X58.132 Y73.978 E15.27036
G1 X57.712 Y73.611 E15.28885
G1 X57.326 Y73.208 E15.30734
G1 X56.978 Y72.771 E15.32582
G1 X56.671 Y72.306 E15.34431
G1 X56.406 Y71.814 E15.36280
G1 X56.187 Y71.301 E15.38129
G1 X56.014 Y70.770 E15.39978
G1 X55.890 Y70.226 E15.41826
G1 X55.815 Y69.673 E15.43675
G1 X55.790 Y69.116 E15.45524
G1 X55.815 Y68.558 E15.47373
G1 X55.890 Y68.005 E15.49222
G1 X56.014 Y67.461 E15.51071
G1 X56.187 Y66.931 E15.52919
G1 X56.406 Y66.417 E15.54768
G1 X56.671 Y65.926 E15.56617
G1 X56.978 Y65.460 E15.58466
G1 X57.326 Y65.024 E15.60315
G1 X57.712 Y64.621 E15.62163
G1 X58.132 Y64.253 E15.64012
G1 X58.583 Y63.925 E15.65861
G1 X59.062 Y63.639 E15.67710
G1 X59.565 Y63.397 E15.69559
G1 X60.088 Y63.201 E15.71407
G1 X60.626 Y63.053 E15.73256
G1 X61.175 Y62.953 E15.75105
G1 X61.731 Y62.903 E15.76954
G1 X62.289 Y62.903 E15.78803
G1 X62.844 Y62.953 E15.80651
G1 X63.394 Y63.053 E15.82500
G1 X63.932 Y63.201 E15.84349
G1 X64.454 Y63.397 E15.86197
G1 X71.377 Y66.737 E16.11662
G1 X71.165 Y66.340 F7800.000
G1 F1800.000
G1 X71.165 Y51.335 E16.61373
G1 X71.566 Y51.263 E16.62722
G1 X73.852 Y51.057 E16.70327
G1 X76.148 Y51.057 E16.77933
G1 X78.434 Y51.263 E16.85538
G1 X78.835 Y51.335 E16.86888
G1 X78.835 Y66.340 E17.36598
G1 X85.442 Y63.152 E17.60900
G1 X85.986 Y62.948 E17.62827
G1 X86.547 Y62.793 E17.64755
G1 X87.120 Y62.689 E17.66683
G1 X87.699 Y62.637 E17.68611
G1 X88.281 Y62.637 E17.70539
G1 X88.861 Y62.689 E17.72467
G1 X89.433 Y62.793 E17.74395
G1 X89.994 Y62.948 E17.76322
G1 X90.539 Y63.153 E17.78250
G1 X91.064 Y63.405 E17.80178
G1 X91.563 Y63.703 E17.82106
G1 X92.034 Y64.046 E17.84034
G1 X92.472 Y64.428 E17.85962
G1 X92.874 Y64.849 E17.87889
G1 X93.237 Y65.304 E17.89817
G1 X93.558 Y65.790 E17.91745
G1 X93.833 Y66.302 E17.93673
G1 X94.062 Y66.837 E17.95601
G1 X94.242 Y67.391 E17.97529
G1 X94.371 Y67.958 E17.99457
G1 X94.449 Y68.535 E18.01384
G1 X94.476 Y69.116 E18.03312
G1 X94.449 Y69.697 E18.05240
G1 X94.371 Y70.274 E18.07168
G1 X94.242 Y70.841 E18.09096
G1 X94.062 Y71.395 E18.11024
G1 X93.833 Y71.930 E18.12952
G1 X93.558 Y72.442 E18.14879
G1 X93.237 Y72.928 E18.16807
G1 X92.874 Y73.383 E18.18735
G1 X92.472 Y73.803 E18.20663
G1 X92.034 Y74.186 E18.22591
G1 X91.559 Y74.531 E18.24536
G1 X89.554 Y75.906 E18.32590
G1 X85.821 Y78.435 E18.47528
G1 X98.812 Y85.936 E18.97227
G1 X98.051 Y87.717 E19.03644
G1 X96.963 Y89.738 E19.11250
G1 X95.698 Y91.655 E19.18857
G1 X94.967 Y92.572 E19.22744
G1 X81.985 Y85.077 E19.72407
G1 X81.459 Y92.195 E19.96053
G1 X81.381 Y92.774 E19.97989
G1 X81.251 Y93.341 E19.99916
G1 X81.072 Y93.895 E20.01844
G1 X80.843 Y94.430 E20.03772
G1 X80.567 Y94.942 E20.05700
G1 X80.247 Y95.428 E20.07628
G1 X79.884 Y95.883 E20.09556
G1 X79.482 Y96.303 E20.11483
G1 X79.043 Y96.686 E20.13411
G1 X78.573 Y97.028 E20.15339
G1 X78.073 Y97.327 E20.17267
G1 X77.549 Y97.579 E20.19195
G1 X77.004 Y97.784 E20.21123
G1 X76.443 Y97.938 E20.23051
G1 X75.871 Y98.042 E20.24978
G1 X75.291 Y98.094 E20.26906
G1 X74.709 Y98.094 E20.28834
G1 X74.129 Y98.042 E20.30762
G1 X73.557 Y97.938 E20.32690
G1 X72.996 Y97.784 E20.34618
G1 X72.451 Y97.579 E20.36546
G1 X71.927 Y97.327 E20.38473
G1 X71.427 Y97.028 E20.40401
G1 X70.957 Y96.686 E20.42329
G1 X70.518 Y96.303 E20.44257
G1 X70.116 Y95.883 E20.46185
G1 X69.753 Y95.428 E20.48113
G1 X69.433 Y94.942 E20.50040
G1 X69.157 Y94.430 E20.51968
G1 X68.928 Y93.895 E20.53896
G1 X68.749 Y93.341 E20.55824
G1 X68.619 Y92.774 E20.57752
G1 X68.541 Y92.195 E20.59688
G1 X68.015 Y85.077 E20.83334
G1 X55.033 Y92.572 E21.32996
G1 X54.301 Y91.654 E21.36885
G1 X53.037 Y89.738 E21.44491
G1 X51.949 Y87.717 E21.52096
G1 X51.188 Y85.936 E21.58513
G1 X64.179 Y78.435 E22.08212
G1 X60.446 Y75.906 E22.23151
G1 X58.441 Y74.531 E22.31205
G1 X57.966 Y74.186 E22.33150
G1 X57.528 Y73.803 E22.35078
G1 X57.126 Y73.383 E22.37005
G1 X56.763 Y72.928 E22.38933
G1 X56.442 Y72.442 E22.40861
G1 X56.167 Y71.930 E22.42789
G1 X55.938 Y71.395 E22.44717
G1 X55.758 Y70.841 E22.46645
G1 X55.629 Y70.274 E22.48572
G1 X55.551 Y69.697 E22.50500
G1 X55.524 Y69.116 E22.52428
G1 X55.551 Y68.535 E22.54356
G1 X55.629 Y67.958 E22.56284
G1 X55.758 Y67.391 E22.58212
G1 X55.938 Y66.837 E22.60140
G1 X56.167 Y66.302 E22.62068
G1 X56.442 Y65.790 E22.63995
G1 X56.763 Y65.304 E22.65923
G1 X57.126 Y64.849 E22.67851
G1 X57.528 Y64.428 E22.69779
G1 X57.966 Y64.046 E22.71707
G1 X58.437 Y63.703 E22.73635
G1 X58.936 Y63.405 E22.75562
G1 X59.461 Y63.153 E22.77490
G1 X60.006 Y62.948 E22.79418
G1 X60.567 Y62.793 E22.81346
G1 X61.139 Y62.689 E22.83274
G1 X61.719 Y62.637 E22.85202
G1 X62.301 Y62.637 E22.87130
G1 X62.880 Y62.689 E22.89057
G1 X63.453 Y62.793 E22.90985
G1 X64.014 Y62.948 E22.92913
G1 X64.558 Y63.152 E22.94841
G1 X71.111 Y66.314 E23.18944
G1 X71.859 Y67.409 F7800.000
G1 F1800.000
G1 X78.141 Y61.126 E23.48436
G1 X78.141 Y60.749 E23.49685
G1 X71.859 Y67.032 E23.79177
G1 X71.859 Y66.656 E23.80426
G1 X78.141 Y60.373 E24.09918
G1 X78.141 Y59.997 E24.11167
G1 X71.859 Y66.279 E24.40659
G1 X71.859 Y65.903 E24.41908
G1 X78.141 Y59.620 E24.71400
G1 X78.141 Y59.244 E24.72649
G1 X71.859 Y65.527 E25.02141
G1 X71.859 Y65.150 E25.03390
G1 X78.141 Y58.868 E25.32882
G1 X78.141 Y58.491 E25.34131
G1 X71.859 Y64.774 E25.63623
G1 X71.859 Y64.398 E25.64873
G1 X78.141 Y58.115 E25.94364
G1 X78.141 Y57.738 E25.95614
G1 X71.859 Y64.021 E26.25106
G1 X71.859 Y63.645 E26.26355
G1 X78.141 Y57.362 E26.55847
G1 X78.141 Y56.986 E26.57096
G1 X71.859 Y63.269 E26.86588
G1 X71.859 Y62.892 E26.87837
G1 X78.141 Y56.609 E27.17329
G1 X78.141 Y56.233 E27.18578
G1 X71.859 Y62.516 E27.48070
G1 X71.859 Y62.140 E27.49319
G1 X78.141 Y55.857 E27.78811
G1 X78.141 Y55.480 E27.80060
G1 X71.859 Y61.763 E28.09552
G1 X71.859 Y61.387 E28.10801
G1 X78.141 Y55.104 E28.40293
G1 X78.141 Y54.728 E28.41542
G1 X71.859 Y61.011 E28.71034
G1 X71.859 Y60.634 E28.72283
G1 X78.141 Y54.351 E29.01775
G1 X78.141 Y53.975 E29.03025
G1 X71.859 Y60.258 E29.32516
G1 X71.859 Y59.882 E29.33766
G1 X78.141 Y53.599 E29.63258
G1 X78.141 Y53.222 E29.64507
G1 X71.859 Y59.505 E29.93999
G1 X71.859 Y59.129 E29.95248
G1 X78.141 Y52.846 E30.24740
G1 X78.141 Y52.470 E30.25989
G1 X71.859 Y58.753 E30.55481
G1 X71.859 Y58.376 E30.56730
G1 X78.141 Y52.093 E30.86222
G1 X78.141 Y51.924 E30.86785
G1 X77.952 Y51.907 E30.87417
G1 X71.859 Y58.000 E31.16019
