; generated by Slic3r 1.3.1-dev (Build (Unknown revision)) on 2020-04-21 at 15:04:22

; external perimeters extrusion width = 0.44mm (2.86mm^3/s)
; perimeters extrusion width = 0.56mm (4.14mm^3/s)
; infill extrusion width = 0.50mm (3.66mm^3/s)
; solid infill extrusion width = 0.56mm (3.10mm^3/s)
; top infill extrusion width = 0.56mm (3.10mm^3/s)

M107
G92 E0
;D3D:START:START
T0
M104 S215 T0

G21
G90
M107
T0
G28
G29
M109 T0 S215 T0
G0 F3000
M107
T0
G92 E0
G0 X0 Y149 Z0.1 F3600
G1 Y49 E6.5 F1200
G0 Z1
G92 E0
; Filament gcode

G21 ; set units to millimeters
G90 ; use absolute coordinates
M82 ; use absolute distances for extrusion
G92 E0
G1 Z0.300 F7800.000
G1 E-2.00000 F2400.00000
G92 E0
G1 X73.653 Y91.507 F7800.000
G1 E2.00000 F2400.00000
G1 F1800.000
G1 X73.926 Y91.289 E2.01158
G1 X74.234 Y91.124 E2.02315
G1 X74.566 Y91.016 E2.03473
G1 X74.928 Y90.967 E2.04683
G1 X75.419 Y91.011 E2.06314
G1 X75.766 Y91.124 E2.07525
G1 X76.074 Y91.289 E2.08682
G1 X76.347 Y91.507 E2.09840
G1 X76.577 Y91.770 E2.10997
G1 X76.764 Y92.084 E2.12207
G1 X76.916 Y92.552 E2.13839
G1 X76.949 Y92.916 E2.15049
G1 X76.916 Y93.280 E2.16258
G1 X76.764 Y93.748 E2.17890
G1 X76.577 Y94.061 E2.19100
G1 X76.347 Y94.325 E2.20258
G1 X76.074 Y94.542 E2.21415
G1 X75.766 Y94.708 E2.22573
G1 X75.434 Y94.816 E2.23731
G1 X75.072 Y94.865 E2.24940
G1 X74.581 Y94.821 E2.26572
G1 X74.234 Y94.708 E2.27782
G1 X73.926 Y94.542 E2.28939
G1 X73.653 Y94.325 E2.30097
G1 X73.423 Y94.061 E2.31255
G1 X73.236 Y93.748 E2.32464
G1 X73.084 Y93.280 E2.34096
G1 X73.051 Y92.916 E2.35306
G1 X73.084 Y92.552 E2.36516
G1 X73.236 Y92.084 E2.38148
G1 X73.423 Y91.770 E2.39357
G1 X73.614 Y91.552 E2.40316
G1 X73.837 Y91.700 F7800.000
G1 F1800.000
G1 X74.073 Y91.512 E2.41316
G1 X74.339 Y91.369 E2.42315
G1 X74.626 Y91.276 E2.43314
G1 X74.934 Y91.234 E2.44346
G1 X75.365 Y91.273 E2.45779
G1 X75.661 Y91.369 E2.46811
G1 X75.927 Y91.512 E2.47810
G1 X76.163 Y91.700 E2.48809
G1 X76.361 Y91.927 E2.49808
G1 X76.521 Y92.194 E2.50839
G1 X76.654 Y92.606 E2.52273
G1 X76.682 Y92.916 E2.53304
G1 X76.654 Y93.226 E2.54336
G1 X76.521 Y93.637 E2.55769
G1 X76.361 Y93.905 E2.56801
G1 X76.163 Y94.132 E2.57800
G1 X75.927 Y94.320 E2.58799
G1 X75.661 Y94.463 E2.59798
G1 X75.374 Y94.556 E2.60798
G1 X75.066 Y94.598 E2.61829
G1 X74.635 Y94.559 E2.63262
G1 X74.339 Y94.463 E2.64294
G1 X74.073 Y94.320 E2.65293
G1 X73.837 Y94.132 E2.66293
G1 X73.639 Y93.905 E2.67292
G1 X73.479 Y93.637 E2.68323
G1 X73.346 Y93.226 E2.69757
G1 X73.318 Y92.916 E2.70788
G1 X73.346 Y92.606 E2.71820
G1 X73.479 Y92.194 E2.73253
G1 X73.639 Y91.927 E2.74284
G1 X73.798 Y91.745 E2.75085
G1 X74.022 Y91.893 F7800.000
G1 F1800.000
G1 X74.220 Y91.734 E2.75926
G1 X74.444 Y91.614 E2.76766
G1 X74.685 Y91.536 E2.77607
G1 X74.940 Y91.501 E2.78461
G1 X75.311 Y91.534 E2.79696
G1 X75.556 Y91.614 E2.80549
G1 X75.780 Y91.734 E2.81390
G1 X75.978 Y91.893 E2.82230
G1 X76.145 Y92.084 E2.83071
G1 X76.277 Y92.305 E2.83924
G1 X76.393 Y92.659 E2.85159
G1 X76.416 Y92.916 E2.86013
G1 X76.393 Y93.172 E2.86866
G1 X76.277 Y93.527 E2.88101
G1 X76.145 Y93.748 E2.88954
G1 X75.978 Y93.939 E2.89795
G1 X75.780 Y94.097 E2.90636
G1 X75.556 Y94.218 E2.91476
G1 X75.315 Y94.296 E2.92317
G1 X75.060 Y94.331 E2.93171
G1 X74.689 Y94.297 E2.94405
G1 X74.444 Y94.218 E2.95259
G1 X74.220 Y94.097 E2.96100
G1 X74.022 Y93.939 E2.96940
G1 X73.855 Y93.748 E2.97781
G1 X73.723 Y93.527 E2.98634
G1 X73.607 Y93.172 E2.99869
G1 X73.584 Y92.916 E3.00723
G1 X73.607 Y92.659 E3.01576
G1 X73.723 Y92.305 E3.02811
G1 X73.855 Y92.084 E3.03664
G1 X73.982 Y91.938 E3.04306
G1 E1.04306 F2400.00000
G92 E0
G1 X74.594 Y79.991 F7800.000
G1 E2.00000 F2400.00000
G1 F1800.000
G1 X74.013 Y79.867 E2.01967
G1 X73.697 Y79.754 E2.03080
G1 X73.170 Y79.480 E2.05047
G1 X72.688 Y79.108 E2.07066
G1 X72.280 Y78.655 E2.09085
G1 X71.968 Y78.150 E2.11052
G1 X71.831 Y77.843 E2.12165
G1 X71.665 Y77.273 E2.14132
G1 X71.601 Y76.667 E2.16151
G1 X71.647 Y76.059 E2.18170
G1 X71.800 Y75.469 E2.20189
G1 X72.056 Y74.916 E2.22207
G1 X72.407 Y74.418 E2.24226
G1 X72.841 Y73.990 E2.26245
G1 X73.332 Y73.656 E2.28212
G1 X73.632 Y73.506 E2.29325
G1 X74.194 Y73.314 E2.31292
G1 X74.797 Y73.223 E2.33311
G1 X75.406 Y73.241 E2.35330
G1 X75.987 Y73.365 E2.37297
G1 X76.303 Y73.478 E2.38410
G1 X76.830 Y73.751 E2.40377
G1 X77.312 Y74.124 E2.42396
G1 X77.720 Y74.577 E2.44415
G1 X78.040 Y75.095 E2.46434
G1 X78.257 Y75.648 E2.48400
G1 X78.334 Y75.963 E2.49473
G1 X78.410 Y76.502 E2.51279
G1 X76.607 Y79.626 E2.63227
G1 X76.101 Y79.830 E2.65033
G1 X75.790 Y79.920 E2.66105
G1 X75.203 Y80.009 E2.68072
G1 X74.654 Y79.992 E2.69892
G1 X74.626 Y79.726 F7800.000
G1 F1800.000
G1 X74.086 Y79.611 E2.71721
G1 X73.803 Y79.510 E2.72716
G1 X73.314 Y79.256 E2.74544
G1 X72.869 Y78.912 E2.76404
G1 X72.494 Y78.495 E2.78265
G1 X72.204 Y78.025 E2.80093
G1 X72.081 Y77.751 E2.81088
G1 X71.927 Y77.221 E2.82916
G1 X71.868 Y76.663 E2.84777
G1 X71.910 Y76.103 E2.86637
G1 X72.051 Y75.559 E2.88497
G1 X72.287 Y75.050 E2.90358
G1 X72.611 Y74.590 E2.92218
G1 X73.011 Y74.196 E2.94079
G1 X73.467 Y73.885 E2.95907
G1 X73.735 Y73.751 E2.96902
G1 X74.257 Y73.573 E2.98730
G1 X74.813 Y73.489 E3.00591
G1 X75.374 Y73.506 E3.02451
G1 X75.914 Y73.621 E3.04279
G1 X76.197 Y73.722 E3.05274
G1 X76.686 Y73.976 E3.07102
G1 X77.131 Y74.320 E3.08963
G1 X77.506 Y74.737 E3.10823
G1 X77.802 Y75.215 E3.12684
G1 X78.003 Y75.728 E3.14512
G1 X78.073 Y76.013 E3.15482
G1 X78.134 Y76.449 E3.16941
G1 X76.422 Y79.414 E3.28282
G1 X76.014 Y79.578 E3.29741
G1 X75.733 Y79.660 E3.30711
G1 X75.187 Y79.743 E3.32539
G1 X74.686 Y79.728 E3.34201
G1 X74.658 Y79.461 F7800.000
G1 F1800.000
G1 X74.159 Y79.355 E3.35890
G1 X73.910 Y79.266 E3.36767
G1 X73.457 Y79.031 E3.38456
G1 X73.051 Y78.717 E3.40158
G1 X72.707 Y78.335 E3.41860
G1 X72.439 Y77.901 E3.43550
G1 X72.331 Y77.659 E3.44426
G1 X72.188 Y77.170 E3.46116
G1 X72.135 Y76.659 E3.47818
G1 X72.173 Y76.146 E3.49520
G1 X72.302 Y75.649 E3.51222
G1 X72.518 Y75.183 E3.52924
G1 X72.814 Y74.763 E3.54626
G1 X73.180 Y74.402 E3.56328
G1 X73.601 Y74.115 E3.58018
G1 X73.838 Y73.997 E3.58894
G1 X74.321 Y73.832 E3.60584
G1 X74.829 Y73.755 E3.62286
G1 X75.342 Y73.771 E3.63988
G1 X75.841 Y73.877 E3.65678
G1 X76.090 Y73.966 E3.66554
G1 X76.543 Y74.201 E3.68244
G1 X76.949 Y74.515 E3.69946
G1 X77.293 Y74.897 E3.71648
G1 X77.563 Y75.334 E3.73350
G1 X77.749 Y75.809 E3.75040
G1 X77.811 Y76.063 E3.75906
G1 X77.858 Y76.395 E3.77018
G1 X76.238 Y79.201 E3.87753
G1 X75.927 Y79.327 E3.88865
G1 X75.676 Y79.400 E3.89732
G1 X75.171 Y79.476 E3.91422
G1 X74.718 Y79.463 E3.92925
G1 E1.92925 F2400.00000
G92 E0
G1 X62.342 Y69.761 F7800.000
G1 E2.00000 F2400.00000
G1 F1800.000
G1 X61.971 Y70.085 E2.01632
G1 X61.650 Y70.258 E2.02842
G1 X61.317 Y70.366 E2.03999
G1 X60.971 Y70.413 E2.05157
G1 X60.622 Y70.397 E2.06314
G1 X60.281 Y70.319 E2.07472
G1 X59.960 Y70.182 E2.08629
G1 X59.669 Y69.990 E2.09787
G1 X59.416 Y69.748 E2.10945
G1 X59.201 Y69.453 E2.12155
G1 X59.008 Y69.000 E2.13787
G1 X58.943 Y68.641 E2.14996
G1 X58.943 Y68.291 E2.16154
G1 X59.008 Y67.932 E2.17364
G1 X59.201 Y67.479 E2.18995
G1 X59.416 Y67.183 E2.20205
G1 X59.680 Y66.931 E2.21415
G1 X60.103 Y66.679 E2.23047
G1 X60.450 Y66.566 E2.24257
G1 X60.796 Y66.519 E2.25414
G1 X61.145 Y66.534 E2.26572
G1 X61.502 Y66.616 E2.27782
G1 X61.945 Y66.829 E2.29414
G1 X62.231 Y67.057 E2.30623
G1 X62.461 Y67.320 E2.31781
G1 X62.640 Y67.620 E2.32939
G1 X62.763 Y67.947 E2.34096
G1 X62.825 Y68.291 E2.35254
G1 X62.825 Y68.656 E2.36464
G1 X62.715 Y69.137 E2.38096
G1 X62.557 Y69.466 E2.39306
G1 X62.378 Y69.712 E2.40316
G1 X62.145 Y69.581 F7800.000
G1 F1800.000
G1 X61.819 Y69.865 E2.41750
G1 X61.545 Y70.013 E2.42781
G1 X61.258 Y70.106 E2.43781
G1 X60.959 Y70.147 E2.44780
G1 X60.658 Y70.133 E2.45779
G1 X60.364 Y70.066 E2.46778
G1 X60.087 Y69.947 E2.47777
G1 X59.835 Y69.781 E2.48777
G1 X59.617 Y69.573 E2.49776
G1 X59.434 Y69.321 E2.50808
G1 X59.264 Y68.923 E2.52241
G1 X59.208 Y68.617 E2.53272
G1 X59.208 Y68.315 E2.54272
G1 X59.264 Y68.009 E2.55303
G1 X59.434 Y67.611 E2.56736
G1 X59.617 Y67.359 E2.57768
G1 X59.842 Y67.144 E2.58800
G1 X60.213 Y66.922 E2.60233
G1 X60.509 Y66.826 E2.61264
G1 X60.808 Y66.785 E2.62264
G1 X61.110 Y66.799 E2.63263
G1 X61.413 Y66.868 E2.64295
G1 X61.803 Y67.056 E2.65728
G1 X62.046 Y67.250 E2.66759
G1 X62.245 Y67.477 E2.67759
G1 X62.400 Y67.736 E2.68758
G1 X62.505 Y68.018 E2.69757
G1 X62.559 Y68.315 E2.70756
G1 X62.559 Y68.626 E2.71788
G1 X62.463 Y69.048 E2.73221
G1 X62.328 Y69.329 E2.74253
G1 X62.180 Y69.532 E2.75085
G1 X61.948 Y69.400 F7800.000
G1 F1800.000
G1 X61.667 Y69.646 E2.76320
G1 X61.440 Y69.768 E2.77173
G1 X61.199 Y69.846 E2.78014
G1 X60.947 Y69.880 E2.78855
G1 X60.694 Y69.869 E2.79696
G1 X60.446 Y69.812 E2.80537
G1 X60.213 Y69.712 E2.81377
G1 X60.001 Y69.573 E2.82218
G1 X59.818 Y69.397 E2.83059
G1 X59.666 Y69.189 E2.83913
G1 X59.520 Y68.846 E2.85147
G1 X59.474 Y68.593 E2.86001
G1 X59.474 Y68.339 E2.86842
G1 X59.520 Y68.086 E2.87695
G1 X59.666 Y67.743 E2.88930
G1 X59.818 Y67.534 E2.89783
G1 X60.004 Y67.356 E2.90636
G1 X60.324 Y67.165 E2.91871
G1 X60.569 Y67.086 E2.92724
G1 X60.820 Y67.052 E2.93565
G1 X61.074 Y67.063 E2.94406
G1 X61.325 Y67.120 E2.95259
G1 X61.661 Y67.282 E2.96494
G1 X61.862 Y67.443 E2.97347
G1 X62.029 Y67.634 E2.98188
G1 X62.159 Y67.852 E2.99029
G1 X62.248 Y68.089 E2.99870
G1 X62.294 Y68.339 E3.00711
G1 X62.294 Y68.596 E3.01564
G1 X62.211 Y68.960 E3.02799
G1 X62.099 Y69.192 E3.03652
G1 X61.983 Y69.352 E3.04307
G1 E1.04307 F2400.00000
G92 E0
G1 X87.175 Y68.641 F7800.000
G1 E2.00000 F2400.00000
G1 F1800.000
G1 X87.175 Y68.275 E2.01210
G1 X87.285 Y67.795 E2.02842
G1 X87.443 Y67.466 E2.04052
G1 X87.658 Y67.171 E2.05262
G1 X88.029 Y66.847 E2.06893
G1 X88.350 Y66.674 E2.08103
G1 X88.683 Y66.566 E2.09261
G1 X89.029 Y66.519 E2.10418
G1 X89.378 Y66.534 E2.11576
G1 X89.719 Y66.612 E2.12734
G1 X90.040 Y66.750 E2.13891
G1 X90.331 Y66.942 E2.15049
G1 X90.584 Y67.183 E2.16207
G1 X90.799 Y67.479 E2.17417
G1 X90.992 Y67.932 E2.19048
G1 X91.057 Y68.291 E2.20258
G1 X91.057 Y68.641 E2.21416
G1 X90.992 Y69.000 E2.22626
G1 X90.799 Y69.453 E2.24257
G1 X90.584 Y69.748 E2.25467
G1 X90.320 Y70.001 E2.26677
G1 X89.897 Y70.253 E2.28309
G1 X89.550 Y70.366 E2.29518
G1 X89.204 Y70.413 E2.30676
G1 X88.855 Y70.397 E2.31834
G1 X88.498 Y70.316 E2.33044
G1 X88.055 Y70.102 E2.34675
G1 X87.769 Y69.875 E2.35885
G1 X87.539 Y69.611 E2.37043
G1 X87.360 Y69.311 E2.38201
G1 X87.237 Y68.984 E2.39358
G1 X87.186 Y68.700 E2.40316
G1 X87.441 Y68.617 F7800.000
G1 F1800.000
G1 X87.441 Y68.305 E2.41348
G1 X87.537 Y67.883 E2.42782
G1 X87.672 Y67.603 E2.43813
G1 X87.855 Y67.351 E2.44845
G1 X88.181 Y67.066 E2.46278
G1 X88.455 Y66.919 E2.47309
G1 X88.742 Y66.826 E2.48309
G1 X89.041 Y66.785 E2.49308
G1 X89.342 Y66.799 E2.50307
G1 X89.636 Y66.866 E2.51307
G1 X89.913 Y66.984 E2.52305
G1 X90.165 Y67.150 E2.53305
G1 X90.383 Y67.359 E2.54304
G1 X90.566 Y67.611 E2.55336
G1 X90.736 Y68.009 E2.56769
G1 X90.792 Y68.315 E2.57801
G1 X90.792 Y68.617 E2.58800
G1 X90.736 Y68.923 E2.59831
G1 X90.566 Y69.321 E2.61265
G1 X90.383 Y69.573 E2.62296
G1 X90.158 Y69.788 E2.63328
G1 X89.787 Y70.010 E2.64761
G1 X89.491 Y70.106 E2.65792
G1 X89.192 Y70.147 E2.66792
G1 X88.890 Y70.133 E2.67791
G1 X88.587 Y70.064 E2.68823
G1 X88.197 Y69.876 E2.70256
G1 X87.954 Y69.682 E2.71287
G1 X87.755 Y69.455 E2.72287
G1 X87.600 Y69.196 E2.73286
G1 X87.495 Y68.913 E2.74285
G1 X87.451 Y68.676 E2.75085
G1 X87.706 Y68.593 F7800.000
G1 F1800.000
G1 X87.706 Y68.335 E2.75939
G1 X87.789 Y67.972 E2.77174
G1 X87.901 Y67.740 E2.78027
G1 X88.052 Y67.531 E2.78880
G1 X88.333 Y67.286 E2.80115
G1 X88.560 Y67.164 E2.80968
G1 X88.801 Y67.086 E2.81809
G1 X89.053 Y67.052 E2.82650
G1 X89.306 Y67.063 E2.83491
G1 X89.554 Y67.119 E2.84332
G1 X89.787 Y67.219 E2.85172
G1 X89.999 Y67.359 E2.86013
G1 X90.182 Y67.534 E2.86854
G1 X90.334 Y67.743 E2.87707
G1 X90.480 Y68.086 E2.88942
G1 X90.526 Y68.339 E2.89795
G1 X90.526 Y68.593 E2.90636
G1 X90.480 Y68.846 E2.91489
G1 X90.334 Y69.189 E2.92724
G1 X90.182 Y69.397 E2.93578
G1 X89.996 Y69.575 E2.94431
G1 X89.676 Y69.766 E2.95666
G1 X89.431 Y69.846 E2.96519
G1 X89.180 Y69.880 E2.97360
G1 X88.926 Y69.869 E2.98201
G1 X88.675 Y69.811 E2.99054
G1 X88.339 Y69.650 E3.00289
G1 X88.138 Y69.489 E3.01142
G1 X87.971 Y69.298 E3.01983
G1 X87.841 Y69.080 E3.02824
G1 X87.752 Y68.842 E3.03665
G1 X87.717 Y68.652 E3.04307
G1 E1.04307 F2400.00000
G92 E0
G1 X78.304 Y64.602 F7800.000
G1 E2.00000 F2400.00000
G1 F1800.000
G1 X79.886 Y65.189 E2.05590
G1 X81.182 Y65.813 E2.10355
G1 X85.660 Y63.665 E2.26809
G1 X86.158 Y63.478 E2.28573
G1 X86.671 Y63.336 E2.30335
G1 X87.195 Y63.241 E2.32097
G1 X87.724 Y63.194 E2.33859
G1 X88.256 Y63.194 E2.35622
G1 X88.786 Y63.241 E2.37384
G1 X89.310 Y63.336 E2.39146
G1 X89.822 Y63.478 E2.40909
G1 X90.320 Y63.665 E2.42671
G1 X90.800 Y63.896 E2.44433
G1 X91.256 Y64.168 E2.46195
G1 X91.687 Y64.481 E2.47958
G1 X92.087 Y64.831 E2.49720
G1 X92.455 Y65.215 E2.51482
G1 X92.786 Y65.631 E2.53244
G1 X93.079 Y66.075 E2.55007
G1 X93.331 Y66.544 E2.56769
G1 X93.540 Y67.033 E2.58531
G1 X93.705 Y67.539 E2.60293
G1 X93.823 Y68.057 E2.62056
G1 X93.895 Y68.584 E2.63818
G1 X93.918 Y69.116 E2.65580
G1 X93.895 Y69.647 E2.67342
G1 X93.823 Y70.174 E2.69105
G1 X93.705 Y70.693 E2.70867
G1 X93.540 Y71.199 E2.72629
G1 X93.331 Y71.688 E2.74391
G1 X93.079 Y72.156 E2.76153
G1 X92.786 Y72.600 E2.77916
G1 X92.455 Y73.016 E2.79678
G1 X92.087 Y73.401 E2.81440
G1 X91.687 Y73.751 E2.83202
G1 X91.239 Y74.076 E2.85036
G1 X87.425 Y76.686 E3.00347
G1 X87.378 Y77.730 E3.03809
G1 X87.228 Y78.835 E3.07503
G1 X87.021 Y79.742 E3.10584
G1 X98.139 Y86.160 E3.53113
G1 X97.572 Y87.486 E3.57890
G1 X96.507 Y89.466 E3.65337
G1 X95.268 Y91.342 E3.72786
G1 X94.836 Y91.883 E3.75080
G1 X83.733 Y85.473 E4.17556
G1 X82.749 Y86.332 E4.21886
G1 X81.847 Y86.988 E4.25580
G1 X81.273 Y87.330 E4.27792
G1 X80.906 Y92.136 E4.43761
G1 X80.833 Y92.674 E4.45559
G1 X80.714 Y93.193 E4.47321
G1 X80.550 Y93.699 E4.49084
G1 X80.341 Y94.188 E4.50846
G1 X80.089 Y94.656 E4.52608
G1 X79.796 Y95.100 E4.54370
G1 X79.464 Y95.516 E4.56133
G1 X79.097 Y95.901 E4.57895
G1 X78.696 Y96.251 E4.59657
G1 X78.266 Y96.563 E4.61419
G1 X77.809 Y96.836 E4.63182
G1 X77.330 Y97.067 E4.64944
G1 X76.832 Y97.254 E4.66706
G1 X76.319 Y97.395 E4.68468
G1 X75.796 Y97.490 E4.70231
G1 X75.266 Y97.538 E4.71993
G1 X74.734 Y97.538 E4.73755
G1 X74.204 Y97.490 E4.75517
G1 X73.681 Y97.395 E4.77280
G1 X73.168 Y97.254 E4.79042
G1 X72.670 Y97.067 E4.80804
G1 X72.191 Y96.836 E4.82566
G1 X71.734 Y96.563 E4.84328
G1 X71.304 Y96.251 E4.86091
G1 X70.903 Y95.901 E4.87853
G1 X70.536 Y95.516 E4.89615
G1 X70.204 Y95.100 E4.91378
G1 X69.911 Y94.656 E4.93140
G1 X69.659 Y94.188 E4.94902
G1 X69.450 Y93.699 E4.96664
G1 X69.286 Y93.193 E4.98426
G1 X69.167 Y92.674 E5.00189
G1 X69.094 Y92.136 E5.01987
G1 X68.727 Y87.330 E5.17956
G1 X68.153 Y86.988 E5.20168
G1 X67.251 Y86.332 E5.23862
G1 X66.267 Y85.473 E5.28192
G1 X55.164 Y91.883 E5.70668
G1 X54.732 Y91.342 E5.72963
G1 X53.493 Y89.466 E5.80410
G1 X52.428 Y87.486 E5.87858
G1 X51.861 Y86.160 E5.92635
G1 X62.979 Y79.742 E6.35164
G1 X62.772 Y78.835 E6.38245
G1 X62.622 Y77.730 E6.41939
G1 X62.575 Y76.686 E6.45401
G1 X58.761 Y74.076 E6.60712
G1 X58.313 Y73.751 E6.62545
G1 X57.913 Y73.401 E6.64308
G1 X57.545 Y73.016 E6.66070
G1 X57.214 Y72.600 E6.67832
G1 X56.921 Y72.156 E6.69594
G1 X56.669 Y71.688 E6.71356
G1 X56.460 Y71.199 E6.73119
G1 X56.295 Y70.693 E6.74881
G1 X56.177 Y70.174 E6.76643
G1 X56.105 Y69.647 E6.78406
G1 X56.082 Y69.116 E6.80168
G1 X56.105 Y68.584 E6.81930
G1 X56.177 Y68.057 E6.83692
G1 X56.295 Y67.539 E6.85455
G1 X56.460 Y67.033 E6.87217
G1 X56.669 Y66.544 E6.88979
G1 X56.921 Y66.075 E6.90741
G1 X57.214 Y65.631 E6.92503
G1 X57.545 Y65.215 E6.94266
G1 X57.913 Y64.831 E6.96028
G1 X58.313 Y64.481 E6.97790
G1 X58.744 Y64.168 E6.99553
G1 X59.200 Y63.896 E7.01315
G1 X59.680 Y63.665 E7.03077
G1 X60.178 Y63.478 E7.04839
G1 X60.690 Y63.336 E7.06602
G1 X61.214 Y63.241 E7.08364
G1 X61.744 Y63.194 E7.10126
G1 X62.276 Y63.194 E7.11888
G1 X62.805 Y63.241 E7.13651
G1 X63.329 Y63.336 E7.15413
G1 X63.842 Y63.478 E7.17175
G1 X64.340 Y63.665 E7.18939
G1 X68.818 Y65.813 E7.35393
