; generated by Slic3r 1.3.1-dev (Build 2d100c4) on 2021-01-20 at 18:23:13

; external perimeters extrusion width = 0.44mm (2.86mm^3/s)
; perimeters extrusion width = 0.56mm (4.14mm^3/s)
; infill extrusion width = 0.50mm (3.66mm^3/s)
; solid infill extrusion width = 0.56mm (3.10mm^3/s)
; top infill extrusion width = 0.56mm (3.10mm^3/s)

M107
G92 E0
;D3D:START:START
T0
M104 S215 T0

G21
G90
M107
T0
G28
G29
M109 T0 S215 T0
G0 F3000
M107
T0
G92 E0
G0 X0 Y149 Z0.1 F3600
G1 Y49 E6.5 F1200
G0 Z1
G92 E0
; Filament gcode

G21 ; set units to millimeters
G90 ; use absolute coordinates
M82 ; use absolute distances for extrusion
G92 E0
G1 Z0.300 F7800.000
G1 E-2.00000 F2400.00000
G92 E0
G1 X73.653 Y92.506 F7800.000
G1 E2.00000 F2400.00000
G1 F1800.000
G1 X73.926 Y92.288 E2.01158
G1 X74.234 Y92.123 E2.02315
G1 X74.566 Y92.015 E2.03473
G1 X74.928 Y91.966 E2.04683
G1 X75.419 Y92.010 E2.06314
G1 X75.766 Y92.123 E2.07525
G1 X76.074 Y92.288 E2.08682
G1 X76.347 Y92.506 E2.09840
G1 X76.577 Y92.769 E2.10997
G1 X76.764 Y93.083 E2.12207
G1 X76.916 Y93.551 E2.13839
G1 X76.949 Y93.915 E2.15049
G1 X76.916 Y94.279 E2.16258
G1 X76.764 Y94.747 E2.17890
G1 X76.577 Y95.060 E2.19100
G1 X76.347 Y95.324 E2.20258
G1 X76.074 Y95.541 E2.21415
G1 X75.766 Y95.707 E2.22573
G1 X75.434 Y95.815 E2.23731
G1 X75.072 Y95.864 E2.24940
G1 X74.581 Y95.820 E2.26572
G1 X74.234 Y95.707 E2.27782
G1 X73.926 Y95.541 E2.28939
G1 X73.653 Y95.324 E2.30097
G1 X73.423 Y95.060 E2.31255
G1 X73.236 Y94.747 E2.32464
G1 X73.084 Y94.279 E2.34096
G1 X73.051 Y93.915 E2.35306
G1 X73.084 Y93.551 E2.36516
G1 X73.236 Y93.083 E2.38148
G1 X73.423 Y92.769 E2.39357
G1 X73.614 Y92.551 E2.40316
G1 X73.837 Y92.699 F7800.000
G1 F1800.000
G1 X74.073 Y92.511 E2.41316
G1 X74.339 Y92.368 E2.42315
G1 X74.626 Y92.275 E2.43314
G1 X74.934 Y92.233 E2.44346
G1 X75.365 Y92.272 E2.45779
G1 X75.661 Y92.368 E2.46811
G1 X75.927 Y92.511 E2.47810
G1 X76.163 Y92.699 E2.48809
G1 X76.361 Y92.926 E2.49808
G1 X76.521 Y93.193 E2.50839
G1 X76.654 Y93.605 E2.52273
G1 X76.682 Y93.915 E2.53304
G1 X76.654 Y94.225 E2.54336
G1 X76.521 Y94.636 E2.55769
G1 X76.361 Y94.904 E2.56801
G1 X76.163 Y95.131 E2.57800
G1 X75.927 Y95.319 E2.58799
G1 X75.661 Y95.462 E2.59798
G1 X75.374 Y95.555 E2.60798
G1 X75.066 Y95.597 E2.61829
G1 X74.635 Y95.558 E2.63262
G1 X74.339 Y95.462 E2.64294
G1 X74.073 Y95.319 E2.65293
G1 X73.837 Y95.131 E2.66293
G1 X73.639 Y94.904 E2.67292
G1 X73.479 Y94.636 E2.68323
G1 X73.346 Y94.225 E2.69757
G1 X73.318 Y93.915 E2.70788
G1 X73.346 Y93.605 E2.71820
G1 X73.479 Y93.193 E2.73253
G1 X73.639 Y92.926 E2.74284
G1 X73.798 Y92.744 E2.75085
G1 X74.022 Y92.892 F7800.000
G1 F1800.000
G1 X74.220 Y92.733 E2.75926
G1 X74.444 Y92.613 E2.76767
G1 X74.685 Y92.535 E2.77607
G1 X74.940 Y92.500 E2.78461
G1 X75.311 Y92.533 E2.79696
G1 X75.556 Y92.613 E2.80549
G1 X75.780 Y92.733 E2.81390
G1 X75.978 Y92.892 E2.82230
G1 X76.145 Y93.083 E2.83071
G1 X76.277 Y93.304 E2.83924
G1 X76.393 Y93.658 E2.85159
G1 X76.416 Y93.915 E2.86013
G1 X76.393 Y94.171 E2.86866
G1 X76.277 Y94.526 E2.88101
G1 X76.145 Y94.747 E2.88954
G1 X75.978 Y94.938 E2.89795
G1 X75.780 Y95.096 E2.90636
G1 X75.556 Y95.217 E2.91476
G1 X75.315 Y95.295 E2.92317
G1 X75.060 Y95.330 E2.93171
G1 X74.689 Y95.296 E2.94405
G1 X74.444 Y95.217 E2.95258
G1 X74.220 Y95.096 E2.96100
G1 X74.022 Y94.938 E2.96940
G1 X73.855 Y94.747 E2.97781
G1 X73.723 Y94.526 E2.98634
G1 X73.607 Y94.171 E2.99869
G1 X73.584 Y93.915 E3.00723
G1 X73.607 Y93.658 E3.01576
G1 X73.723 Y93.304 E3.02811
G1 X73.855 Y93.083 E3.03664
G1 X73.982 Y92.937 E3.04306
G1 X73.961 Y92.645 F7800.000
G1 E1.04306 F2400.00000
G92 E0
G1 X74.594 Y79.990 F7800.000
G1 E2.00000 F2400.00000
G1 F1800.000
G1 X74.013 Y79.866 E2.01967
G1 X73.697 Y79.753 E2.03080
G1 X73.170 Y79.479 E2.05047
G1 X72.688 Y79.107 E2.07066
G1 X72.280 Y78.654 E2.09085
G1 X71.968 Y78.149 E2.11052
G1 X71.831 Y77.842 E2.12165
G1 X71.665 Y77.272 E2.14132
G1 X71.601 Y76.666 E2.16151
G1 X71.647 Y76.058 E2.18170
G1 X71.800 Y75.468 E2.20189
G1 X72.056 Y74.915 E2.22207
G1 X72.407 Y74.417 E2.24226
G1 X72.841 Y73.989 E2.26245
G1 X73.332 Y73.655 E2.28212
G1 X73.632 Y73.505 E2.29325
G1 X74.194 Y73.313 E2.31292
G1 X74.797 Y73.222 E2.33311
G1 X75.406 Y73.240 E2.35330
G1 X75.987 Y73.364 E2.37297
G1 X76.303 Y73.477 E2.38410
G1 X76.830 Y73.750 E2.40377
G1 X77.312 Y74.123 E2.42396
G1 X77.720 Y74.576 E2.44415
G1 X78.040 Y75.094 E2.46434
G1 X78.257 Y75.647 E2.48400
G1 X78.334 Y75.962 E2.49473
G1 X78.410 Y76.501 E2.51279
G1 X76.607 Y79.625 E2.63227
G1 X76.101 Y79.829 E2.65033
G1 X75.790 Y79.919 E2.66105
G1 X75.203 Y80.008 E2.68072
G1 X74.654 Y79.991 E2.69892
G1 X74.626 Y79.725 F7800.000
G1 F1800.000
G1 X74.086 Y79.610 E2.71721
G1 X73.803 Y79.509 E2.72716
G1 X73.314 Y79.255 E2.74544
G1 X72.869 Y78.911 E2.76404
G1 X72.494 Y78.494 E2.78265
G1 X72.204 Y78.024 E2.80093
G1 X72.081 Y77.750 E2.81088
G1 X71.927 Y77.220 E2.82916
G1 X71.868 Y76.662 E2.84777
G1 X71.910 Y76.102 E2.86637
G1 X72.051 Y75.558 E2.88497
G1 X72.287 Y75.049 E2.90358
G1 X72.611 Y74.589 E2.92218
G1 X73.011 Y74.195 E2.94079
G1 X73.467 Y73.885 E2.95907
G1 X73.735 Y73.750 E2.96902
G1 X74.257 Y73.572 E2.98730
G1 X74.813 Y73.488 E3.00591
G1 X75.374 Y73.505 E3.02451
G1 X75.914 Y73.620 E3.04279
G1 X76.197 Y73.721 E3.05274
G1 X76.686 Y73.975 E3.07102
G1 X77.131 Y74.319 E3.08963
G1 X77.506 Y74.736 E3.10823
G1 X77.802 Y75.214 E3.12684
G1 X78.003 Y75.727 E3.14512
G1 X78.073 Y76.012 E3.15482
G1 X78.134 Y76.448 E3.16941
G1 X76.422 Y79.413 E3.28282
G1 X76.014 Y79.577 E3.29741
G1 X75.733 Y79.659 E3.30711
G1 X75.187 Y79.742 E3.32539
G1 X74.686 Y79.727 E3.34201
G1 X74.658 Y79.460 F7800.000
G1 F1800.000
G1 X74.159 Y79.354 E3.35890
G1 X73.910 Y79.265 E3.36767
G1 X73.457 Y79.030 E3.38456
G1 X73.051 Y78.716 E3.40158
G1 X72.707 Y78.334 E3.41860
G1 X72.439 Y77.900 E3.43550
G1 X72.331 Y77.658 E3.44426
G1 X72.188 Y77.169 E3.46116
G1 X72.135 Y76.658 E3.47818
G1 X72.173 Y76.145 E3.49520
G1 X72.302 Y75.648 E3.51222
G1 X72.518 Y75.182 E3.52924
G1 X72.814 Y74.762 E3.54626
G1 X73.180 Y74.401 E3.56328
G1 X73.601 Y74.114 E3.58018
G1 X73.838 Y73.996 E3.58894
G1 X74.321 Y73.831 E3.60584
G1 X74.829 Y73.754 E3.62286
G1 X75.342 Y73.770 E3.63988
G1 X75.841 Y73.876 E3.65678
G1 X76.090 Y73.965 E3.66554
G1 X76.543 Y74.200 E3.68244
G1 X76.949 Y74.514 E3.69946
G1 X77.293 Y74.896 E3.71648
G1 X77.563 Y75.333 E3.73350
G1 X77.749 Y75.808 E3.75040
G1 X77.811 Y76.062 E3.75906
G1 X77.858 Y76.394 E3.77018
G1 X76.238 Y79.200 E3.87753
G1 X75.927 Y79.326 E3.88865
G1 X75.676 Y79.399 E3.89732
G1 X75.171 Y79.475 E3.91422
G1 X74.718 Y79.462 E3.92925
G1 X74.418 Y79.780 F7800.000
G1 E1.92925 F2400.00000
G92 E0
G1 X61.605 Y69.099 F7800.000
G1 E2.00000 F2400.00000
G1 F1800.000
G1 X61.365 Y69.374 E2.01210
G1 X61.091 Y69.592 E2.02367
G1 X60.784 Y69.757 E2.03525
G1 X60.451 Y69.865 E2.04683
G1 X60.105 Y69.912 E2.05840
G1 X59.756 Y69.896 E2.06998
G1 X59.400 Y69.815 E2.08208
G1 X58.956 Y69.601 E2.09839
G1 X58.671 Y69.374 E2.11050
G1 X58.441 Y69.110 E2.12207
G1 X58.262 Y68.811 E2.13364
G1 X58.139 Y68.483 E2.14522
G1 X58.077 Y68.140 E2.15680
G1 X58.077 Y67.790 E2.16837
G1 X58.142 Y67.431 E2.18047
G1 X58.335 Y66.978 E2.19679
G1 X58.550 Y66.682 E2.20889
G1 X58.803 Y66.441 E2.22046
G1 X59.107 Y66.240 E2.23256
G1 X59.568 Y66.067 E2.24888
G1 X59.930 Y66.018 E2.26098
G1 X60.279 Y66.033 E2.27256
G1 X60.635 Y66.115 E2.28465
G1 X61.079 Y66.328 E2.30097
G1 X61.377 Y66.566 E2.31359
G1 X61.684 Y66.951 E2.32990
G1 X61.843 Y67.280 E2.34200
G1 X61.936 Y67.617 E2.35358
G1 X61.967 Y67.965 E2.36516
G1 X61.936 Y68.313 E2.37673
G1 X61.838 Y68.665 E2.38884
G1 X61.633 Y69.046 E2.40316
G1 X61.385 Y68.946 F7800.000
G1 F1800.000
G1 X61.180 Y69.181 E2.41348
G1 X60.945 Y69.369 E2.42347
G1 X60.679 Y69.512 E2.43346
G1 X60.392 Y69.605 E2.44346
G1 X60.093 Y69.646 E2.45345
G1 X59.792 Y69.632 E2.46344
G1 X59.488 Y69.563 E2.47375
G1 X59.099 Y69.375 E2.48809
G1 X58.855 Y69.181 E2.49841
G1 X58.657 Y68.954 E2.50840
G1 X58.502 Y68.695 E2.51839
G1 X58.396 Y68.412 E2.52838
G1 X58.342 Y68.116 E2.53837
G1 X58.342 Y67.814 E2.54836
G1 X58.398 Y67.508 E2.55868
G1 X58.568 Y67.110 E2.57301
G1 X58.751 Y66.858 E2.58333
G1 X58.969 Y66.650 E2.59332
G1 X59.229 Y66.478 E2.60363
G1 X59.634 Y66.326 E2.61797
G1 X59.942 Y66.284 E2.62828
G1 X60.244 Y66.298 E2.63828
G1 X60.547 Y66.367 E2.64859
G1 X60.937 Y66.555 E2.66293
G1 X61.188 Y66.755 E2.67357
G1 X61.458 Y67.093 E2.68789
G1 X61.593 Y67.374 E2.69821
G1 X61.673 Y67.664 E2.70820
G1 X61.700 Y67.965 E2.71820
G1 X61.673 Y68.265 E2.72819
G1 X61.590 Y68.565 E2.73851
G1 X61.414 Y68.894 E2.75085
G1 X61.165 Y68.794 F7800.000
G1 F1800.000
G1 X60.996 Y68.988 E2.75938
G1 X60.798 Y69.146 E2.76779
G1 X60.574 Y69.267 E2.77620
G1 X60.333 Y69.345 E2.78461
G1 X60.081 Y69.379 E2.79302
G1 X59.828 Y69.368 E2.80142
G1 X59.577 Y69.310 E2.80996
G1 X59.241 Y69.149 E2.82231
G1 X59.039 Y68.988 E2.83084
G1 X58.872 Y68.797 E2.83925
G1 X58.742 Y68.579 E2.84765
G1 X58.653 Y68.341 E2.85606
G1 X58.608 Y68.092 E2.86447
G1 X58.608 Y67.838 E2.87288
G1 X58.654 Y67.585 E2.88141
G1 X58.800 Y67.242 E2.89376
G1 X58.952 Y67.033 E2.90229
G1 X59.135 Y66.858 E2.91070
G1 X59.350 Y66.716 E2.91923
G1 X59.699 Y66.585 E2.93158
G1 X59.954 Y66.551 E2.94012
G1 X60.208 Y66.562 E2.94852
G1 X60.459 Y66.619 E2.95705
G1 X60.795 Y66.781 E2.96940
G1 X60.999 Y66.944 E2.97806
G1 X61.231 Y67.235 E2.99041
G1 X61.343 Y67.467 E2.99894
G1 X61.411 Y67.712 E3.00735
G1 X61.433 Y67.965 E3.01576
G1 X61.411 Y68.218 E3.02417
G1 X61.342 Y68.466 E3.03270
G1 X61.194 Y68.741 E3.04306
G1 X61.274 Y69.028 F7800.000
G1 E1.04306 F2400.00000
G92 E0
G1 X88.033 Y67.965 F7800.000
G1 E2.00000 F2400.00000
G1 F1800.000
G1 X88.064 Y67.617 E2.01158
G1 X88.162 Y67.265 E2.02368
G1 X88.395 Y66.831 E2.03999
G1 X88.635 Y66.556 E2.05209
G1 X88.909 Y66.338 E2.06367
G1 X89.216 Y66.173 E2.07525
G1 X89.549 Y66.065 E2.08682
G1 X89.895 Y66.018 E2.09840
G1 X90.244 Y66.033 E2.10997
G1 X90.600 Y66.115 E2.12207
G1 X91.044 Y66.328 E2.13839
G1 X91.329 Y66.556 E2.15049
G1 X91.559 Y66.819 E2.16207
G1 X91.738 Y67.119 E2.17364
G1 X91.861 Y67.446 E2.18521
G1 X91.923 Y67.790 E2.19679
G1 X91.923 Y68.140 E2.20837
G1 X91.858 Y68.499 E2.22047
G1 X91.665 Y68.952 E2.23678
G1 X91.450 Y69.247 E2.24888
G1 X91.197 Y69.489 E2.26046
G1 X90.893 Y69.690 E2.27255
G1 X90.432 Y69.863 E2.28887
G1 X90.070 Y69.912 E2.30097
G1 X89.721 Y69.896 E2.31255
G1 X89.365 Y69.815 E2.32465
G1 X88.921 Y69.601 E2.34096
G1 X88.623 Y69.364 E2.35359
G1 X88.316 Y68.979 E2.36990
G1 X88.157 Y68.650 E2.38200
G1 X88.064 Y68.313 E2.39358
G1 X88.039 Y68.025 E2.40316
G1 X88.300 Y67.965 F7800.000
G1 F1800.000
G1 X88.327 Y67.664 E2.41316
G1 X88.410 Y67.364 E2.42347
G1 X88.615 Y66.983 E2.43781
G1 X88.820 Y66.749 E2.44812
G1 X89.055 Y66.561 E2.45811
G1 X89.321 Y66.418 E2.46811
G1 X89.608 Y66.325 E2.47810
G1 X89.907 Y66.284 E2.48809
G1 X90.208 Y66.298 E2.49808
G1 X90.512 Y66.367 E2.50840
G1 X90.901 Y66.555 E2.52273
G1 X91.145 Y66.749 E2.53305
G1 X91.343 Y66.976 E2.54304
G1 X91.498 Y67.235 E2.55303
G1 X91.604 Y67.517 E2.56302
G1 X91.658 Y67.814 E2.57301
G1 X91.658 Y68.116 E2.58301
G1 X91.602 Y68.422 E2.59332
G1 X91.432 Y68.820 E2.60765
G1 X91.249 Y69.072 E2.61797
G1 X91.031 Y69.280 E2.62796
G1 X90.771 Y69.452 E2.63828
G1 X90.366 Y69.604 E2.65261
G1 X90.058 Y69.646 E2.66293
G1 X89.756 Y69.632 E2.67292
G1 X89.453 Y69.563 E2.68323
G1 X89.063 Y69.375 E2.69757
G1 X88.812 Y69.175 E2.70821
G1 X88.542 Y68.837 E2.72254
G1 X88.407 Y68.556 E2.73285
G1 X88.327 Y68.265 E2.74285
G1 X88.305 Y68.025 E2.75085
G1 X88.567 Y67.965 F7800.000
G1 F1800.000
G1 X88.589 Y67.712 E2.75926
G1 X88.658 Y67.464 E2.76779
G1 X88.835 Y67.136 E2.78014
G1 X89.004 Y66.942 E2.78867
G1 X89.202 Y66.783 E2.79708
G1 X89.426 Y66.663 E2.80549
G1 X89.667 Y66.585 E2.81390
G1 X89.919 Y66.551 E2.82231
G1 X90.172 Y66.562 E2.83071
G1 X90.423 Y66.619 E2.83925
G1 X90.759 Y66.781 E2.85160
G1 X90.961 Y66.942 E2.86013
G1 X91.128 Y67.133 E2.86854
G1 X91.258 Y67.351 E2.87694
G1 X91.347 Y67.588 E2.88535
G1 X91.392 Y67.838 E2.89376
G1 X91.392 Y68.092 E2.90217
G1 X91.346 Y68.345 E2.91070
G1 X91.200 Y68.688 E2.92305
G1 X91.048 Y68.896 E2.93158
G1 X90.865 Y69.072 E2.93999
G1 X90.650 Y69.214 E2.94852
G1 X90.301 Y69.345 E2.96087
G1 X90.046 Y69.379 E2.96941
G1 X89.792 Y69.368 E2.97782
G1 X89.541 Y69.310 E2.98635
G1 X89.205 Y69.149 E2.99870
G1 X89.001 Y68.986 E3.00735
G1 X88.769 Y68.694 E3.01970
G1 X88.657 Y68.462 E3.02823
G1 X88.589 Y68.218 E3.03664
G1 X88.572 Y68.025 E3.04306
G1 X88.347 Y67.838 F7800.000
G1 E1.04306 F2400.00000
G92 E0
G1 X78.304 Y64.601 F7800.000
G1 E2.00000 F2400.00000
G1 F1800.000
G1 X79.886 Y65.188 E2.05590
G1 X81.079 Y65.762 E2.09975
G1 X87.395 Y62.663 E2.33284
G1 X87.891 Y62.477 E2.35038
G1 X88.403 Y62.335 E2.36800
G1 X88.927 Y62.240 E2.38562
G1 X89.456 Y62.193 E2.40324
G1 X89.988 Y62.193 E2.42087
G1 X90.518 Y62.240 E2.43849
G1 X91.042 Y62.335 E2.45611
G1 X91.554 Y62.477 E2.47374
G1 X92.052 Y62.664 E2.49136
G1 X92.532 Y62.895 E2.50898
G1 X92.988 Y63.167 E2.52660
G1 X93.418 Y63.480 E2.54422
G1 X93.819 Y63.830 E2.56185
G1 X94.187 Y64.215 E2.57947
G1 X94.518 Y64.630 E2.59709
G1 X94.811 Y65.074 E2.61471
G1 X95.063 Y65.543 E2.63234
G1 X95.273 Y66.032 E2.64996
G1 X95.437 Y66.538 E2.66758
G1 X95.555 Y67.056 E2.68520
G1 X95.627 Y67.583 E2.70283
G1 X95.651 Y68.115 E2.72045
G1 X95.627 Y68.646 E2.73807
G1 X95.555 Y69.173 E2.75569
G1 X95.437 Y69.692 E2.77332
G1 X95.273 Y70.198 E2.79094
G1 X95.063 Y70.687 E2.80856
G1 X94.811 Y71.155 E2.82618
G1 X94.518 Y71.599 E2.84381
G1 X94.187 Y72.015 E2.86143
G1 X93.819 Y72.400 E2.87905
G1 X93.418 Y72.750 E2.89668
G1 X92.974 Y73.073 E2.91489
G1 X87.420 Y76.794 E3.13636
G1 X87.378 Y77.729 E3.16737
G1 X87.228 Y78.834 E3.20431
G1 X87.021 Y79.741 E3.23512
G1 X99.881 Y87.165 E3.72708
G1 X99.374 Y88.353 E3.76986
G1 X98.224 Y90.490 E3.85029
G1 X96.886 Y92.516 E3.93071
G1 X96.586 Y92.892 E3.94665
G1 X83.733 Y85.472 E4.43835
G1 X82.749 Y86.331 E4.48164
G1 X81.847 Y86.987 E4.51859
G1 X81.363 Y87.276 E4.53724
G1 X80.905 Y94.139 E4.76512
G1 X80.833 Y94.673 E4.78299
G1 X80.714 Y95.192 E4.80062
G1 X80.550 Y95.698 E4.81824
G1 X80.341 Y96.187 E4.83586
G1 X80.089 Y96.655 E4.85348
G1 X79.796 Y97.099 E4.87110
G1 X79.464 Y97.515 E4.88873
G1 X79.097 Y97.900 E4.90635
G1 X78.696 Y98.250 E4.92397
G1 X78.266 Y98.562 E4.94160
G1 X77.809 Y98.835 E4.95922
G1 X77.330 Y99.066 E4.97684
G1 X76.832 Y99.253 E4.99446
G1 X76.319 Y99.394 E5.01208
G1 X75.796 Y99.489 E5.02971
G1 X75.266 Y99.537 E5.04733
G1 X74.734 Y99.537 E5.06495
G1 X74.204 Y99.489 E5.08257
G1 X73.681 Y99.394 E5.10020
G1 X73.168 Y99.253 E5.11782
G1 X72.670 Y99.066 E5.13544
G1 X72.191 Y98.835 E5.15306
G1 X71.734 Y98.562 E5.17069
G1 X71.304 Y98.250 E5.18831
G1 X70.903 Y97.900 E5.20593
G1 X70.536 Y97.515 E5.22355
G1 X70.204 Y97.099 E5.24118
G1 X69.911 Y96.655 E5.25880
G1 X69.659 Y96.187 E5.27642
G1 X69.450 Y95.698 E5.29404
G1 X69.286 Y95.192 E5.31167
G1 X69.167 Y94.673 E5.32929
G1 X69.095 Y94.139 E5.34716
G1 X68.637 Y87.276 E5.57504
G1 X68.153 Y86.987 E5.59369
G1 X67.251 Y86.331 E5.63064
G1 X66.267 Y85.472 E5.67393
G1 X53.414 Y92.892 E6.16563
G1 X53.114 Y92.516 E6.18158
G1 X51.776 Y90.490 E6.26200
G1 X50.626 Y88.353 E6.34242
G1 X50.119 Y87.165 E6.38520
G1 X62.979 Y79.741 E6.87716
G1 X62.772 Y78.834 E6.90797
G1 X62.622 Y77.729 E6.94491
G1 X62.580 Y76.794 E6.97592
G1 X57.026 Y73.073 E7.19739
G1 X56.582 Y72.750 E7.21561
G1 X56.181 Y72.400 E7.23323
G1 X55.813 Y72.015 E7.25085
G1 X55.482 Y71.599 E7.26848
G1 X55.189 Y71.155 E7.28610
G1 X54.937 Y70.687 E7.30372
G1 X54.727 Y70.198 E7.32134
G1 X54.563 Y69.692 E7.33897
G1 X54.445 Y69.173 E7.35659
G1 X54.373 Y68.646 E7.37421
G1 X54.349 Y68.115 E7.39183
G1 X54.373 Y67.583 E7.40946
G1 X54.445 Y67.056 E7.42708
G1 X54.563 Y66.538 E7.44470
G1 X54.727 Y66.032 E7.46232
G1 X54.937 Y65.543 E7.47994
G1 X55.189 Y65.074 E7.49757
G1 X55.482 Y64.630 E7.51519
G1 X55.813 Y64.215 E7.53281
G1 X56.181 Y63.830 E7.55043
G1 X56.582 Y63.480 E7.56806
G1 X57.012 Y63.167 E7.58568
G1 X57.468 Y62.895 E7.60330
G1 X57.948 Y62.664 E7.62093
G1 X58.446 Y62.477 E7.63855
G1 X58.958 Y62.335 E7.65617
G1 X59.482 Y62.240 E7.67379
G1 X60.012 Y62.193 E7.69141
G1 X60.544 Y62.193 E7.70904
G1 X61.073 Y62.240 E7.72666
