; generated by Slic3r 1.3.1-dev (Build 2d100c4) on 2021-01-20 at 18:23:20

; external perimeters extrusion width = 0.44mm (2.86mm^3/s)
; perimeters extrusion width = 0.56mm (4.14mm^3/s)
; infill extrusion width = 0.50mm (3.66mm^3/s)
; solid infill extrusion width = 0.56mm (3.10mm^3/s)
; top infill extrusion width = 0.56mm (3.10mm^3/s)

M107
G92 E0
;D3D:START:START
T0
M104 S215 T0

G21
G90
M107
T0
G28
G29
M109 T0 S215 T0
G0 F3000
M107
T0
G92 E0
G0 X0 Y149 Z0.1 F3600
G1 Y49 E6.5 F1200
G0 Z1
G92 E0
; Filament gcode

G21 ; set units to millimeters
G90 ; use absolute coordinates
M82 ; use absolute distances for extrusion
G92 E0
G1 Z0.300 F7800.000
G1 E-2.00000 F2400.00000
G92 E0
G1 X72.474 Y74.340 F7800.000
G1 E2.00000 F2400.00000
G1 F1800.000
G1 X72.921 Y73.926 E2.02019
G1 X73.434 Y73.598 E2.04038
G1 X73.998 Y73.367 E2.06056
G1 X74.594 Y73.240 E2.08075
G1 X75.203 Y73.222 E2.10094
G1 X75.790 Y73.310 E2.12061
G1 X76.113 Y73.405 E2.13175
G1 X76.655 Y73.646 E2.15141
G1 X77.159 Y73.989 E2.17160
G1 X77.593 Y74.417 E2.19179
G1 X77.935 Y74.902 E2.21146
G1 X78.089 Y75.201 E2.22259
G1 X78.290 Y75.760 E2.24226
G1 X78.390 Y76.361 E2.26245
G1 X78.380 Y76.970 E2.28264
G1 X78.263 Y77.568 E2.30283
G1 X78.040 Y78.135 E2.32302
G1 X77.720 Y78.654 E2.34320
G1 X77.312 Y79.107 E2.36339
G1 X76.830 Y79.479 E2.38358
G1 X76.303 Y79.753 E2.40325
G1 X75.987 Y79.866 E2.41438
G1 X75.406 Y79.990 E2.43405
G1 X74.812 Y80.007 E2.45372
G1 X74.478 Y79.972 E2.46486
G1 X73.913 Y79.834 E2.48411
G1 X73.393 Y79.625 E2.50269
G1 X71.590 Y76.501 E2.62217
G1 X71.669 Y75.946 E2.64075
G1 X71.836 Y75.373 E2.66053
G1 X72.108 Y74.828 E2.68072
G1 X72.438 Y74.388 E2.69892
G1 X72.672 Y74.519 F7800.000
G1 F1800.000
G1 X73.084 Y74.137 E2.71752
G1 X73.557 Y73.835 E2.73613
G1 X74.077 Y73.622 E2.75473
G1 X74.626 Y73.505 E2.77333
G1 X75.187 Y73.488 E2.79194
G1 X75.733 Y73.570 E2.81022
G1 X76.021 Y73.655 E2.82017
G1 X76.525 Y73.879 E2.83845
G1 X76.989 Y74.195 E2.85706
G1 X77.389 Y74.589 E2.87566
G1 X77.707 Y75.041 E2.89394
G1 X77.845 Y75.307 E2.90389
G1 X78.032 Y75.827 E2.92218
G1 X78.124 Y76.381 E2.94078
G1 X78.115 Y76.942 E2.95938
G1 X78.007 Y77.493 E2.97799
G1 X77.802 Y78.016 E2.99659
G1 X77.506 Y78.494 E3.01520
G1 X77.131 Y78.911 E3.03380
G1 X76.686 Y79.255 E3.05241
G1 X76.197 Y79.509 E3.07069
G1 X75.914 Y79.610 E3.08064
G1 X75.374 Y79.725 E3.09892
G1 X74.822 Y79.741 E3.11720
G1 X74.524 Y79.710 E3.12715
G1 X73.995 Y79.581 E3.14518
G1 X73.578 Y79.413 E3.16009
G1 X71.866 Y76.448 E3.27351
G1 X71.929 Y76.002 E3.28842
G1 X72.084 Y75.470 E3.30677
G1 X72.335 Y74.968 E3.32537
G1 X72.636 Y74.567 E3.34199
G1 X72.870 Y74.697 F7800.000
G1 F1800.000
G1 X73.247 Y74.348 E3.35901
G1 X73.680 Y74.071 E3.37603
G1 X74.155 Y73.876 E3.39305
G1 X74.658 Y73.770 E3.41007
G1 X75.171 Y73.754 E3.42709
G1 X75.676 Y73.830 E3.44399
G1 X75.930 Y73.905 E3.45275
G1 X76.396 Y74.112 E3.46965
G1 X76.820 Y74.401 E3.48667
G1 X77.186 Y74.762 E3.50369
G1 X77.480 Y75.179 E3.52059
G1 X77.601 Y75.414 E3.52935
G1 X77.773 Y75.894 E3.54625
G1 X77.858 Y76.401 E3.56327
G1 X77.850 Y76.914 E3.58029
G1 X77.751 Y77.418 E3.59731
G1 X77.563 Y77.897 E3.61433
G1 X77.293 Y78.334 E3.63135
G1 X76.949 Y78.716 E3.64837
G1 X76.543 Y79.030 E3.66539
G1 X76.090 Y79.265 E3.68229
G1 X75.841 Y79.354 E3.69105
G1 X75.342 Y79.460 E3.70795
G1 X74.832 Y79.475 E3.72484
G1 X74.569 Y79.448 E3.73361
G1 X74.077 Y79.327 E3.75041
G1 X73.762 Y79.200 E3.76165
G1 X72.142 Y76.394 E3.86900
G1 X72.189 Y76.058 E3.88024
G1 X72.332 Y75.568 E3.89717
G1 X72.562 Y75.108 E3.91418
G1 X72.834 Y74.745 E3.92922
G1 X72.747 Y74.317 F7800.000
G1 E1.92922 F2400.00000
G92 E0
G1 X71.696 Y67.124 F7800.000
G1 E2.00000 F2400.00000
G1 F1800.000
G1 X71.696 Y49.777 E2.57468
G1 X73.786 Y49.589 E2.64420
G1 X76.214 Y49.589 E2.72462
G1 X78.304 Y49.777 E2.79414
G1 X78.304 Y67.124 E3.36882
G1 X84.396 Y64.098 E3.59418
G1 X87.384 Y62.640 E3.70433
G1 X87.883 Y62.453 E3.72197
G1 X88.398 Y62.311 E3.73966
G1 X88.923 Y62.215 E3.75736
G1 X89.455 Y62.167 E3.77506
G1 X89.990 Y62.167 E3.79276
G1 X90.522 Y62.215 E3.81046
G1 X91.047 Y62.311 E3.82815
G1 X91.562 Y62.453 E3.84585
G1 X92.062 Y62.640 E3.86355
G1 X92.544 Y62.872 E3.88125
G1 X93.002 Y63.146 E3.89894
G1 X93.434 Y63.460 E3.91664
G1 X93.837 Y63.812 E3.93434
G1 X94.206 Y64.198 E3.95204
G1 X94.539 Y64.616 E3.96974
G1 X94.833 Y65.061 E3.98743
G1 X95.086 Y65.532 E4.00513
G1 X95.296 Y66.023 E4.02283
G1 X95.461 Y66.531 E4.04053
G1 X95.580 Y67.052 E4.05822
G1 X95.652 Y67.581 E4.07592
G1 X95.676 Y68.115 E4.09362
G1 X95.652 Y68.649 E4.11132
G1 X95.580 Y69.178 E4.12902
G1 X95.461 Y69.699 E4.14671
G1 X95.296 Y70.207 E4.16441
G1 X95.086 Y70.698 E4.18211
G1 X94.833 Y71.168 E4.19981
G1 X94.539 Y71.614 E4.21750
G1 X94.206 Y72.032 E4.23520
G1 X93.837 Y72.418 E4.25290
G1 X93.434 Y72.769 E4.27060
G1 X92.988 Y73.094 E4.28887
G1 X84.877 Y78.502 E4.61186
G1 X99.881 Y87.165 E5.18587
G1 X99.374 Y88.353 E5.22865
G1 X98.224 Y90.490 E5.30907
G1 X96.886 Y92.516 E5.38949
G1 X96.586 Y92.892 E5.40543
G1 X81.570 Y84.223 E5.97989
G1 X80.930 Y94.142 E6.30919
G1 X80.858 Y94.678 E6.32712
G1 X80.739 Y95.199 E6.34481
G1 X80.574 Y95.707 E6.36251
G1 X80.364 Y96.198 E6.38021
G1 X80.111 Y96.668 E6.39791
G1 X79.816 Y97.114 E6.41560
G1 X79.483 Y97.532 E6.43330
G1 X79.114 Y97.918 E6.45100
G1 X78.712 Y98.269 E6.46870
G1 X78.280 Y98.583 E6.48640
G1 X77.821 Y98.857 E6.50409
G1 X77.340 Y99.089 E6.52179
G1 X76.840 Y99.277 E6.53949
G1 X76.325 Y99.419 E6.55719
G1 X75.799 Y99.514 E6.57488
G1 X75.267 Y99.562 E6.59258
G1 X74.733 Y99.562 E6.61028
G1 X74.201 Y99.514 E6.62798
G1 X73.675 Y99.419 E6.64567
G1 X73.160 Y99.277 E6.66337
G1 X72.660 Y99.089 E6.68107
G1 X72.179 Y98.857 E6.69877
G1 X71.720 Y98.583 E6.71646
G1 X71.288 Y98.269 E6.73416
G1 X70.886 Y97.918 E6.75186
G1 X70.517 Y97.532 E6.76956
G1 X70.184 Y97.114 E6.78726
G1 X69.889 Y96.668 E6.80495
G1 X69.636 Y96.198 E6.82265
G1 X69.426 Y95.707 E6.84035
G1 X69.261 Y95.199 E6.85805
G1 X69.142 Y94.678 E6.87574
G1 X69.070 Y94.142 E6.89367
G1 X68.430 Y84.223 E7.22297
G1 X53.414 Y92.892 E7.79743
G1 X53.114 Y92.516 E7.81337
G1 X51.776 Y90.490 E7.89379
G1 X50.626 Y88.353 E7.97421
G1 X50.119 Y87.165 E8.01699
G1 X65.123 Y78.502 E8.59100
G1 X57.012 Y73.094 E8.91399
G1 X56.566 Y72.769 E8.93226
G1 X56.163 Y72.418 E8.94996
G1 X55.794 Y72.032 E8.96766
G1 X55.461 Y71.614 E8.98536
G1 X55.167 Y71.168 E9.00305
G1 X54.914 Y70.698 E9.02075
G1 X54.704 Y70.207 E9.03845
G1 X54.539 Y69.699 E9.05615
G1 X54.420 Y69.178 E9.07385
G1 X54.348 Y68.649 E9.09154
G1 X54.324 Y68.115 E9.10924
G1 X54.348 Y67.581 E9.12694
G1 X54.420 Y67.052 E9.14464
G1 X54.539 Y66.531 E9.16233
G1 X54.704 Y66.023 E9.18003
G1 X54.914 Y65.532 E9.19773
G1 X55.167 Y65.061 E9.21543
G1 X55.461 Y64.616 E9.23312
G1 X55.794 Y64.198 E9.25082
G1 X56.163 Y63.812 E9.26852
G1 X56.566 Y63.460 E9.28622
G1 X56.998 Y63.146 E9.30392
G1 X57.456 Y62.872 E9.32161
G1 X57.938 Y62.640 E9.33931
G1 X58.438 Y62.453 E9.35701
G1 X58.953 Y62.311 E9.37471
G1 X59.478 Y62.215 E9.39241
G1 X60.010 Y62.167 E9.41010
G1 X60.545 Y62.167 E9.42780
G1 X61.077 Y62.215 E9.44550
G1 X61.602 Y62.311 E9.46320
G1 X62.117 Y62.453 E9.48089
G1 X62.616 Y62.640 E9.49853
G1 X65.604 Y64.098 E9.60868
G1 X71.642 Y67.097 E9.83205
G1 X71.431 Y66.695 F7800.000
G1 F1800.000
G1 X71.431 Y49.534 E10.40058
G1 X73.774 Y49.323 E10.47854
G1 X76.226 Y49.323 E10.55975
G1 X78.569 Y49.534 E10.63771
G1 X78.569 Y66.695 E11.20624
G1 X84.279 Y63.860 E11.41743
G1 X87.279 Y62.396 E11.52803
G1 X87.801 Y62.200 E11.54648
G1 X88.338 Y62.052 E11.56497
G1 X88.888 Y61.952 E11.58346
G1 X89.443 Y61.902 E11.60195
G1 X90.001 Y61.902 E11.62044
G1 X90.557 Y61.952 E11.63892
G1 X91.106 Y62.052 E11.65741
G1 X91.644 Y62.200 E11.67590
G1 X92.167 Y62.396 E11.69439
G1 X92.670 Y62.638 E11.71288
G1 X93.149 Y62.924 E11.73136
G1 X93.600 Y63.252 E11.74985
G1 X94.020 Y63.620 E11.76834
G1 X94.406 Y64.023 E11.78683
G1 X94.754 Y64.459 E11.80532
G1 X95.061 Y64.925 E11.82380
G1 X95.326 Y65.416 E11.84229
G1 X95.545 Y65.930 E11.86078
G1 X95.718 Y66.460 E11.87927
G1 X95.842 Y67.004 E11.89776
G1 X95.917 Y67.557 E11.91625
G1 X95.942 Y68.115 E11.93473
G1 X95.917 Y68.672 E11.95322
G1 X95.842 Y69.225 E11.97171
G1 X95.718 Y69.769 E11.99020
G1 X95.545 Y70.300 E12.00869
G1 X95.326 Y70.813 E12.02717
G1 X95.061 Y71.305 E12.04566
G1 X94.754 Y71.770 E12.06415
G1 X94.406 Y72.207 E12.08264
G1 X94.020 Y72.610 E12.10113
G1 X93.600 Y72.977 E12.11962
G1 X93.140 Y73.312 E12.13846
G1 X85.380 Y78.486 E12.44746
G1 X100.218 Y87.053 E13.01511
G1 X99.614 Y88.468 E13.06609
G1 X98.452 Y90.627 E13.14730
G1 X97.101 Y92.672 E13.22851
G1 X96.651 Y93.237 E13.25242
G1 X81.807 Y84.666 E13.82029
G1 X81.195 Y94.168 E14.13573
G1 X81.119 Y94.725 E14.15435
G1 X80.995 Y95.269 E14.17284
G1 X80.823 Y95.800 E14.19133
G1 X80.603 Y96.313 E14.20982
G1 X80.339 Y96.805 E14.22831
G1 X80.032 Y97.270 E14.24679
G1 X79.684 Y97.707 E14.26528
G1 X79.298 Y98.110 E14.28377
G1 X78.878 Y98.477 E14.30226
G1 X78.426 Y98.805 E14.32075
G1 X77.947 Y99.092 E14.33924
G1 X77.444 Y99.334 E14.35772
G1 X76.922 Y99.530 E14.37621
G1 X76.384 Y99.678 E14.39470
G1 X75.835 Y99.778 E14.41319
G1 X75.279 Y99.828 E14.43168
G1 X74.721 Y99.828 E14.45016
G1 X74.165 Y99.778 E14.46865
G1 X73.616 Y99.678 E14.48714
G1 X73.078 Y99.530 E14.50563
G1 X72.556 Y99.334 E14.52412
G1 X72.053 Y99.092 E14.54261
G1 X71.574 Y98.805 E14.56109
G1 X71.122 Y98.477 E14.57958
G1 X70.702 Y98.110 E14.59807
G1 X70.316 Y97.707 E14.61656
G1 X69.968 Y97.270 E14.63505
G1 X69.661 Y96.805 E14.65353
G1 X69.397 Y96.313 E14.67202
G1 X69.177 Y95.800 E14.69051
G1 X69.005 Y95.269 E14.70900
G1 X68.881 Y94.725 E14.72749
G1 X68.805 Y94.168 E14.74611
G1 X68.193 Y84.666 E15.06155
G1 X53.349 Y93.237 E15.62942
G1 X52.899 Y92.672 E15.65333
G1 X51.548 Y90.627 E15.73454
G1 X50.386 Y88.468 E15.81575
G1 X49.782 Y87.053 E15.86673
G1 X64.620 Y78.486 E16.43438
G1 X56.860 Y73.312 E16.74338
G1 X56.400 Y72.977 E16.76222
G1 X55.980 Y72.610 E16.78071
G1 X55.594 Y72.207 E16.79920
G1 X55.246 Y71.770 E16.81769
G1 X54.939 Y71.305 E16.83618
G1 X54.674 Y70.813 E16.85467
G1 X54.455 Y70.300 E16.87315
G1 X54.282 Y69.769 E16.89164
G1 X54.158 Y69.225 E16.91013
G1 X54.083 Y68.672 E16.92862
G1 X54.058 Y68.115 E16.94711
G1 X54.083 Y67.557 E16.96560
G1 X54.158 Y67.004 E16.98408
G1 X54.282 Y66.460 E17.00257
G1 X54.455 Y65.930 E17.02106
G1 X54.674 Y65.416 E17.03955
G1 X54.939 Y64.925 E17.05804
G1 X55.246 Y64.459 E17.07652
G1 X55.594 Y64.023 E17.09501
G1 X55.980 Y63.620 E17.11350
G1 X56.400 Y63.252 E17.13199
G1 X56.851 Y62.924 E17.15048
G1 X57.330 Y62.638 E17.16896
G1 X57.833 Y62.396 E17.18745
G1 X58.356 Y62.200 E17.20594
G1 X58.894 Y62.052 E17.22443
G1 X59.443 Y61.952 E17.24292
G1 X59.999 Y61.902 E17.26140
G1 X60.557 Y61.902 E17.27989
G1 X61.112 Y61.952 E17.29838
G1 X61.662 Y62.052 E17.31687
G1 X62.199 Y62.200 E17.33536
G1 X62.721 Y62.396 E17.35381
G1 X65.721 Y63.860 E17.46441
G1 X71.377 Y66.668 E17.67361
G1 X71.165 Y66.267 F7800.000
G1 F1800.000
G1 X71.165 Y49.304 E18.23559
G1 X71.297 Y49.280 E18.24004
G1 X73.762 Y49.058 E18.32204
G1 X76.238 Y49.058 E18.40404
G1 X78.835 Y49.304 E18.49048
G1 X78.835 Y66.267 E19.05245
G1 X84.162 Y63.622 E19.24948
G1 X87.174 Y62.151 E19.36053
G1 X87.718 Y61.947 E19.37980
G1 X88.279 Y61.792 E19.39907
G1 X88.852 Y61.688 E19.41835
G1 X89.431 Y61.636 E19.43763
G1 X90.013 Y61.636 E19.45691
G1 X90.593 Y61.688 E19.47619
G1 X91.165 Y61.792 E19.49547
G1 X91.726 Y61.947 E19.51475
G1 X92.271 Y62.152 E19.53402
G1 X92.796 Y62.404 E19.55330
G1 X93.295 Y62.702 E19.57258
G1 X93.766 Y63.045 E19.59186
G1 X94.204 Y63.427 E19.61114
G1 X94.606 Y63.848 E19.63042
G1 X94.969 Y64.303 E19.64970
G1 X95.290 Y64.789 E19.66897
G1 X95.565 Y65.301 E19.68825
G1 X95.794 Y65.836 E19.70753
G1 X95.974 Y66.390 E19.72681
G1 X96.103 Y66.957 E19.74609
G1 X96.181 Y67.534 E19.76537
G1 X96.208 Y68.115 E19.78465
G1 X96.181 Y68.696 E19.80392
G1 X96.103 Y69.273 E19.82320
G1 X95.974 Y69.840 E19.84248
G1 X95.794 Y70.394 E19.86176
G1 X95.565 Y70.929 E19.88104
G1 X95.290 Y71.441 E19.90032
G1 X94.969 Y71.927 E19.91959
G1 X94.606 Y72.382 E19.93887
G1 X94.204 Y72.802 E19.95815
G1 X93.766 Y73.185 E19.97743
G1 X93.292 Y73.530 E19.99684
G1 X85.883 Y78.470 E20.29186
G1 X100.555 Y86.941 E20.85314
G1 X99.853 Y88.583 E20.91233
G1 X98.680 Y90.763 E20.99433
G1 X97.317 Y92.829 E21.07633
G1 X96.717 Y93.581 E21.10821
G1 X82.045 Y85.110 E21.66948
G1 X81.459 Y94.195 E21.97106
G1 X81.381 Y94.773 E21.99039
G1 X81.251 Y95.340 E22.00967
G1 X81.072 Y95.894 E22.02895
G1 X80.843 Y96.429 E22.04823
G1 X80.567 Y96.941 E22.06751
G1 X80.247 Y97.427 E22.08678
G1 X79.884 Y97.882 E22.10606
G1 X79.482 Y98.302 E22.12534
G1 X79.043 Y98.685 E22.14462
G1 X78.573 Y99.027 E22.16390
G1 X78.073 Y99.326 E22.18318
G1 X77.549 Y99.578 E22.20245
G1 X77.004 Y99.783 E22.22173
G1 X76.443 Y99.937 E22.24101
G1 X75.871 Y100.041 E22.26029
G1 X75.291 Y100.093 E22.27957
G1 X74.709 Y100.093 E22.29885
G1 X74.129 Y100.041 E22.31812
G1 X73.557 Y99.937 E22.33740
G1 X72.996 Y99.783 E22.35668
G1 X72.451 Y99.578 E22.37596
G1 X71.927 Y99.326 E22.39524
G1 X71.427 Y99.027 E22.41452
G1 X70.957 Y98.685 E22.43380
G1 X70.518 Y98.302 E22.45308
G1 X70.116 Y97.882 E22.47235
G1 X69.753 Y97.427 E22.49163
G1 X69.433 Y96.941 E22.51091
G1 X69.157 Y96.429 E22.53019
G1 X68.928 Y95.894 E22.54947
G1 X68.749 Y95.340 E22.56875
G1 X68.619 Y94.773 E22.58802
G1 X68.541 Y94.195 E22.60736
G1 X67.955 Y85.110 E22.90894
G1 X53.283 Y93.581 E23.47021
G1 X52.683 Y92.829 E23.50209
G1 X51.320 Y90.763 E23.58409
G1 X50.147 Y88.583 E23.66609
G1 X49.445 Y86.941 E23.72527
G1 X64.117 Y78.470 E24.28655
G1 X56.708 Y73.530 E24.58157
G1 X56.234 Y73.185 E24.60098
G1 X55.796 Y72.802 E24.62026
G1 X55.394 Y72.382 E24.63954
G1 X55.031 Y71.927 E24.65882
G1 X54.710 Y71.441 E24.67810
G1 X54.435 Y70.929 E24.69738
G1 X54.206 Y70.394 E24.71665
G1 X54.026 Y69.840 E24.73593
G1 X53.897 Y69.273 E24.75521
G1 X53.819 Y68.696 E24.77449
G1 X53.792 Y68.115 E24.79377
G1 X53.819 Y67.534 E24.81305
G1 X53.897 Y66.957 E24.83233
G1 X54.026 Y66.390 E24.85160
G1 X54.206 Y65.836 E24.87088
G1 X54.435 Y65.301 E24.89016
G1 X54.710 Y64.789 E24.90944
G1 X55.031 Y64.303 E24.92872
G1 X55.394 Y63.848 E24.94800
G1 X55.796 Y63.427 E24.96728
G1 X56.234 Y63.045 E24.98656
G1 X56.705 Y62.702 E25.00583
G1 X57.204 Y62.404 E25.02511
G1 X57.729 Y62.152 E25.04439
G1 X58.274 Y61.947 E25.06367
G1 X58.835 Y61.792 E25.08295
G1 X59.407 Y61.688 E25.10223
G1 X59.987 Y61.636 E25.12150
G1 X60.569 Y61.636 E25.14078
G1 X61.148 Y61.688 E25.16006
G1 X61.721 Y61.792 E25.17934
G1 X62.282 Y61.947 E25.19862
G1 X62.826 Y62.151 E25.21788
G1 X65.838 Y63.622 E25.32893
G1 X71.111 Y66.240 E25.52397
G1 X71.560 Y66.328 F7800.000
G1 X71.859 Y67.371 F7800.000
G1 F1800.000
G1 X78.141 Y61.088 E25.81985
G1 X78.141 Y60.711 E25.83243
G1 X71.859 Y66.994 E26.12831
G1 X71.859 Y66.616 E26.14088
G1 X78.141 Y60.333 E26.43676
G1 X78.141 Y59.956 E26.44933
G1 X71.859 Y66.239 E26.74521
G1 X71.859 Y65.861 E26.75779
G1 X78.141 Y59.578 E27.05367
G1 X78.141 Y59.201 E27.06624
G1 X71.859 Y65.483 E27.36212
G1 X71.859 Y65.106 E27.37469
G1 X78.141 Y58.823 E27.67057
G1 X78.141 Y58.445 E27.68315
G1 X71.859 Y64.728 E27.97903
G1 X71.859 Y64.351 E27.99160
G1 X78.141 Y58.068 E28.28748
G1 X78.141 Y57.690 E28.30005
G1 X71.859 Y63.973 E28.59593
G1 X71.859 Y63.596 E28.60851
G1 X78.141 Y57.313 E28.90439
G1 X78.141 Y56.935 E28.91696
G1 X71.859 Y63.218 E29.21284
G1 X71.859 Y62.840 E29.22541
G1 X78.141 Y56.558 E29.52129
G1 X78.141 Y56.180 E29.53387
G1 X71.859 Y62.463 E29.82975
G1 X71.859 Y62.085 E29.84232
G1 X78.141 Y55.802 E30.13820
G1 X78.141 Y55.425 E30.15077
G1 X71.859 Y61.708 E30.44665
G1 X71.859 Y61.330 E30.45923
G1 X78.141 Y55.047 E30.75511
G1 X78.141 Y54.670 E30.76768
G1 X71.859 Y60.953 E31.06356
G1 X71.859 Y60.575 E31.07613
G1 X78.141 Y54.292 E31.37201
G1 X78.141 Y53.915 E31.38459
G1 X71.859 Y60.197 E31.68047
G1 X71.859 Y59.820 E31.69304
G1 X78.141 Y53.537 E31.98892
G1 X78.141 Y53.159 E32.00149
G1 X71.859 Y59.442 E32.29737
G1 X71.859 Y59.065 E32.30995
G1 X78.141 Y52.782 E32.60583
G1 X78.141 Y52.404 E32.61840
G1 X71.859 Y58.687 E32.91428
G1 X71.859 Y58.310 E32.92685
G1 X78.141 Y52.027 E33.22273
G1 X78.141 Y51.649 E33.23531
G1 X71.859 Y57.932 E33.53119
