; generated by Slic3r 1.3.1-dev (Build 2d100c4) on 2021-01-20 at 18:25:35

; external perimeters extrusion width = 0.44mm (2.86mm^3/s)
; perimeters extrusion width = 0.56mm (4.14mm^3/s)
; infill extrusion width = 0.50mm (3.66mm^3/s)
; solid infill extrusion width = 0.56mm (3.10mm^3/s)
; top infill extrusion width = 0.56mm (3.10mm^3/s)

M107
G92 E0
;D3D:START:START
T0
M104 S215 T0

G21
G90
M107
T0
G28
G29
M109 T0 S215 T0
G0 F3000
M107
T0
G92 E0
G0 X0 Y149 Z0.1 F3600
G1 Y49 E6.5 F1200
G0 Z1
G92 E0
; Filament gcode

G21 ; set units to millimeters
G90 ; use absolute coordinates
M82 ; use absolute distances for extrusion
G92 E0
G1 Z0.300 F7800.000
G1 E-2.00000 F2400.00000
G92 E0
G1 X36.464 Y80.350 F7800.000
G1 E2.00000 F2400.00000
G1 F1800.000
G1 X36.699 Y80.262 E2.00831
G1 X37.096 Y80.171 E2.02182
G1 X37.346 Y80.149 E2.03013
G1 X37.753 Y80.167 E2.04363
G1 X38.000 Y80.212 E2.05194
G1 X38.403 Y80.343 E2.06597
G1 X38.789 Y80.551 E2.08051
G1 X39.133 Y80.825 E2.09506
G1 X39.421 Y81.155 E2.10961
G1 X39.638 Y81.519 E2.12363
G1 X39.737 Y81.749 E2.13194
G1 X39.850 Y82.157 E2.14597
G1 X39.886 Y82.565 E2.15951
G1 X39.879 Y84.816 E2.23408
G1 X39.801 Y85.246 E2.24859
G1 X39.652 Y85.643 E2.26261
G1 X39.533 Y85.864 E2.27092
G1 X39.294 Y86.193 E2.28443
G1 X39.120 Y86.375 E2.29274
G1 X38.789 Y86.639 E2.30677
G1 X38.416 Y86.839 E2.32080
G1 X38.181 Y86.927 E2.32911
G1 X37.784 Y87.018 E2.34261
G1 X37.534 Y87.041 E2.35093
G1 X37.127 Y87.022 E2.36443
G1 X36.880 Y86.978 E2.37274
G1 X36.477 Y86.847 E2.38676
G1 X36.091 Y86.639 E2.40131
G1 X35.747 Y86.365 E2.41586
G1 X35.459 Y86.034 E2.43040
G1 X35.242 Y85.671 E2.44443
G1 X35.143 Y85.440 E2.45274
G1 X35.030 Y85.032 E2.46676
G1 X34.994 Y84.625 E2.48031
G1 X35.001 Y82.374 E2.55488
G1 X35.079 Y81.943 E2.56939
G1 X35.228 Y81.547 E2.58341
G1 X35.347 Y81.326 E2.59172
G1 X35.586 Y80.996 E2.60523
G1 X35.760 Y80.815 E2.61354
G1 X36.091 Y80.551 E2.62756
G1 X36.411 Y80.379 E2.63961
G1 X36.574 Y80.593 F7800.000
G1 F1800.000
G1 X36.775 Y80.517 E2.64673
G1 X37.138 Y80.434 E2.65905
G1 X37.352 Y80.415 E2.66618
G1 X37.723 Y80.432 E2.67849
G1 X37.935 Y80.470 E2.68562
G1 X38.298 Y80.588 E2.69826
G1 X38.642 Y80.773 E2.71122
G1 X38.948 Y81.017 E2.72418
G1 X39.206 Y81.312 E2.73714
G1 X39.401 Y81.640 E2.74978
G1 X39.486 Y81.837 E2.75691
G1 X39.587 Y82.205 E2.76955
G1 X39.621 Y82.576 E2.78189
G1 X39.613 Y84.791 E2.85527
G1 X39.544 Y85.175 E2.86821
G1 X39.410 Y85.533 E2.88085
G1 X39.308 Y85.722 E2.88798
G1 X39.089 Y86.023 E2.90029
G1 X38.941 Y86.178 E2.90742
G1 X38.642 Y86.416 E2.92006
G1 X38.306 Y86.597 E2.93270
G1 X38.105 Y86.672 E2.93983
G1 X37.742 Y86.755 E2.95215
G1 X37.528 Y86.774 E2.95927
G1 X37.157 Y86.758 E2.97159
G1 X36.945 Y86.719 E2.97871
G1 X36.582 Y86.602 E2.99135
G1 X36.238 Y86.416 E3.00432
G1 X35.932 Y86.172 E3.01728
G1 X35.674 Y85.878 E3.03024
G1 X35.479 Y85.550 E3.04288
G1 X35.394 Y85.352 E3.05000
G1 X35.293 Y84.985 E3.06264
G1 X35.259 Y84.613 E3.07499
G1 X35.267 Y82.398 E3.14837
G1 X35.336 Y82.014 E3.16131
G1 X35.470 Y81.657 E3.17394
G1 X35.572 Y81.468 E3.18107
G1 X35.791 Y81.167 E3.19339
G1 X35.939 Y81.011 E3.20051
G1 X36.238 Y80.773 E3.21315
G1 X36.521 Y80.621 E3.22381
G1 X36.684 Y80.835 F7800.000
G1 F1800.000
G1 X36.852 Y80.772 E3.22975
G1 X37.179 Y80.697 E3.24088
G1 X37.358 Y80.681 E3.24682
G1 X37.693 Y80.696 E3.25795
G1 X37.870 Y80.728 E3.26389
G1 X38.193 Y80.833 E3.27514
G1 X38.495 Y80.996 E3.28652
G1 X38.764 Y81.210 E3.29790
G1 X38.990 Y81.469 E3.30928
G1 X39.164 Y81.760 E3.32053
G1 X39.234 Y81.925 E3.32647
G1 X39.325 Y82.253 E3.33773
G1 X39.355 Y82.588 E3.34887
G1 X39.348 Y84.767 E3.42106
G1 X39.287 Y85.104 E3.43243
G1 X39.167 Y85.422 E3.44368
G1 X39.082 Y85.580 E3.44962
G1 X38.885 Y85.852 E3.46075
G1 X38.761 Y85.982 E3.46669
G1 X38.495 Y86.194 E3.47795
G1 X38.196 Y86.355 E3.48921
G1 X38.028 Y86.417 E3.49514
G1 X37.701 Y86.492 E3.50628
G1 X37.522 Y86.508 E3.51221
G1 X37.187 Y86.493 E3.52334
G1 X37.010 Y86.461 E3.52928
G1 X36.687 Y86.356 E3.54054
G1 X36.385 Y86.194 E3.55192
G1 X36.116 Y85.979 E3.56330
G1 X35.890 Y85.721 E3.57467
G1 X35.716 Y85.429 E3.58593
G1 X35.646 Y85.264 E3.59187
G1 X35.555 Y84.937 E3.60312
G1 X35.525 Y84.602 E3.61426
G1 X35.532 Y82.423 E3.68646
G1 X35.593 Y82.085 E3.69783
G1 X35.713 Y81.767 E3.70908
G1 X35.798 Y81.609 E3.71502
G1 X35.995 Y81.337 E3.72615
G1 X36.119 Y81.208 E3.73209
G1 X36.385 Y80.996 E3.74334
G1 X36.631 Y80.863 E3.75261
G1 X36.700 Y80.657 F7800.000
G1 E1.75261 F2400.00000
G92 E0
G1 X71.557 Y71.220 F7800.000
G1 E2.00000 F2400.00000
G1 F1800.000
G1 X71.504 Y70.624 E2.01980
G1 X71.515 Y68.279 E2.09749
G1 X71.624 Y67.679 E2.11769
G1 X71.731 Y67.351 E2.12912
G1 X71.996 Y66.800 E2.14939
G1 X72.356 Y66.305 E2.16965
G1 X72.583 Y66.067 E2.18056
G1 X72.831 Y65.850 E2.19148
G1 X73.342 Y65.514 E2.21174
G1 X73.904 Y65.273 E2.23200
G1 X74.237 Y65.181 E2.24343
G1 X74.843 Y65.099 E2.26369
G1 X75.454 Y65.127 E2.28396
G1 X75.794 Y65.188 E2.29539
G1 X76.375 Y65.377 E2.31565
G1 X76.928 Y65.675 E2.33643
G1 X77.406 Y66.056 E2.35669
G1 X77.644 Y66.305 E2.36813
G1 X78.004 Y66.800 E2.38839
G1 X78.276 Y67.365 E2.40917
G1 X78.443 Y67.970 E2.42996
G1 X78.496 Y68.565 E2.44976
G1 X78.485 Y70.910 E2.52744
G1 X78.376 Y71.510 E2.54765
G1 X78.269 Y71.838 E2.55908
G1 X78.004 Y72.389 E2.57934
G1 X77.644 Y72.884 E2.59960
G1 X77.417 Y73.122 E2.61052
G1 X77.169 Y73.339 E2.62143
G1 X76.671 Y73.667 E2.64117
G1 X76.360 Y73.817 E2.65261
G1 X75.779 Y74.006 E2.67287
G1 X75.157 Y74.090 E2.69365
G1 X74.546 Y74.063 E2.71391
G1 X74.206 Y74.001 E2.72535
G1 X73.625 Y73.812 E2.74561
G1 X73.072 Y73.515 E2.76639
G1 X72.582 Y73.124 E2.78717
G1 X72.180 Y72.663 E2.80743
G1 X71.989 Y72.375 E2.81887
G1 X71.724 Y71.824 E2.83913
G1 X71.573 Y71.277 E2.85792
G1 X71.820 Y71.172 F7800.000
G1 F1800.000
G1 X71.769 Y70.613 E2.87651
G1 X71.781 Y68.304 E2.95301
G1 X71.882 Y67.744 E2.97185
G1 X71.978 Y67.450 E2.98210
G1 X72.225 Y66.937 E3.00098
G1 X72.560 Y66.476 E3.01985
G1 X72.767 Y66.259 E3.02978
G1 X72.993 Y66.062 E3.03971
G1 X73.468 Y65.748 E3.05858
G1 X73.992 Y65.524 E3.07746
G1 X74.290 Y65.442 E3.08771
G1 X74.855 Y65.366 E3.10658
G1 X75.424 Y65.391 E3.12546
G1 X75.729 Y65.446 E3.13570
G1 X76.270 Y65.623 E3.15458
G1 X76.781 Y65.897 E3.17378
G1 X77.226 Y66.252 E3.19266
G1 X77.440 Y66.476 E3.20290
G1 X77.775 Y66.937 E3.22178
G1 X78.026 Y67.459 E3.24098
G1 X78.180 Y68.018 E3.26018
G1 X78.231 Y68.577 E3.27877
G1 X78.219 Y70.886 E3.35527
G1 X78.118 Y71.445 E3.37411
G1 X78.022 Y71.739 E3.38435
G1 X77.775 Y72.253 E3.40323
G1 X77.440 Y72.714 E3.42211
G1 X77.233 Y72.930 E3.43203
G1 X77.007 Y73.127 E3.44196
G1 X76.540 Y73.436 E3.46051
G1 X76.261 Y73.570 E3.47076
G1 X75.719 Y73.746 E3.48964
G1 X75.145 Y73.824 E3.50883
G1 X74.576 Y73.798 E3.52771
G1 X74.271 Y73.743 E3.53796
G1 X73.730 Y73.567 E3.55683
G1 X73.219 Y73.292 E3.57603
G1 X72.766 Y72.931 E3.59523
G1 X72.391 Y72.502 E3.61411
G1 X72.221 Y72.244 E3.62435
G1 X71.974 Y71.731 E3.64323
G1 X71.836 Y71.230 E3.66044
G1 X72.082 Y71.124 F7800.000
G1 F1800.000
G1 X72.035 Y70.602 E3.67782
G1 X72.046 Y68.329 E3.75313
G1 X72.141 Y67.809 E3.77061
G1 X72.225 Y67.549 E3.77967
G1 X72.454 Y67.074 E3.79716
G1 X72.764 Y66.647 E3.81465
G1 X73.154 Y66.274 E3.83251
G1 X73.595 Y65.983 E3.85000
G1 X74.080 Y65.776 E3.86749
G1 X74.344 Y65.703 E3.87655
G1 X74.867 Y65.632 E3.89404
G1 X75.394 Y65.656 E3.91154
G1 X75.663 Y65.705 E3.92060
G1 X76.166 Y65.868 E3.93809
G1 X76.634 Y66.120 E3.95570
G1 X77.047 Y66.449 E3.97319
G1 X77.236 Y66.647 E3.98225
G1 X77.546 Y67.074 E3.99974
G1 X77.777 Y67.553 E4.01736
G1 X77.918 Y68.065 E4.03497
G1 X77.965 Y68.588 E4.05235
G1 X77.954 Y70.861 E4.12767
G1 X77.859 Y71.380 E4.14514
G1 X77.775 Y71.640 E4.15420
G1 X77.546 Y72.116 E4.17170
G1 X77.236 Y72.543 E4.18919
G1 X77.049 Y72.738 E4.19812
G1 X76.846 Y72.916 E4.20706
G1 X76.408 Y73.204 E4.22443
G1 X76.162 Y73.323 E4.23349
G1 X75.660 Y73.486 E4.25098
G1 X75.133 Y73.557 E4.26860
G1 X74.606 Y73.534 E4.28609
G1 X74.337 Y73.485 E4.29515
G1 X73.834 Y73.322 E4.31264
G1 X73.366 Y73.070 E4.33025
G1 X72.951 Y72.738 E4.34787
G1 X72.603 Y72.341 E4.36536
G1 X72.453 Y72.113 E4.37442
G1 X72.223 Y71.637 E4.39191
G1 X72.098 Y71.182 E4.40754
G1 X71.705 Y70.989 F7800.000
G1 E2.40754 F2400.00000
G92 E0
G1 X110.199 Y81.943 F7800.000
G1 E2.00000 F2400.00000
G1 F1800.000
G1 X110.348 Y81.547 E2.01402
G1 X110.467 Y81.326 E2.02233
G1 X110.706 Y80.996 E2.03584
G1 X110.880 Y80.815 E2.04415
G1 X111.211 Y80.551 E2.05818
G1 X111.584 Y80.350 E2.07221
G1 X111.819 Y80.262 E2.08052
G1 X112.216 Y80.171 E2.09402
G1 X112.466 Y80.149 E2.10233
G1 X112.873 Y80.167 E2.11584
G1 X113.120 Y80.212 E2.12415
G1 X113.523 Y80.343 E2.13817
G1 X113.909 Y80.551 E2.15272
G1 X114.253 Y80.825 E2.16727
G1 X114.541 Y81.155 E2.18181
G1 X114.758 Y81.519 E2.19584
G1 X114.857 Y81.749 E2.20415
G1 X114.970 Y82.157 E2.21817
G1 X115.006 Y82.565 E2.23172
G1 X114.999 Y84.816 E2.30629
G1 X114.921 Y85.246 E2.32080
G1 X114.772 Y85.643 E2.33482
G1 X114.653 Y85.864 E2.34313
G1 X114.414 Y86.193 E2.35663
G1 X114.240 Y86.375 E2.36495
G1 X113.909 Y86.639 E2.37897
G1 X113.536 Y86.839 E2.39300
G1 X113.301 Y86.927 E2.40131
G1 X112.904 Y87.018 E2.41482
G1 X112.654 Y87.041 E2.42313
G1 X112.247 Y87.022 E2.43663
G1 X112.000 Y86.978 E2.44495
G1 X111.597 Y86.847 E2.45897
G1 X111.211 Y86.639 E2.47352
G1 X110.867 Y86.365 E2.48806
G1 X110.579 Y86.034 E2.50261
G1 X110.362 Y85.671 E2.51663
G1 X110.263 Y85.440 E2.52495
G1 X110.150 Y85.032 E2.53897
G1 X110.114 Y84.625 E2.55252
G1 X110.121 Y82.374 E2.62709
G1 X110.189 Y82.002 E2.63961
G1 X110.456 Y82.014 F7800.000
G1 F1800.000
G1 X110.590 Y81.657 E2.65224
G1 X110.692 Y81.468 E2.65937
G1 X110.911 Y81.167 E2.67169
G1 X111.059 Y81.011 E2.67881
G1 X111.358 Y80.773 E2.69145
G1 X111.694 Y80.593 E2.70410
G1 X111.895 Y80.517 E2.71122
G1 X112.258 Y80.434 E2.72354
G1 X112.472 Y80.415 E2.73067
G1 X112.843 Y80.432 E2.74298
G1 X113.055 Y80.470 E2.75011
G1 X113.418 Y80.588 E2.76275
G1 X113.762 Y80.773 E2.77571
G1 X114.068 Y81.017 E2.78867
G1 X114.326 Y81.312 E2.80163
G1 X114.521 Y81.640 E2.81427
G1 X114.606 Y81.837 E2.82140
G1 X114.707 Y82.205 E2.83404
G1 X114.741 Y82.576 E2.84638
G1 X114.733 Y84.791 E2.91976
G1 X114.664 Y85.175 E2.93270
G1 X114.530 Y85.533 E2.94534
G1 X114.428 Y85.722 E2.95247
G1 X114.209 Y86.023 E2.96478
G1 X114.061 Y86.178 E2.97191
G1 X113.762 Y86.416 E2.98455
G1 X113.426 Y86.597 E2.99719
G1 X113.225 Y86.672 E3.00432
G1 X112.862 Y86.755 E3.01664
G1 X112.648 Y86.774 E3.02376
G1 X112.277 Y86.758 E3.03608
G1 X112.065 Y86.719 E3.04320
G1 X111.702 Y86.602 E3.05584
G1 X111.358 Y86.416 E3.06881
G1 X111.052 Y86.172 E3.08177
G1 X110.794 Y85.878 E3.09473
G1 X110.599 Y85.550 E3.10737
G1 X110.514 Y85.352 E3.11449
G1 X110.413 Y84.985 E3.12713
G1 X110.379 Y84.613 E3.13948
G1 X110.387 Y82.398 E3.21286
G1 X110.446 Y82.073 E3.22381
G1 X110.713 Y82.085 F7800.000
G1 F1800.000
G1 X110.833 Y81.767 E3.23506
G1 X110.918 Y81.609 E3.24100
G1 X111.115 Y81.337 E3.25213
G1 X111.239 Y81.208 E3.25807
G1 X111.505 Y80.996 E3.26933
G1 X111.804 Y80.835 E3.28058
G1 X111.972 Y80.772 E3.28652
G1 X112.299 Y80.697 E3.29765
G1 X112.478 Y80.681 E3.30359
G1 X112.813 Y80.696 E3.31472
G1 X112.990 Y80.728 E3.32066
G1 X113.313 Y80.833 E3.33192
G1 X113.615 Y80.996 E3.34330
G1 X113.884 Y81.210 E3.35467
G1 X114.110 Y81.469 E3.36605
G1 X114.284 Y81.760 E3.37731
G1 X114.354 Y81.925 E3.38325
G1 X114.445 Y82.253 E3.39450
G1 X114.475 Y82.588 E3.40564
G1 X114.468 Y84.767 E3.47784
G1 X114.407 Y85.104 E3.48921
G1 X114.287 Y85.422 E3.50046
G1 X114.202 Y85.580 E3.50640
G1 X114.005 Y85.852 E3.51753
G1 X113.881 Y85.982 E3.52347
G1 X113.615 Y86.194 E3.53472
G1 X113.316 Y86.355 E3.54598
G1 X113.148 Y86.417 E3.55192
G1 X112.821 Y86.492 E3.56305
G1 X112.642 Y86.508 E3.56899
G1 X112.307 Y86.493 E3.58012
G1 X112.130 Y86.461 E3.58606
G1 X111.807 Y86.356 E3.59731
G1 X111.505 Y86.194 E3.60869
G1 X111.236 Y85.979 E3.62007
G1 X111.010 Y85.721 E3.63145
G1 X110.836 Y85.429 E3.64270
G1 X110.766 Y85.264 E3.64864
G1 X110.675 Y84.937 E3.65989
G1 X110.645 Y84.602 E3.67104
G1 X110.652 Y82.423 E3.74323
G1 X110.703 Y82.144 E3.75261
G1 X110.470 Y81.848 F7800.000
G1 E1.75261 F2400.00000
G92 E0
G1 X106.834 Y91.399 F7800.000
G1 E2.00000 F2400.00000
G1 F1800.000
G1 X106.766 Y92.929 E2.05074
G1 X106.654 Y93.756 E2.07840
G1 X106.468 Y94.570 E2.10606
G1 X106.210 Y95.364 E2.13371
G1 X105.882 Y96.131 E2.16136
G1 X105.486 Y96.866 E2.18902
G1 X105.026 Y97.563 E2.21668
G1 X104.506 Y98.216 E2.24433
G1 X103.929 Y98.819 E2.27199
G1 X103.300 Y99.368 E2.29964
G1 X102.625 Y99.859 E2.32730
G1 X101.908 Y100.287 E2.35495
G1 X101.156 Y100.649 E2.38261
G1 X100.375 Y100.943 E2.41026
G1 X99.570 Y101.165 E2.43792
G1 X98.749 Y101.314 E2.46557
G1 X97.917 Y101.388 E2.49323
G1 X52.083 Y101.388 E4.01171
G1 X51.251 Y101.314 E4.03937
G1 X50.430 Y101.165 E4.06702
G1 X49.625 Y100.943 E4.09468
G1 X48.844 Y100.649 E4.12233
G1 X48.092 Y100.287 E4.14999
G1 X47.375 Y99.859 E4.17764
G1 X46.700 Y99.368 E4.20530
G1 X46.071 Y98.819 E4.23295
G1 X45.494 Y98.216 E4.26061
G1 X44.974 Y97.563 E4.28826
G1 X44.514 Y96.866 E4.31592
G1 X44.118 Y96.131 E4.34357
G1 X43.790 Y95.364 E4.37123
G1 X43.532 Y94.570 E4.39888
G1 X43.346 Y93.756 E4.42654
G1 X43.234 Y92.929 E4.45419
G1 X43.166 Y91.399 E4.50494
G1 X33.076 Y91.399 E4.83920
G1 X33.076 Y48.612 E6.25671
G1 X116.924 Y48.612 E9.03454
G1 X116.924 Y91.399 E10.45205
G1 X106.894 Y91.399 E10.78432
G1 X107.088 Y91.664 F7800.000
G1 F1800.000
G1 X107.030 Y92.953 E10.82705
G1 X106.915 Y93.803 E10.85549
G1 X106.724 Y94.641 E10.88394
G1 X106.459 Y95.457 E10.91238
G1 X106.121 Y96.247 E10.94083
G1 X105.714 Y97.003 E10.96928
G1 X105.241 Y97.719 E10.99772
G1 X104.706 Y98.391 E11.02617
G1 X104.113 Y99.011 E11.05461
G1 X103.466 Y99.576 E11.08306
G1 X102.772 Y100.081 E11.11150
G1 X102.034 Y100.521 E11.13995
G1 X101.261 Y100.894 E11.16839
G1 X100.457 Y101.195 E11.19684
G1 X99.629 Y101.424 E11.22529
G1 X98.784 Y101.577 E11.25373
G1 X97.929 Y101.654 E11.28218
G1 X52.071 Y101.654 E12.80145
G1 X51.216 Y101.577 E12.82990
G1 X50.371 Y101.424 E12.85834
G1 X49.543 Y101.195 E12.88679
G1 X48.739 Y100.894 E12.91524
G1 X47.966 Y100.521 E12.94368
G1 X47.228 Y100.081 E12.97213
G1 X46.534 Y99.576 E13.00057
G1 X45.887 Y99.011 E13.02902
G1 X45.294 Y98.391 E13.05746
G1 X44.759 Y97.719 E13.08591
G1 X44.286 Y97.003 E13.11435
G1 X43.879 Y96.247 E13.14280
G1 X43.541 Y95.457 E13.17125
G1 X43.276 Y94.641 E13.19969
G1 X43.085 Y93.803 E13.22814
G1 X42.970 Y92.953 E13.25658
G1 X42.912 Y91.664 E13.29931
G1 X32.811 Y91.664 E13.63395
G1 X32.811 Y48.346 E15.06907
G1 X117.189 Y48.346 E17.86449
G1 X117.189 Y91.664 E19.29961
G1 X107.148 Y91.664 E19.63226
G1 X107.342 Y91.930 F7800.000
G1 F1800.000
G1 X107.295 Y92.976 E19.66697
G1 X107.177 Y93.851 E19.69621
G1 X106.980 Y94.711 E19.72544
G1 X106.708 Y95.550 E19.75468
G1 X106.361 Y96.362 E19.78391
G1 X105.943 Y97.139 E19.81315
G1 X105.457 Y97.876 E19.84239
G1 X104.906 Y98.566 E19.87162
G1 X104.296 Y99.203 E19.90086
G1 X103.632 Y99.784 E19.93009
G1 X102.918 Y100.303 E19.95933
G1 X102.160 Y100.755 E19.98857
G1 X101.365 Y101.138 E20.01780
G1 X100.539 Y101.448 E20.04704
G1 X99.688 Y101.683 E20.07628
G1 X98.820 Y101.841 E20.10551
G1 X97.941 Y101.920 E20.13475
G1 X52.059 Y101.920 E21.65481
G1 X51.180 Y101.841 E21.68405
G1 X50.312 Y101.683 E21.71328
G1 X49.461 Y101.448 E21.74252
G1 X48.635 Y101.138 E21.77176
G1 X47.840 Y100.755 E21.80099
G1 X47.082 Y100.303 E21.83023
G1 X46.368 Y99.784 E21.85946
G1 X45.704 Y99.203 E21.88870
G1 X45.094 Y98.566 E21.91794
G1 X44.543 Y97.876 E21.94717
G1 X44.057 Y97.139 E21.97641
G1 X43.639 Y96.362 E22.00565
G1 X43.292 Y95.550 E22.03488
G1 X43.020 Y94.711 E22.06412
G1 X42.823 Y93.851 E22.09335
G1 X42.705 Y92.976 E22.12259
G1 X42.658 Y91.930 E22.15730
G1 X32.545 Y91.930 E22.49233
G1 X32.545 Y48.080 E23.94504
G1 X117.455 Y48.080 E26.75807
G1 X117.455 Y91.930 E28.21078
G1 X107.402 Y91.930 E28.54382
G1 X106.977 Y92.092 F7800.000
G1 X106.463 Y91.553 F7800.000
G1 F1800.000
G1 X106.477 Y91.236 E28.55434
G1 X106.780 Y91.236 E28.56437
G1 X111.226 Y86.790 E28.77288
G1 X111.471 Y86.921 E28.78208
G1 X107.156 Y91.236 E28.98442
G1 X107.532 Y91.236 E28.99689
G1 X111.734 Y87.034 E29.19396
G1 X112.018 Y87.126 E29.20385
