; generated by Slic3r 1.3.1-dev (Build 2d100c4) on 2020-10-25 at 11:17:18

; external perimeters extrusion width = 0.44mm (2.86mm^3/s)
; perimeters extrusion width = 0.56mm (4.14mm^3/s)
; infill extrusion width = 0.50mm (3.66mm^3/s)
; solid infill extrusion width = 0.56mm (3.10mm^3/s)
; top infill extrusion width = 0.56mm (3.10mm^3/s)

M107
G92 E0
;D3D:START:START
T0
M104 S215 T0

G21
G90
M107
T0
G28
G29
M109 T0 S215 T0
G0 F3000
M107
T0
G92 E0
G0 X0 Y149 Z0.1 F3600
G1 Y49 E6.5 F1200
G0 Z1
G92 E0
; Filament gcode

G21 ; set units to millimeters
G90 ; use absolute coordinates
M82 ; use absolute distances for extrusion
G92 E0
G1 Z0.300 F7800.000
G1 E-2.00000 F2400.00000
G92 E0
G1 X38.294 Y78.960 F7800.000
G1 E2.00000 F2400.00000
G1 F1800.000
G1 X38.683 Y78.794 E2.01403
G1 X39.096 Y78.700 E2.02805
G1 X39.346 Y78.677 E2.03636
G1 X39.769 Y78.696 E2.05039
G1 X40.197 Y78.794 E2.06494
G1 X40.586 Y78.960 E2.07896
G1 X40.801 Y79.089 E2.08727
G1 X41.132 Y79.353 E2.10130
G1 X41.421 Y79.684 E2.11585
G1 X41.638 Y80.047 E2.12987
G1 X41.737 Y80.278 E2.13818
G1 X41.850 Y80.686 E2.15221
G1 X41.886 Y81.093 E2.16575
G1 X41.879 Y83.344 E2.24032
G1 X41.801 Y83.775 E2.25483
G1 X41.652 Y84.171 E2.26885
G1 X41.533 Y84.392 E2.27716
G1 X41.294 Y84.722 E2.29067
G1 X41.120 Y84.903 E2.29898
G1 X40.789 Y85.167 E2.31301
G1 X40.416 Y85.368 E2.32704
G1 X40.181 Y85.456 E2.33535
G1 X39.784 Y85.547 E2.34885
G1 X39.534 Y85.569 E2.35716
G1 X39.127 Y85.551 E2.37067
G1 X38.880 Y85.506 E2.37898
G1 X38.477 Y85.375 E2.39300
G1 X38.091 Y85.167 E2.40755
G1 X37.747 Y84.893 E2.42210
G1 X37.459 Y84.563 E2.43664
G1 X37.242 Y84.199 E2.45067
G1 X37.143 Y83.969 E2.45898
G1 X37.030 Y83.561 E2.47300
G1 X36.994 Y83.153 E2.48655
G1 X37.001 Y80.902 E2.56112
G1 X37.079 Y80.472 E2.57563
G1 X37.228 Y80.075 E2.58965
G1 X37.347 Y79.854 E2.59796
G1 X37.586 Y79.525 E2.61146
G1 X37.760 Y79.343 E2.61978
G1 X38.079 Y79.089 E2.63328
G1 X38.242 Y78.991 E2.63961
G1 X38.415 Y79.198 F7800.000
G1 F1800.000
G1 X38.766 Y79.048 E2.65225
G1 X39.138 Y78.963 E2.66489
G1 X39.352 Y78.944 E2.67201
G1 X39.733 Y78.961 E2.68465
G1 X40.114 Y79.048 E2.69762
G1 X40.465 Y79.198 E2.71026
G1 X40.650 Y79.308 E2.71738
G1 X40.948 Y79.546 E2.73002
G1 X41.206 Y79.841 E2.74298
G1 X41.401 Y80.168 E2.75562
G1 X41.486 Y80.366 E2.76275
G1 X41.587 Y80.734 E2.77539
G1 X41.621 Y81.105 E2.78773
G1 X41.613 Y83.320 E2.86111
G1 X41.544 Y83.704 E2.87405
G1 X41.410 Y84.061 E2.88669
G1 X41.308 Y84.250 E2.89382
G1 X41.089 Y84.551 E2.90613
G1 X40.941 Y84.707 E2.91326
G1 X40.642 Y84.945 E2.92590
G1 X40.306 Y85.125 E2.93854
G1 X40.105 Y85.201 E2.94567
G1 X39.742 Y85.284 E2.95799
G1 X39.528 Y85.303 E2.96511
G1 X39.157 Y85.286 E2.97743
G1 X38.945 Y85.248 E2.98455
G1 X38.582 Y85.130 E2.99719
G1 X38.238 Y84.945 E3.01016
G1 X37.932 Y84.701 E3.02312
G1 X37.674 Y84.406 E3.03608
G1 X37.479 Y84.078 E3.04872
G1 X37.394 Y83.881 E3.05584
G1 X37.293 Y83.513 E3.06848
G1 X37.259 Y83.142 E3.08083
G1 X37.267 Y80.927 E3.15421
G1 X37.336 Y80.543 E3.16715
G1 X37.470 Y80.186 E3.17978
G1 X37.572 Y79.996 E3.18691
G1 X37.791 Y79.695 E3.19923
G1 X37.939 Y79.540 E3.20635
G1 X38.230 Y79.308 E3.21867
G1 X38.363 Y79.228 E3.22381
G1 X38.536 Y79.435 F7800.000
G1 F1800.000
G1 X38.848 Y79.301 E3.23507
G1 X39.179 Y79.226 E3.24632
G1 X39.358 Y79.210 E3.25226
G1 X39.697 Y79.225 E3.26351
G1 X40.032 Y79.301 E3.27489
G1 X40.344 Y79.435 E3.28615
G1 X40.498 Y79.527 E3.29209
G1 X40.764 Y79.739 E3.30334
G1 X40.990 Y79.997 E3.31472
G1 X41.164 Y80.289 E3.32597
G1 X41.234 Y80.454 E3.33191
G1 X41.325 Y80.781 E3.34317
G1 X41.355 Y81.116 E3.35431
G1 X41.348 Y83.295 E3.42650
G1 X41.287 Y83.633 E3.43787
G1 X41.167 Y83.951 E3.44913
G1 X41.082 Y84.109 E3.45507
G1 X40.885 Y84.381 E3.46620
G1 X40.761 Y84.510 E3.47213
G1 X40.495 Y84.722 E3.48339
G1 X40.196 Y84.883 E3.49465
G1 X40.028 Y84.946 E3.50058
G1 X39.701 Y85.021 E3.51172
G1 X39.522 Y85.037 E3.51766
G1 X39.187 Y85.022 E3.52879
G1 X39.010 Y84.990 E3.53473
G1 X38.687 Y84.885 E3.54598
G1 X38.385 Y84.722 E3.55736
G1 X38.116 Y84.508 E3.56874
G1 X37.890 Y84.249 E3.58012
G1 X37.716 Y83.958 E3.59137
G1 X37.646 Y83.793 E3.59731
G1 X37.555 Y83.465 E3.60856
G1 X37.525 Y83.130 E3.61970
G1 X37.532 Y80.951 E3.69190
G1 X37.593 Y80.614 E3.70327
G1 X37.713 Y80.296 E3.71452
G1 X37.798 Y80.138 E3.72046
G1 X37.995 Y79.866 E3.73159
G1 X38.119 Y79.736 E3.73753
G1 X38.484 Y79.466 E3.75259
G1 E1.75259 F2400.00000
G92 E0
G1 X71.557 Y71.748 F7800.000
G1 E2.00000 F2400.00000
G1 F1800.000
G1 X71.504 Y71.153 E2.01980
G1 X71.515 Y68.808 E2.09749
G1 X71.624 Y68.208 E2.11769
G1 X71.731 Y67.880 E2.12912
G1 X71.996 Y67.329 E2.14939
G1 X72.356 Y66.834 E2.16965
G1 X72.583 Y66.596 E2.18056
G1 X72.831 Y66.379 E2.19148
G1 X73.342 Y66.042 E2.21174
G1 X73.904 Y65.802 E2.23200
G1 X74.237 Y65.710 E2.24343
G1 X74.843 Y65.628 E2.26369
G1 X75.454 Y65.655 E2.28396
G1 X75.794 Y65.717 E2.29539
G1 X76.375 Y65.906 E2.31565
G1 X76.928 Y66.203 E2.33643
G1 X77.406 Y66.584 E2.35669
G1 X77.644 Y66.834 E2.36813
G1 X78.004 Y67.329 E2.38839
G1 X78.276 Y67.894 E2.40917
G1 X78.443 Y68.498 E2.42996
G1 X78.496 Y69.094 E2.44976
G1 X78.485 Y71.439 E2.52744
G1 X78.376 Y72.039 E2.54765
G1 X78.269 Y72.367 E2.55908
G1 X78.004 Y72.918 E2.57934
G1 X77.644 Y73.413 E2.59960
G1 X77.417 Y73.651 E2.61052
G1 X77.169 Y73.868 E2.62143
G1 X76.671 Y74.196 E2.64117
G1 X76.360 Y74.346 E2.65261
G1 X75.779 Y74.535 E2.67287
G1 X75.157 Y74.619 E2.69365
G1 X74.546 Y74.591 E2.71391
G1 X74.206 Y74.530 E2.72535
G1 X73.625 Y74.341 E2.74561
G1 X73.072 Y74.043 E2.76639
G1 X72.582 Y73.652 E2.78717
G1 X72.180 Y73.192 E2.80743
G1 X71.989 Y72.904 E2.81887
G1 X71.724 Y72.353 E2.83913
G1 X71.573 Y71.806 E2.85792
G1 X71.820 Y71.700 F7800.000
G1 F1800.000
G1 X71.769 Y71.142 E2.87651
G1 X71.781 Y68.832 E2.95301
G1 X71.882 Y68.273 E2.97185
G1 X71.978 Y67.979 E2.98210
G1 X72.225 Y67.465 E3.00098
G1 X72.560 Y67.004 E3.01985
G1 X72.767 Y66.788 E3.02978
G1 X72.993 Y66.591 E3.03971
G1 X73.468 Y66.277 E3.05858
G1 X73.992 Y66.053 E3.07746
G1 X74.290 Y65.971 E3.08771
G1 X74.855 Y65.894 E3.10658
G1 X75.424 Y65.920 E3.12546
G1 X75.729 Y65.975 E3.13570
G1 X76.270 Y66.151 E3.15458
G1 X76.781 Y66.426 E3.17378
G1 X77.226 Y66.781 E3.19266
G1 X77.440 Y67.004 E3.20290
G1 X77.775 Y67.465 E3.22178
G1 X78.026 Y67.987 E3.24098
G1 X78.180 Y68.546 E3.26018
G1 X78.231 Y69.105 E3.27877
G1 X78.219 Y71.414 E3.35527
G1 X78.118 Y71.974 E3.37411
G1 X78.022 Y72.268 E3.38435
G1 X77.775 Y72.781 E3.40323
G1 X77.440 Y73.242 E3.42211
G1 X77.233 Y73.459 E3.43203
G1 X77.007 Y73.656 E3.44196
G1 X76.540 Y73.964 E3.46051
G1 X76.261 Y74.099 E3.47076
G1 X75.719 Y74.275 E3.48964
G1 X75.145 Y74.352 E3.50883
G1 X74.576 Y74.327 E3.52771
G1 X74.271 Y74.272 E3.53796
G1 X73.730 Y74.095 E3.55683
G1 X73.219 Y73.821 E3.57603
G1 X72.766 Y73.460 E3.59523
G1 X72.391 Y73.031 E3.61411
G1 X72.221 Y72.772 E3.62435
G1 X71.974 Y72.259 E3.64323
G1 X71.836 Y71.758 E3.66044
G1 X72.082 Y71.653 F7800.000
G1 F1800.000
G1 X72.035 Y71.130 E3.67782
G1 X72.046 Y68.857 E3.75313
G1 X72.141 Y68.338 E3.77061
G1 X72.225 Y68.078 E3.77967
G1 X72.454 Y67.602 E3.79716
G1 X72.764 Y67.175 E3.81465
G1 X73.154 Y66.803 E3.83251
G1 X73.595 Y66.512 E3.85000
G1 X74.080 Y66.304 E3.86749
G1 X74.344 Y66.231 E3.87655
G1 X74.867 Y66.161 E3.89404
G1 X75.394 Y66.184 E3.91154
G1 X75.663 Y66.233 E3.92060
G1 X76.166 Y66.396 E3.93809
G1 X76.634 Y66.648 E3.95570
G1 X77.047 Y66.977 E3.97319
G1 X77.236 Y67.175 E3.98225
G1 X77.546 Y67.602 E3.99974
G1 X77.777 Y68.081 E4.01736
G1 X77.918 Y68.594 E4.03497
G1 X77.965 Y69.116 E4.05235
G1 X77.954 Y71.389 E4.12767
G1 X77.859 Y71.909 E4.14514
G1 X77.775 Y72.169 E4.15420
G1 X77.546 Y72.644 E4.17170
G1 X77.236 Y73.071 E4.18919
G1 X77.049 Y73.266 E4.19812
G1 X76.846 Y73.444 E4.20706
G1 X76.408 Y73.733 E4.22443
G1 X76.162 Y73.851 E4.23349
G1 X75.660 Y74.015 E4.25098
G1 X75.133 Y74.086 E4.26860
G1 X74.606 Y74.062 E4.28609
G1 X74.337 Y74.013 E4.29515
G1 X73.834 Y73.850 E4.31264
G1 X73.366 Y73.598 E4.33025
G1 X72.951 Y73.267 E4.34787
G1 X72.603 Y72.869 E4.36536
G1 X72.453 Y72.641 E4.37442
G1 X72.223 Y72.165 E4.39191
G1 X72.098 Y71.711 E4.40754
G1 E2.40754 F2400.00000
G92 E0
G1 X108.199 Y80.472 F7800.000
G1 E2.00000 F2400.00000
G1 F1800.000
G1 X108.348 Y80.075 E2.01402
G1 X108.467 Y79.854 E2.02233
G1 X108.706 Y79.525 E2.03584
G1 X108.880 Y79.343 E2.04415
G1 X109.199 Y79.089 E2.05766
G1 X109.414 Y78.960 E2.06597
G1 X109.803 Y78.794 E2.07999
G1 X110.216 Y78.700 E2.09402
G1 X110.466 Y78.677 E2.10233
G1 X110.889 Y78.696 E2.11636
G1 X111.317 Y78.794 E2.13090
G1 X111.706 Y78.960 E2.14493
G1 X111.921 Y79.089 E2.15324
G1 X112.253 Y79.353 E2.16727
G1 X112.541 Y79.684 E2.18181
G1 X112.758 Y80.047 E2.19584
G1 X112.857 Y80.278 E2.20415
G1 X112.970 Y80.686 E2.21817
G1 X113.006 Y81.093 E2.23172
G1 X112.999 Y83.344 E2.30629
G1 X112.921 Y83.775 E2.32080
G1 X112.772 Y84.171 E2.33482
G1 X112.653 Y84.392 E2.34313
G1 X112.414 Y84.722 E2.35663
G1 X112.240 Y84.903 E2.36495
G1 X111.909 Y85.167 E2.37897
G1 X111.536 Y85.368 E2.39300
G1 X111.301 Y85.456 E2.40131
G1 X110.904 Y85.547 E2.41482
G1 X110.654 Y85.569 E2.42313
G1 X110.247 Y85.551 E2.43663
G1 X110.000 Y85.506 E2.44495
G1 X109.597 Y85.375 E2.45897
G1 X109.211 Y85.167 E2.47352
G1 X108.867 Y84.893 E2.48806
G1 X108.579 Y84.563 E2.50261
G1 X108.362 Y84.199 E2.51663
G1 X108.263 Y83.969 E2.52495
G1 X108.150 Y83.561 E2.53897
G1 X108.114 Y83.153 E2.55252
G1 X108.121 Y80.902 E2.62709
G1 X108.189 Y80.531 E2.63961
G1 X108.456 Y80.543 F7800.000
G1 F1800.000
G1 X108.590 Y80.185 E2.65224
G1 X108.692 Y79.996 E2.65937
G1 X108.911 Y79.695 E2.67169
G1 X109.059 Y79.540 E2.67881
G1 X109.350 Y79.308 E2.69113
G1 X109.535 Y79.198 E2.69826
G1 X109.886 Y79.048 E2.71090
G1 X110.258 Y78.963 E2.72354
G1 X110.472 Y78.944 E2.73066
G1 X110.853 Y78.961 E2.74330
G1 X111.234 Y79.048 E2.75627
G1 X111.585 Y79.198 E2.76891
G1 X111.770 Y79.308 E2.77603
G1 X112.068 Y79.546 E2.78867
G1 X112.326 Y79.841 E2.80163
G1 X112.521 Y80.168 E2.81427
G1 X112.606 Y80.366 E2.82140
G1 X112.707 Y80.734 E2.83404
G1 X112.741 Y81.105 E2.84638
G1 X112.733 Y83.320 E2.91976
G1 X112.664 Y83.704 E2.93270
G1 X112.530 Y84.061 E2.94534
G1 X112.428 Y84.250 E2.95247
G1 X112.209 Y84.551 E2.96478
G1 X112.061 Y84.707 E2.97191
G1 X111.762 Y84.945 E2.98455
G1 X111.426 Y85.125 E2.99719
G1 X111.225 Y85.201 E3.00432
G1 X110.862 Y85.284 E3.01664
G1 X110.648 Y85.303 E3.02376
G1 X110.277 Y85.286 E3.03608
G1 X110.065 Y85.248 E3.04320
G1 X109.702 Y85.130 E3.05584
G1 X109.358 Y84.945 E3.06881
G1 X109.052 Y84.701 E3.08177
G1 X108.794 Y84.406 E3.09473
G1 X108.599 Y84.078 E3.10737
G1 X108.514 Y83.881 E3.11449
G1 X108.413 Y83.513 E3.12713
G1 X108.379 Y83.142 E3.13948
G1 X108.387 Y80.927 E3.21286
G1 X108.446 Y80.602 E3.22381
G1 X108.713 Y80.614 F7800.000
G1 F1800.000
G1 X108.833 Y80.296 E3.23506
G1 X108.918 Y80.138 E3.24100
G1 X109.115 Y79.866 E3.25213
G1 X109.239 Y79.736 E3.25807
G1 X109.502 Y79.527 E3.26920
G1 X109.656 Y79.435 E3.27514
G1 X109.968 Y79.301 E3.28640
G1 X110.299 Y79.226 E3.29765
G1 X110.478 Y79.210 E3.30359
G1 X110.817 Y79.225 E3.31485
G1 X111.152 Y79.301 E3.32623
G1 X111.464 Y79.435 E3.33748
G1 X111.618 Y79.527 E3.34342
G1 X111.884 Y79.739 E3.35467
G1 X112.110 Y79.997 E3.36605
G1 X112.284 Y80.289 E3.37731
G1 X112.354 Y80.454 E3.38325
G1 X112.445 Y80.781 E3.39450
G1 X112.475 Y81.116 E3.40564
G1 X112.468 Y83.295 E3.47784
G1 X112.407 Y83.633 E3.48921
G1 X112.287 Y83.951 E3.50046
G1 X112.202 Y84.109 E3.50640
G1 X112.005 Y84.381 E3.51753
G1 X111.881 Y84.510 E3.52347
G1 X111.615 Y84.722 E3.53472
G1 X111.316 Y84.883 E3.54598
G1 X111.148 Y84.946 E3.55192
G1 X110.821 Y85.021 E3.56305
G1 X110.642 Y85.037 E3.56899
G1 X110.307 Y85.022 E3.58012
G1 X110.130 Y84.990 E3.58606
G1 X109.807 Y84.885 E3.59731
G1 X109.505 Y84.722 E3.60869
G1 X109.236 Y84.508 E3.62007
G1 X109.010 Y84.249 E3.63145
G1 X108.836 Y83.958 E3.64270
G1 X108.766 Y83.793 E3.64864
G1 X108.675 Y83.465 E3.65989
G1 X108.645 Y83.130 E3.67104
G1 X108.652 Y80.951 E3.74323
G1 X108.703 Y80.673 E3.75261
G1 E1.75261 F2400.00000
G92 E0
G1 X104.834 Y89.927 F7800.000
G1 E2.00000 F2400.00000
G1 F1800.000
G1 X104.766 Y91.457 E2.05074
G1 X104.654 Y92.284 E2.07840
G1 X104.468 Y93.098 E2.10606
G1 X104.210 Y93.892 E2.13371
G1 X103.882 Y94.660 E2.16136
G1 X103.486 Y95.395 E2.18902
G1 X103.026 Y96.091 E2.21668
G1 X102.506 Y96.744 E2.24433
G1 X101.929 Y97.347 E2.27199
G1 X101.300 Y97.897 E2.29964
G1 X100.625 Y98.387 E2.32730
G1 X99.908 Y98.816 E2.35495
G1 X99.156 Y99.178 E2.38261
G1 X98.375 Y99.471 E2.41026
G1 X97.570 Y99.693 E2.43792
G1 X96.749 Y99.842 E2.46557
G1 X95.917 Y99.917 E2.49323
G1 X54.083 Y99.917 E3.87919
G1 X53.251 Y99.842 E3.90685
G1 X52.430 Y99.693 E3.93450
G1 X51.625 Y99.471 E3.96216
G1 X50.844 Y99.178 E3.98982
G1 X50.092 Y98.816 E4.01747
G1 X49.375 Y98.387 E4.04513
G1 X48.700 Y97.897 E4.07278
G1 X48.071 Y97.347 E4.10044
G1 X47.494 Y96.744 E4.12809
G1 X46.974 Y96.091 E4.15575
G1 X46.514 Y95.395 E4.18340
G1 X46.118 Y94.660 E4.21106
G1 X45.790 Y93.892 E4.23871
G1 X45.532 Y93.098 E4.26637
G1 X45.346 Y92.284 E4.29402
G1 X45.234 Y91.457 E4.32168
G1 X45.166 Y89.927 E4.37242
G1 X35.076 Y89.927 E4.70668
G1 X35.076 Y50.083 E6.02669
G1 X114.924 Y50.083 E8.67200
G1 X114.924 Y89.927 E9.99201
G1 X104.894 Y89.927 E10.32428
G1 X105.088 Y90.193 F7800.000
G1 F1800.000
G1 X105.030 Y91.481 E10.36701
G1 X104.915 Y92.332 E10.39545
G1 X104.724 Y93.169 E10.42390
G1 X104.459 Y93.985 E10.45234
G1 X104.121 Y94.775 E10.48079
G1 X103.714 Y95.531 E10.50923
G1 X103.241 Y96.248 E10.53768
G1 X102.706 Y96.919 E10.56612
G1 X102.113 Y97.540 E10.59457
G1 X101.466 Y98.105 E10.62302
G1 X100.772 Y98.609 E10.65146
G1 X100.034 Y99.050 E10.67991
G1 X99.261 Y99.422 E10.70835
G1 X98.457 Y99.724 E10.73680
G1 X97.629 Y99.952 E10.76524
G1 X96.784 Y100.106 E10.79369
G1 X95.929 Y100.183 E10.82214
G1 X54.071 Y100.183 E12.20889
G1 X53.216 Y100.106 E12.23734
G1 X52.371 Y99.952 E12.26578
G1 X51.543 Y99.724 E12.29423
G1 X50.739 Y99.422 E12.32267
G1 X49.966 Y99.050 E12.35112
G1 X49.228 Y98.609 E12.37957
G1 X48.534 Y98.105 E12.40801
G1 X47.887 Y97.540 E12.43646
G1 X47.294 Y96.919 E12.46490
G1 X46.759 Y96.248 E12.49335
G1 X46.286 Y95.531 E12.52179
G1 X45.879 Y94.775 E12.55024
G1 X45.541 Y93.985 E12.57868
G1 X45.276 Y93.169 E12.60713
G1 X45.085 Y92.332 E12.63557
G1 X44.970 Y91.481 E12.66402
G1 X44.912 Y90.193 E12.70675
G1 X34.811 Y90.193 E13.04139
G1 X34.811 Y49.817 E14.37900
G1 X115.189 Y49.817 E17.04191
G1 X115.189 Y90.193 E18.37952
G1 X105.148 Y90.193 E18.71218
G1 X105.342 Y90.458 F7800.000
G1 F1800.000
G1 X105.295 Y91.505 E18.74688
G1 X105.177 Y92.379 E18.77612
G1 X104.980 Y93.240 E18.80536
G1 X104.708 Y94.079 E18.83459
G1 X104.361 Y94.890 E18.86383
G1 X103.943 Y95.668 E18.89306
G1 X103.457 Y96.404 E18.92230
G1 X102.906 Y97.094 E18.95154
G1 X102.296 Y97.732 E18.98077
G1 X101.632 Y98.312 E19.01001
G1 X100.918 Y98.831 E19.03924
G1 X100.160 Y99.284 E19.06848
G1 X99.365 Y99.667 E19.09772
G1 X98.539 Y99.977 E19.12695
G1 X97.688 Y100.212 E19.15619
G1 X96.820 Y100.369 E19.18543
G1 X95.941 Y100.448 E19.21466
G1 X54.059 Y100.448 E20.60221
G1 X53.180 Y100.369 E20.63144
G1 X52.312 Y100.212 E20.66068
G1 X51.461 Y99.977 E20.68992
G1 X50.635 Y99.667 E20.71915
G1 X49.840 Y99.284 E20.74839
G1 X49.082 Y98.831 E20.77762
G1 X48.368 Y98.312 E20.80686
G1 X47.704 Y97.732 E20.83610
G1 X47.094 Y97.094 E20.86533
G1 X46.543 Y96.404 E20.89457
G1 X46.057 Y95.668 E20.92380
G1 X45.639 Y94.890 E20.95304
G1 X45.292 Y94.079 E20.98228
G1 X45.020 Y93.240 E21.01151
G1 X44.823 Y92.379 E21.04075
G1 X44.705 Y91.505 E21.06998
G1 X44.658 Y90.458 E21.10469
G1 X34.545 Y90.458 E21.43972
G1 X34.545 Y49.552 E22.79493
G1 X115.455 Y49.552 E25.47544
G1 X115.455 Y90.458 E26.83065
G1 X105.402 Y90.458 E27.16369
G1 X104.464 Y90.064 F7800.000
G1 F1800.000
G1 X104.477 Y89.765 E27.17365
G1 X104.763 Y89.765 E27.18315
G1 X109.215 Y85.312 E27.39228
G1 X109.460 Y85.444 E27.40152
G1 X105.140 Y89.765 E27.60446
G1 X105.516 Y89.765 E27.61697
G1 X109.723 Y85.558 E27.81455
G1 X110.007 Y85.651 E27.82448
G1 X105.893 Y89.765 E28.01772
G1 X106.270 Y89.765 E28.03023
G1 X110.322 Y85.712 E28.22058
G1 X110.683 Y85.728 E28.23256
G1 X106.646 Y89.765 E28.42216
G1 X107.023 Y89.765 E28.43467
