; generated by Slic3r 1.3.1-dev (Build (Unknown revision)) on 2020-04-21 at 15:04:39

; external perimeters extrusion width = 0.44mm (2.86mm^3/s)
; perimeters extrusion width = 0.56mm (4.14mm^3/s)
; infill extrusion width = 0.50mm (3.66mm^3/s)
; solid infill extrusion width = 0.56mm (3.10mm^3/s)
; top infill extrusion width = 0.56mm (3.10mm^3/s)

M107
G92 E0
;D3D:START:START
T0
M104 S215 T0

G21
G90
M107
T0
G28
G29
M109 T0 S215 T0
G0 F3000
M107
T0
G92 E0
G0 X0 Y149 Z0.1 F3600
G1 Y49 E6.5 F1200
G0 Z1
G92 E0
; Filament gcode

G21 ; set units to millimeters
G90 ; use absolute coordinates
M82 ; use absolute distances for extrusion
G92 E0
G1 Z0.300 F7800.000
G1 E-2.00000 F2400.00000
G92 E0
G1 X85.028 Y72.403 F7800.000
G1 E2.00000 F2400.00000
G1 F1800.000
G1 X85.272 Y72.147 E2.01174
G1 X85.539 Y71.914 E2.02347
G1 X85.826 Y71.706 E2.03520
G1 X86.130 Y71.524 E2.04694
G1 X86.449 Y71.371 E2.05867
G1 X86.780 Y71.246 E2.07040
G1 X87.122 Y71.152 E2.08214
G1 X87.470 Y71.089 E2.09387
G1 X87.823 Y71.057 E2.10560
G1 X88.177 Y71.057 E2.11733
G1 X88.530 Y71.089 E2.12907
G1 X88.878 Y71.152 E2.14080
G1 X89.220 Y71.246 E2.15253
G1 X89.551 Y71.371 E2.16426
G1 X89.870 Y71.524 E2.17600
G1 X90.174 Y71.706 E2.18773
G1 X90.461 Y71.914 E2.19946
G1 X90.728 Y72.147 E2.21120
G1 X90.972 Y72.403 E2.22293
G1 X91.193 Y72.680 E2.23466
G1 X91.388 Y72.976 E2.24640
G1 X91.556 Y73.287 E2.25813
G1 X91.695 Y73.613 E2.26986
G1 X91.805 Y73.950 E2.28160
G1 X91.884 Y74.295 E2.29333
G1 X91.931 Y74.646 E2.30507
G1 X91.947 Y75.000 E2.31680
G1 X91.931 Y75.354 E2.32853
G1 X91.884 Y75.705 E2.34026
G1 X91.805 Y76.050 E2.35200
G1 X91.695 Y76.387 E2.36373
G1 X91.556 Y76.712 E2.37546
G1 X91.388 Y77.024 E2.38719
G1 X91.193 Y77.320 E2.39893
G1 X90.972 Y77.597 E2.41066
G1 X90.728 Y77.853 E2.42240
G1 X90.461 Y78.086 E2.43413
G1 X90.174 Y78.294 E2.44586
G1 X89.870 Y78.476 E2.45759
G1 X89.551 Y78.629 E2.46933
G1 X89.220 Y78.754 E2.48106
G1 X88.878 Y78.848 E2.49279
G1 X88.530 Y78.911 E2.50452
G1 X88.177 Y78.943 E2.51626
G1 X87.823 Y78.943 E2.52799
G1 X87.470 Y78.911 E2.53973
G1 X87.122 Y78.848 E2.55146
G1 X86.780 Y78.754 E2.56319
G1 X86.449 Y78.629 E2.57492
G1 X86.130 Y78.476 E2.58666
G1 X85.826 Y78.294 E2.59839
G1 X85.539 Y78.086 E2.61012
G1 X85.272 Y77.853 E2.62185
G1 X85.028 Y77.597 E2.63359
G1 X84.807 Y77.320 E2.64532
G1 X84.612 Y77.024 E2.65706
G1 X84.444 Y76.712 E2.66879
G1 X84.305 Y76.387 E2.68052
G1 X84.195 Y76.050 E2.69225
G1 X84.116 Y75.705 E2.70399
G1 X84.069 Y75.354 E2.71572
G1 X84.053 Y75.000 E2.72745
G1 X84.069 Y74.646 E2.73919
G1 X84.116 Y74.295 E2.75092
G1 X84.195 Y73.950 E2.76265
G1 X84.305 Y73.613 E2.77439
G1 X84.444 Y73.288 E2.78612
G1 X84.612 Y72.976 E2.79785
G1 X84.807 Y72.680 E2.80958
G1 X84.990 Y72.450 E2.81933
G1 X85.228 Y72.578 F7800.000
G1 F1800.000
G1 X85.456 Y72.339 E2.83027
G1 X85.705 Y72.122 E2.84122
G1 X85.972 Y71.928 E2.85216
G1 X86.256 Y71.758 E2.86310
G1 X86.553 Y71.615 E2.87404
G1 X86.863 Y71.499 E2.88499
G1 X87.181 Y71.411 E2.89593
G1 X87.506 Y71.352 E2.90687
G1 X87.835 Y71.323 E2.91781
G1 X88.165 Y71.323 E2.92875
G1 X88.494 Y71.352 E2.93970
G1 X88.819 Y71.411 E2.95064
G1 X89.137 Y71.499 E2.96158
G1 X89.447 Y71.615 E2.97253
G1 X89.744 Y71.758 E2.98347
G1 X90.028 Y71.928 E2.99441
G1 X90.295 Y72.122 E3.00535
G1 X90.544 Y72.339 E3.01630
G1 X90.772 Y72.578 E3.02724
G1 X90.978 Y72.836 E3.03818
G1 X91.160 Y73.112 E3.04913
G1 X91.316 Y73.403 E3.06007
G1 X91.446 Y73.706 E3.07101
G1 X91.548 Y74.021 E3.08196
G1 X91.622 Y74.343 E3.09290
G1 X91.666 Y74.670 E3.10384
G1 X91.681 Y75.000 E3.11478
G1 X91.666 Y75.330 E3.12572
G1 X91.622 Y75.657 E3.13667
G1 X91.548 Y75.979 E3.14761
G1 X91.446 Y76.293 E3.15855
G1 X91.316 Y76.597 E3.16950
G1 X91.160 Y76.888 E3.18044
G1 X90.978 Y77.164 E3.19138
G1 X90.772 Y77.422 E3.20232
G1 X90.544 Y77.661 E3.21327
G1 X90.295 Y77.878 E3.22421
G1 X90.028 Y78.072 E3.23515
G1 X89.744 Y78.241 E3.24609
G1 X89.447 Y78.385 E3.25704
G1 X89.138 Y78.501 E3.26798
G1 X88.819 Y78.589 E3.27892
G1 X88.494 Y78.648 E3.28986
G1 X88.165 Y78.677 E3.30081
G1 X87.835 Y78.677 E3.31175
G1 X87.506 Y78.648 E3.32269
G1 X87.181 Y78.589 E3.33364
G1 X86.862 Y78.501 E3.34458
G1 X86.553 Y78.385 E3.35552
G1 X86.256 Y78.241 E3.36646
G1 X85.972 Y78.072 E3.37741
G1 X85.705 Y77.878 E3.38834
G1 X85.456 Y77.661 E3.39929
G1 X85.228 Y77.422 E3.41023
G1 X85.022 Y77.164 E3.42118
G1 X84.840 Y76.888 E3.43212
G1 X84.684 Y76.597 E3.44306
G1 X84.554 Y76.293 E3.45400
G1 X84.452 Y75.979 E3.46495
G1 X84.378 Y75.657 E3.47589
G1 X84.334 Y75.330 E3.48683
G1 X84.319 Y75.000 E3.49777
G1 X84.334 Y74.670 E3.50872
G1 X84.378 Y74.343 E3.51966
G1 X84.452 Y74.021 E3.53060
G1 X84.554 Y73.706 E3.54155
G1 X84.684 Y73.403 E3.55249
G1 X84.840 Y73.112 E3.56343
G1 X85.022 Y72.836 E3.57437
G1 X85.190 Y72.625 E3.58333
G1 X85.428 Y72.753 F7800.000
G1 F1800.000
G1 X85.640 Y72.532 E3.59348
G1 X85.871 Y72.330 E3.60363
G1 X86.119 Y72.150 E3.61378
G1 X86.382 Y71.993 E3.62394
G1 X86.658 Y71.860 E3.63409
G1 X86.945 Y71.752 E3.64424
G1 X87.240 Y71.670 E3.65439
G1 X87.542 Y71.616 E3.66454
G1 X87.847 Y71.588 E3.67470
G1 X88.153 Y71.588 E3.68485
G1 X88.458 Y71.616 E3.69500
G1 X88.760 Y71.670 E3.70515
G1 X89.055 Y71.752 E3.71531
G1 X89.342 Y71.860 E3.72546
G1 X89.618 Y71.993 E3.73561
G1 X89.881 Y72.150 E3.74576
G1 X90.129 Y72.330 E3.75591
G1 X90.360 Y72.532 E3.76607
G1 X90.572 Y72.753 E3.77622
G1 X90.763 Y72.993 E3.78637
G1 X90.932 Y73.248 E3.79653
G1 X91.077 Y73.518 E3.80668
G1 X91.197 Y73.800 E3.81683
G1 X91.292 Y74.091 E3.82698
G1 X91.360 Y74.390 E3.83714
G1 X91.401 Y74.694 E3.84729
G1 X91.415 Y75.000 E3.85744
G1 X91.401 Y75.306 E3.86759
G1 X91.360 Y75.610 E3.87774
G1 X91.292 Y75.909 E3.88790
G1 X91.197 Y76.200 E3.89805
G1 X91.077 Y76.482 E3.90820
G1 X90.932 Y76.752 E3.91835
G1 X90.763 Y77.007 E3.92851
G1 X90.572 Y77.247 E3.93866
G1 X90.360 Y77.468 E3.94881
G1 X90.129 Y77.670 E3.95896
G1 X89.881 Y77.850 E3.96911
G1 X89.618 Y78.007 E3.97927
G1 X89.342 Y78.140 E3.98942
G1 X89.055 Y78.248 E3.99957
G1 X88.760 Y78.330 E4.00972
G1 X88.458 Y78.384 E4.01987
G1 X88.153 Y78.412 E4.03003
G1 X87.847 Y78.412 E4.04018
G1 X87.542 Y78.384 E4.05033
G1 X87.240 Y78.330 E4.06048
G1 X86.945 Y78.248 E4.07064
G1 X86.658 Y78.140 E4.08079
G1 X86.382 Y78.007 E4.09094
G1 X86.119 Y77.850 E4.10109
G1 X85.871 Y77.670 E4.11124
G1 X85.640 Y77.468 E4.12140
G1 X85.428 Y77.247 E4.13155
G1 X85.237 Y77.007 E4.14170
G1 X85.068 Y76.752 E4.15186
G1 X84.923 Y76.482 E4.16201
G1 X84.803 Y76.200 E4.17216
G1 X84.708 Y75.909 E4.18231
G1 X84.640 Y75.610 E4.19246
G1 X84.599 Y75.306 E4.20262
G1 X84.585 Y75.000 E4.21277
G1 X84.599 Y74.694 E4.22292
G1 X84.640 Y74.390 E4.23307
G1 X84.708 Y74.091 E4.24322
G1 X84.803 Y73.800 E4.25338
G1 X84.923 Y73.518 E4.26353
G1 X85.068 Y73.248 E4.27368
G1 X85.391 Y72.800 E4.29198
G1 E2.29198 F2400.00000
G92 E0
G1 X65.931 Y74.646 F7800.000
G1 E2.00000 F2400.00000
G1 F1800.000
G1 X65.947 Y75.000 E2.01173
G1 X65.931 Y75.354 E2.02346
G1 X65.884 Y75.705 E2.03520
G1 X65.805 Y76.050 E2.04693
G1 X65.695 Y76.387 E2.05866
G1 X65.556 Y76.712 E2.07040
G1 X65.388 Y77.024 E2.08213
G1 X65.193 Y77.320 E2.09386
G1 X64.972 Y77.597 E2.10559
G1 X64.728 Y77.853 E2.11733
G1 X64.461 Y78.086 E2.12907
G1 X64.174 Y78.294 E2.14079
G1 X63.870 Y78.476 E2.15253
G1 X63.551 Y78.629 E2.16426
G1 X63.220 Y78.754 E2.17599
G1 X62.878 Y78.848 E2.18773
G1 X62.530 Y78.911 E2.19946
G1 X62.177 Y78.943 E2.21120
G1 X61.823 Y78.943 E2.22292
G1 X61.470 Y78.911 E2.23466
G1 X61.122 Y78.848 E2.24640
G1 X60.780 Y78.754 E2.25813
G1 X60.449 Y78.629 E2.26986
G1 X60.118 Y78.470 E2.28202
G1 X59.578 Y78.119 E2.30336
G1 X59.272 Y77.853 E2.31678
G1 X59.028 Y77.597 E2.32852
G1 X58.807 Y77.320 E2.34025
G1 X58.612 Y77.024 E2.35199
G1 X58.444 Y76.712 E2.36372
G1 X58.305 Y76.387 E2.37545
G1 X58.195 Y76.050 E2.38719
G1 X58.116 Y75.705 E2.39892
G1 X58.069 Y75.354 E2.41065
G1 X58.053 Y75.000 E2.42238
G1 X58.069 Y74.646 E2.43412
G1 X58.116 Y74.295 E2.44585
G1 X58.195 Y73.950 E2.45758
G1 X58.305 Y73.613 E2.46932
G1 X58.444 Y73.287 E2.48105
G1 X58.612 Y72.976 E2.49278
G1 X58.807 Y72.680 E2.50452
G1 X59.028 Y72.403 E2.51625
G1 X59.272 Y72.147 E2.52798
G1 X59.539 Y71.914 E2.53972
G1 X59.826 Y71.706 E2.55145
G1 X60.130 Y71.524 E2.56318
G1 X60.449 Y71.371 E2.57492
G1 X60.780 Y71.246 E2.58665
G1 X61.122 Y71.152 E2.59838
G1 X61.470 Y71.089 E2.61011
G1 X61.823 Y71.057 E2.62185
G1 X62.177 Y71.057 E2.63358
G1 X62.530 Y71.089 E2.64531
G1 X62.878 Y71.152 E2.65705
G1 X63.220 Y71.246 E2.66878
G1 X63.551 Y71.371 E2.68051
G1 X63.870 Y71.524 E2.69225
G1 X64.174 Y71.706 E2.70398
G1 X64.461 Y71.914 E2.71571
G1 X64.728 Y72.147 E2.72745
G1 X64.972 Y72.403 E2.73918
G1 X65.193 Y72.680 E2.75091
G1 X65.388 Y72.976 E2.76265
G1 X65.556 Y73.288 E2.77438
G1 X65.695 Y73.613 E2.78611
G1 X65.805 Y73.950 E2.79785
G1 X65.884 Y74.295 E2.80958
G1 X65.923 Y74.587 E2.81932
G1 X65.666 Y74.670 F7800.000
G1 F1800.000
G1 X65.681 Y75.000 E2.83027
G1 X65.666 Y75.330 E2.84121
G1 X65.622 Y75.657 E2.85215
G1 X65.548 Y75.979 E2.86309
G1 X65.446 Y76.293 E2.87403
G1 X65.316 Y76.597 E2.88498
G1 X65.160 Y76.888 E2.89592
G1 X64.978 Y77.164 E2.90686
G1 X64.772 Y77.422 E2.91780
G1 X64.544 Y77.661 E2.92875
G1 X64.295 Y77.878 E2.93969
G1 X64.028 Y78.072 E2.95063
G1 X63.744 Y78.241 E2.96158
G1 X63.447 Y78.385 E2.97252
G1 X63.138 Y78.501 E2.98346
G1 X62.819 Y78.589 E2.99440
G1 X62.494 Y78.648 E3.00535
G1 X62.165 Y78.677 E3.01629
G1 X61.835 Y78.677 E3.02723
G1 X61.506 Y78.648 E3.03818
G1 X61.181 Y78.589 E3.04912
G1 X60.862 Y78.501 E3.06006
G1 X60.553 Y78.385 E3.07100
G1 X60.248 Y78.238 E3.08221
G1 X59.738 Y77.907 E3.10237
G1 X59.456 Y77.661 E3.11477
G1 X59.228 Y77.422 E3.12571
G1 X59.022 Y77.164 E3.13665
G1 X58.840 Y76.888 E3.14760
G1 X58.684 Y76.597 E3.15854
G1 X58.554 Y76.293 E3.16948
G1 X58.452 Y75.979 E3.18042
G1 X58.378 Y75.657 E3.19137
G1 X58.334 Y75.330 E3.20231
G1 X58.319 Y75.000 E3.21325
G1 X58.334 Y74.670 E3.22419
G1 X58.378 Y74.343 E3.23514
G1 X58.452 Y74.021 E3.24608
G1 X58.554 Y73.706 E3.25702
G1 X58.684 Y73.403 E3.26797
G1 X58.840 Y73.112 E3.27890
G1 X59.022 Y72.836 E3.28985
G1 X59.228 Y72.578 E3.30079
G1 X59.456 Y72.339 E3.31173
G1 X59.705 Y72.122 E3.32268
G1 X59.972 Y71.928 E3.33362
G1 X60.256 Y71.758 E3.34456
G1 X60.553 Y71.615 E3.35551
G1 X60.863 Y71.499 E3.36645
G1 X61.181 Y71.411 E3.37739
G1 X61.506 Y71.352 E3.38833
G1 X61.835 Y71.323 E3.39928
G1 X62.165 Y71.323 E3.41022
G1 X62.494 Y71.352 E3.42116
G1 X62.819 Y71.411 E3.43210
G1 X63.137 Y71.499 E3.44305
G1 X63.447 Y71.615 E3.45399
G1 X63.744 Y71.758 E3.46493
G1 X64.028 Y71.928 E3.47588
G1 X64.295 Y72.122 E3.48682
G1 X64.544 Y72.339 E3.49776
G1 X64.772 Y72.578 E3.50871
G1 X64.978 Y72.836 E3.51965
G1 X65.160 Y73.112 E3.53059
G1 X65.316 Y73.403 E3.54153
G1 X65.446 Y73.707 E3.55247
G1 X65.548 Y74.021 E3.56342
G1 X65.622 Y74.343 E3.57436
G1 X65.658 Y74.611 E3.58332
G1 X65.401 Y74.694 F7800.000
G1 F1800.000
G1 X65.415 Y75.000 E3.59347
G1 X65.401 Y75.306 E3.60362
G1 X65.360 Y75.610 E3.61377
G1 X65.292 Y75.909 E3.62392
G1 X65.197 Y76.200 E3.63408
G1 X65.077 Y76.482 E3.64423
G1 X64.932 Y76.752 E3.65438
G1 X64.763 Y77.007 E3.66453
G1 X64.572 Y77.247 E3.67468
G1 X64.360 Y77.468 E3.68484
G1 X64.129 Y77.670 E3.69499
G1 X63.881 Y77.850 E3.70514
G1 X63.618 Y78.007 E3.71529
G1 X63.342 Y78.140 E3.72545
G1 X63.055 Y78.248 E3.73560
G1 X62.760 Y78.330 E3.74575
G1 X62.458 Y78.384 E3.75590
G1 X62.153 Y78.412 E3.76606
G1 X61.847 Y78.412 E3.77621
G1 X61.542 Y78.384 E3.78636
G1 X61.240 Y78.330 E3.79651
G1 X60.945 Y78.248 E3.80667
G1 X60.658 Y78.140 E3.81682
G1 X60.379 Y78.006 E3.82707
G1 X59.899 Y77.694 E3.84604
G1 X59.640 Y77.468 E3.85742
G1 X59.428 Y77.247 E3.86757
G1 X59.237 Y77.007 E3.87772
G1 X59.068 Y76.752 E3.88788
G1 X58.923 Y76.482 E3.89803
G1 X58.803 Y76.200 E3.90818
G1 X58.708 Y75.909 E3.91833
G1 X58.640 Y75.610 E3.92848
G1 X58.599 Y75.306 E3.93864
G1 X58.585 Y75.000 E3.94879
G1 X58.599 Y74.694 E3.95894
G1 X58.640 Y74.390 E3.96909
G1 X58.708 Y74.091 E3.97924
G1 X58.803 Y73.800 E3.98940
G1 X58.923 Y73.518 E3.99955
G1 X59.068 Y73.248 E4.00970
G1 X59.237 Y72.993 E4.01985
G1 X59.428 Y72.753 E4.03000
G1 X59.640 Y72.532 E4.04016
G1 X59.871 Y72.330 E4.05031
G1 X60.119 Y72.150 E4.06046
G1 X60.382 Y71.993 E4.07062
G1 X60.658 Y71.860 E4.08077
G1 X60.945 Y71.752 E4.09092
G1 X61.240 Y71.670 E4.10107
G1 X61.542 Y71.616 E4.11122
G1 X61.847 Y71.588 E4.12138
G1 X62.153 Y71.588 E4.13153
G1 X62.458 Y71.616 E4.14168
G1 X62.760 Y71.670 E4.15183
G1 X63.055 Y71.752 E4.16198
G1 X63.342 Y71.860 E4.17214
G1 X63.618 Y71.993 E4.18229
G1 X63.881 Y72.150 E4.19244
G1 X64.129 Y72.330 E4.20259
G1 X64.360 Y72.532 E4.21275
G1 X64.572 Y72.753 E4.22290
G1 X64.763 Y72.993 E4.23305
G1 X64.932 Y73.248 E4.24321
G1 X65.077 Y73.518 E4.25336
G1 X65.197 Y73.800 E4.26351
G1 X65.292 Y74.091 E4.27366
G1 X65.393 Y74.634 E4.29196
G1 E2.29196 F2400.00000
G92 E0
G1 X45.296 Y66.314 F7800.000
G1 E2.00000 F2400.00000
G1 F1800.000
G1 X104.704 Y66.314 E3.96814
G1 X104.704 Y83.686 E4.54364
G1 X90.348 Y83.686 E5.01925
G1 X89.983 Y83.420 E5.03420
G1 X87.888 Y82.169 E5.11505
G1 X85.689 Y81.110 E5.19589
G1 X83.404 Y80.252 E5.27674
G1 X81.052 Y79.603 E5.35759
G1 X78.651 Y79.167 E5.43844
G1 X76.220 Y78.949 E5.51929
G1 X73.780 Y78.949 E5.60013
G1 X71.349 Y79.167 E5.68098
G1 X68.949 Y79.603 E5.76181
G1 X66.632 Y80.239 E5.84140
G1 X64.311 Y81.110 E5.92353
G1 X62.112 Y82.169 E6.00438
G1 X60.017 Y83.420 E6.08523
G1 X59.652 Y83.686 E6.10018
G1 X45.296 Y83.686 E6.57579
G1 X45.296 Y66.374 E7.14930
G1 X45.031 Y66.049 F7800.000
G1 F1800.000
G1 X104.969 Y66.049 E9.13504
G1 X104.969 Y83.951 E9.72814
G1 X90.261 Y83.951 E10.21540
G1 X89.836 Y83.642 E10.23281
G1 X87.762 Y82.403 E10.31287
G1 X85.585 Y81.354 E10.39293
G1 X83.322 Y80.505 E10.47299
G1 X80.993 Y79.862 E10.55305
G1 X78.615 Y79.431 E10.63310
G1 X76.208 Y79.214 E10.71316
G1 X73.792 Y79.214 E10.79322
G1 X71.385 Y79.431 E10.87328
G1 X69.008 Y79.862 E10.95333
G1 X66.714 Y80.492 E11.03212
G1 X64.415 Y81.354 E11.11346
G1 X62.238 Y82.403 E11.19351
G1 X60.164 Y83.642 E11.27357
G1 X59.739 Y83.951 E11.29099
G1 X45.031 Y83.951 E11.77825
G1 X45.031 Y66.109 E12.36936
G1 X44.765 Y65.783 F7800.000
G1 F1800.000
G1 X105.235 Y65.783 E14.37270
G1 X105.235 Y84.217 E14.98340
G1 X90.175 Y84.217 E15.48233
G1 X89.690 Y83.864 E15.50220
G1 X87.636 Y82.637 E15.58147
G1 X85.480 Y81.599 E15.66074
G1 X83.240 Y80.758 E15.74001
G1 X80.934 Y80.122 E15.81927
G1 X78.579 Y79.694 E15.89854
G1 X76.196 Y79.480 E15.97781
G1 X73.804 Y79.480 E16.05708
G1 X71.421 Y79.694 E16.13634
G1 X69.067 Y80.122 E16.21561
G1 X66.796 Y80.745 E16.29361
G1 X64.520 Y81.599 E16.37415
G1 X62.364 Y82.637 E16.45342
G1 X60.310 Y83.864 E16.53269
G1 X59.825 Y84.217 E16.55256
G1 X44.765 Y84.217 E17.05149
G1 X44.765 Y65.843 E17.66020
G1 X45.459 Y66.683 F7800.000
G1 F1800.000
G1 X45.665 Y66.477 E17.66990
G1 X46.042 Y66.477 E17.68242
G1 X45.459 Y67.060 E17.70984
G1 X45.459 Y67.437 E17.72235
G1 X46.419 Y66.477 E17.76747
G1 X46.796 Y66.477 E17.77999
G1 X45.459 Y67.814 E17.84280
G1 X45.459 Y68.190 E17.85532
G1 X47.172 Y66.477 E17.93583
G1 X47.549 Y66.477 E17.94835
G1 X45.459 Y68.567 E18.04656
G1 X45.459 Y68.944 E18.05907
G1 X47.926 Y66.477 E18.17499
G1 X48.302 Y66.477 E18.18750
G1 X45.459 Y69.321 E18.32111
G1 X45.459 Y69.697 E18.33363
G1 X48.679 Y66.477 E18.48493
G1 X49.056 Y66.477 E18.49745
G1 X45.459 Y70.074 E18.66646
G1 X45.459 Y70.451 E18.67897
G1 X49.432 Y66.477 E18.86568
G1 X49.809 Y66.477 E18.87819
G1 X45.459 Y70.827 E19.08260
G1 X45.459 Y71.204 E19.09511
G1 X50.186 Y66.477 E19.31721
G1 X50.562 Y66.477 E19.32973
G1 X45.459 Y71.581 E19.56953
G1 X45.459 Y71.957 E19.58204
G1 X50.939 Y66.477 E19.83954
G1 X51.316 Y66.477 E19.85206
G1 X45.459 Y72.334 E20.12726
G1 X45.459 Y72.711 E20.13977
G1 X51.693 Y66.477 E20.43267
G1 X52.069 Y66.477 E20.44518
G1 X45.459 Y73.087 E20.75578
G1 X45.459 Y73.464 E20.76829
G1 X52.446 Y66.477 E21.09659
G1 X52.823 Y66.477 E21.10910
G1 X45.459 Y73.841 E21.45509
G1 X45.459 Y74.218 E21.46761
G1 X53.199 Y66.477 E21.83130
G1 X53.576 Y66.477 E21.84381
G1 X45.459 Y74.594 E22.22520
G1 X45.459 Y74.971 E22.23772
G1 X53.953 Y66.477 E22.63681
G1 X54.329 Y66.477 E22.64932
G1 X45.459 Y75.348 E23.06611
G1 X45.459 Y75.724 E23.07862
