; generated by Slic3r 1.3.1-dev (Build 2d100c4) on 2021-01-20 at 18:23:33

; external perimeters extrusion width = 0.44mm (2.86mm^3/s)
; perimeters extrusion width = 0.56mm (4.14mm^3/s)
; infill extrusion width = 0.50mm (3.66mm^3/s)
; solid infill extrusion width = 0.56mm (3.10mm^3/s)
; top infill extrusion width = 0.56mm (3.10mm^3/s)

M107
G92 E0
;D3D:START:START
T0
M104 S215 T0

G21
G90
M107
T0
G28
G29
M109 T0 S215 T0
G0 F3000
M107
T0
G92 E0
G0 X0 Y149 Z0.1 F3600
G1 Y49 E6.5 F1200
G0 Z1
G92 E0
; Filament gcode

G21 ; set units to millimeters
G90 ; use absolute coordinates
M82 ; use absolute distances for extrusion
G92 E0
G1 Z0.300 F7800.000
G1 E-2.00000 F2400.00000
G92 E0
G1 X87.028 Y72.403 F7800.000
G1 E2.00000 F2400.00000
G1 F1800.000
G1 X87.272 Y72.147 E2.01174
G1 X87.539 Y71.914 E2.02347
G1 X87.826 Y71.706 E2.03520
G1 X88.130 Y71.524 E2.04694
G1 X88.449 Y71.371 E2.05867
G1 X88.780 Y71.246 E2.07040
G1 X89.122 Y71.152 E2.08214
G1 X89.470 Y71.089 E2.09387
G1 X89.823 Y71.057 E2.10560
G1 X90.177 Y71.057 E2.11734
G1 X90.530 Y71.089 E2.12907
G1 X90.878 Y71.152 E2.14080
G1 X91.220 Y71.246 E2.15254
G1 X91.551 Y71.371 E2.16427
G1 X91.870 Y71.524 E2.17600
G1 X92.174 Y71.706 E2.18773
G1 X92.461 Y71.914 E2.19946
G1 X92.728 Y72.147 E2.21120
G1 X92.972 Y72.403 E2.22294
G1 X93.193 Y72.680 E2.23466
G1 X93.388 Y72.976 E2.24640
G1 X93.556 Y73.287 E2.25813
G1 X93.695 Y73.613 E2.26986
G1 X93.805 Y73.950 E2.28160
G1 X93.884 Y74.295 E2.29333
G1 X93.931 Y74.646 E2.30506
G1 X93.947 Y75.000 E2.31680
G1 X93.931 Y75.354 E2.32853
G1 X93.884 Y75.705 E2.34026
G1 X93.805 Y76.050 E2.35200
G1 X93.695 Y76.387 E2.36373
G1 X93.556 Y76.713 E2.37546
G1 X93.388 Y77.024 E2.38719
G1 X93.193 Y77.320 E2.39893
G1 X92.972 Y77.597 E2.41066
G1 X92.728 Y77.853 E2.42240
G1 X92.461 Y78.086 E2.43413
G1 X92.174 Y78.294 E2.44586
G1 X91.870 Y78.476 E2.45759
G1 X91.551 Y78.629 E2.46933
G1 X91.220 Y78.754 E2.48106
G1 X90.878 Y78.848 E2.49280
G1 X90.530 Y78.911 E2.50453
G1 X90.177 Y78.943 E2.51626
G1 X89.823 Y78.943 E2.52799
G1 X89.470 Y78.911 E2.53973
G1 X89.122 Y78.848 E2.55146
G1 X88.780 Y78.754 E2.56319
G1 X88.449 Y78.629 E2.57492
G1 X88.130 Y78.476 E2.58666
G1 X87.826 Y78.294 E2.59839
G1 X87.539 Y78.086 E2.61012
G1 X87.272 Y77.853 E2.62186
G1 X87.028 Y77.597 E2.63359
G1 X86.807 Y77.320 E2.64532
G1 X86.612 Y77.024 E2.65706
G1 X86.444 Y76.713 E2.66879
G1 X86.305 Y76.387 E2.68052
G1 X86.195 Y76.050 E2.69225
G1 X86.116 Y75.705 E2.70399
G1 X86.069 Y75.354 E2.71572
G1 X86.053 Y75.000 E2.72745
G1 X86.069 Y74.646 E2.73919
G1 X86.116 Y74.295 E2.75092
G1 X86.195 Y73.950 E2.76266
G1 X86.305 Y73.613 E2.77439
G1 X86.444 Y73.287 E2.78612
G1 X86.612 Y72.976 E2.79785
G1 X86.807 Y72.680 E2.80959
G1 X86.990 Y72.450 E2.81933
G1 X87.228 Y72.578 F7800.000
G1 F1800.000
G1 X87.456 Y72.339 E2.83027
G1 X87.705 Y72.122 E2.84122
G1 X87.972 Y71.928 E2.85216
G1 X88.256 Y71.758 E2.86310
G1 X88.553 Y71.615 E2.87405
G1 X88.862 Y71.499 E2.88499
G1 X89.181 Y71.411 E2.89593
G1 X89.506 Y71.352 E2.90687
G1 X89.835 Y71.323 E2.91781
G1 X90.165 Y71.323 E2.92876
G1 X90.494 Y71.352 E2.93970
G1 X90.819 Y71.411 E2.95064
G1 X91.138 Y71.499 E2.96159
G1 X91.447 Y71.615 E2.97253
G1 X91.744 Y71.758 E2.98347
G1 X92.028 Y71.928 E2.99442
G1 X92.295 Y72.122 E3.00536
G1 X92.544 Y72.339 E3.01630
G1 X92.772 Y72.578 E3.02725
G1 X92.978 Y72.836 E3.03818
G1 X93.160 Y73.112 E3.04913
G1 X93.316 Y73.403 E3.06007
G1 X93.446 Y73.707 E3.07101
G1 X93.548 Y74.021 E3.08195
G1 X93.622 Y74.343 E3.09290
G1 X93.666 Y74.670 E3.10384
G1 X93.681 Y75.000 E3.11479
G1 X93.666 Y75.330 E3.12573
G1 X93.622 Y75.657 E3.13667
G1 X93.548 Y75.979 E3.14761
G1 X93.446 Y76.293 E3.15855
G1 X93.316 Y76.597 E3.16950
G1 X93.160 Y76.888 E3.18044
G1 X92.978 Y77.164 E3.19138
G1 X92.772 Y77.422 E3.20233
G1 X92.544 Y77.661 E3.21327
G1 X92.295 Y77.878 E3.22421
G1 X92.028 Y78.072 E3.23515
G1 X91.744 Y78.242 E3.24610
G1 X91.447 Y78.385 E3.25704
G1 X91.138 Y78.501 E3.26798
G1 X90.819 Y78.589 E3.27893
G1 X90.494 Y78.648 E3.28987
G1 X90.165 Y78.677 E3.30081
G1 X89.835 Y78.677 E3.31175
G1 X89.506 Y78.648 E3.32270
G1 X89.181 Y78.589 E3.33364
G1 X88.862 Y78.501 E3.34458
G1 X88.553 Y78.385 E3.35552
G1 X88.256 Y78.242 E3.36647
G1 X87.972 Y78.072 E3.37741
G1 X87.705 Y77.878 E3.38835
G1 X87.456 Y77.661 E3.39929
G1 X87.228 Y77.422 E3.41024
G1 X87.022 Y77.164 E3.42118
G1 X86.840 Y76.888 E3.43212
G1 X86.684 Y76.597 E3.44306
G1 X86.554 Y76.293 E3.45401
G1 X86.452 Y75.979 E3.46495
G1 X86.378 Y75.657 E3.47589
G1 X86.334 Y75.330 E3.48684
G1 X86.319 Y75.000 E3.49778
G1 X86.334 Y74.670 E3.50872
G1 X86.378 Y74.343 E3.51966
G1 X86.452 Y74.021 E3.53061
G1 X86.554 Y73.707 E3.54155
G1 X86.684 Y73.403 E3.55249
G1 X86.840 Y73.112 E3.56343
G1 X87.022 Y72.836 E3.57438
G1 X87.190 Y72.625 E3.58333
G1 X87.428 Y72.753 F7800.000
G1 F1800.000
G1 X87.640 Y72.532 E3.59348
G1 X87.871 Y72.330 E3.60364
G1 X88.119 Y72.150 E3.61379
G1 X88.382 Y71.993 E3.62394
G1 X88.658 Y71.860 E3.63409
G1 X88.945 Y71.752 E3.64424
G1 X89.240 Y71.670 E3.65440
G1 X89.542 Y71.616 E3.66455
G1 X89.847 Y71.588 E3.67470
G1 X90.153 Y71.588 E3.68485
G1 X90.458 Y71.616 E3.69501
G1 X90.760 Y71.670 E3.70516
G1 X91.055 Y71.752 E3.71531
G1 X91.342 Y71.860 E3.72546
G1 X91.618 Y71.993 E3.73562
G1 X91.881 Y72.150 E3.74577
G1 X92.129 Y72.330 E3.75592
G1 X92.360 Y72.532 E3.76607
G1 X92.572 Y72.753 E3.77623
G1 X92.763 Y72.993 E3.78638
G1 X92.932 Y73.248 E3.79653
G1 X93.077 Y73.518 E3.80668
G1 X93.197 Y73.800 E3.81683
G1 X93.292 Y74.091 E3.82698
G1 X93.360 Y74.390 E3.83714
G1 X93.401 Y74.694 E3.84729
G1 X93.415 Y75.000 E3.85744
G1 X93.401 Y75.306 E3.86760
G1 X93.360 Y75.610 E3.87775
G1 X93.292 Y75.909 E3.88790
G1 X93.197 Y76.200 E3.89805
G1 X93.077 Y76.482 E3.90821
G1 X92.932 Y76.752 E3.91836
G1 X92.763 Y77.007 E3.92851
G1 X92.572 Y77.247 E3.93866
G1 X92.360 Y77.468 E3.94881
G1 X92.129 Y77.670 E3.95897
G1 X91.881 Y77.850 E3.96912
G1 X91.618 Y78.007 E3.97927
G1 X91.342 Y78.140 E3.98942
G1 X91.055 Y78.248 E3.99957
G1 X90.760 Y78.330 E4.00973
G1 X90.458 Y78.384 E4.01988
G1 X90.153 Y78.412 E4.03003
G1 X89.847 Y78.412 E4.04018
G1 X89.542 Y78.384 E4.05034
G1 X89.240 Y78.330 E4.06049
G1 X88.945 Y78.248 E4.07064
G1 X88.658 Y78.140 E4.08079
G1 X88.382 Y78.007 E4.09095
G1 X88.119 Y77.850 E4.10110
G1 X87.871 Y77.670 E4.11125
G1 X87.640 Y77.468 E4.12140
G1 X87.428 Y77.247 E4.13155
G1 X87.237 Y77.007 E4.14170
G1 X87.068 Y76.752 E4.15186
G1 X86.923 Y76.482 E4.16201
G1 X86.803 Y76.200 E4.17216
G1 X86.708 Y75.909 E4.18232
G1 X86.640 Y75.610 E4.19247
G1 X86.599 Y75.306 E4.20262
G1 X86.585 Y75.000 E4.21277
G1 X86.599 Y74.694 E4.22293
G1 X86.640 Y74.390 E4.23308
G1 X86.708 Y74.091 E4.24323
G1 X86.803 Y73.800 E4.25338
G1 X86.923 Y73.518 E4.26354
G1 X87.068 Y73.248 E4.27369
G1 X87.391 Y72.800 E4.29198
G1 X87.329 Y72.463 F7800.000
G1 E2.29198 F2400.00000
G92 E0
G1 X63.931 Y74.646 F7800.000
G1 E2.00000 F2400.00000
G1 F1800.000
G1 X63.947 Y75.000 E2.01173
G1 X63.931 Y75.354 E2.02347
G1 X63.884 Y75.705 E2.03520
G1 X63.805 Y76.050 E2.04693
G1 X63.695 Y76.387 E2.05867
G1 X63.556 Y76.713 E2.07040
G1 X63.388 Y77.024 E2.08213
G1 X63.193 Y77.320 E2.09387
G1 X62.972 Y77.597 E2.10560
G1 X62.728 Y77.853 E2.11733
G1 X62.461 Y78.086 E2.12907
G1 X62.174 Y78.294 E2.14079
G1 X61.859 Y78.483 E2.15298
G1 X61.260 Y78.743 E2.17461
G1 X60.878 Y78.848 E2.18772
G1 X60.530 Y78.911 E2.19945
G1 X60.177 Y78.943 E2.21119
G1 X59.823 Y78.943 E2.22292
G1 X59.470 Y78.911 E2.23466
G1 X59.122 Y78.848 E2.24639
G1 X58.780 Y78.754 E2.25812
G1 X58.449 Y78.629 E2.26985
G1 X58.130 Y78.476 E2.28159
G1 X57.826 Y78.294 E2.29332
G1 X57.539 Y78.086 E2.30505
G1 X57.272 Y77.853 E2.31679
G1 X57.028 Y77.597 E2.32852
G1 X56.807 Y77.320 E2.34025
G1 X56.612 Y77.024 E2.35199
G1 X56.444 Y76.713 E2.36372
G1 X56.305 Y76.387 E2.37545
G1 X56.195 Y76.050 E2.38718
G1 X56.116 Y75.705 E2.39892
G1 X56.069 Y75.354 E2.41065
G1 X56.053 Y75.000 E2.42238
G1 X56.069 Y74.646 E2.43412
G1 X56.116 Y74.295 E2.44585
G1 X56.195 Y73.950 E2.45758
G1 X56.305 Y73.613 E2.46932
G1 X56.444 Y73.287 E2.48105
G1 X56.612 Y72.976 E2.49278
G1 X56.807 Y72.680 E2.50452
G1 X57.028 Y72.403 E2.51625
G1 X57.272 Y72.147 E2.52798
G1 X57.539 Y71.914 E2.53972
G1 X57.826 Y71.706 E2.55145
G1 X58.130 Y71.524 E2.56318
G1 X58.449 Y71.371 E2.57492
G1 X58.780 Y71.246 E2.58665
G1 X59.122 Y71.152 E2.59838
G1 X59.470 Y71.089 E2.61011
G1 X59.823 Y71.057 E2.62185
G1 X60.177 Y71.057 E2.63358
G1 X60.530 Y71.089 E2.64531
G1 X60.878 Y71.152 E2.65704
G1 X61.220 Y71.246 E2.66878
G1 X61.551 Y71.371 E2.68051
G1 X61.870 Y71.524 E2.69225
G1 X62.174 Y71.706 E2.70398
G1 X62.461 Y71.914 E2.71571
G1 X62.728 Y72.147 E2.72745
G1 X62.972 Y72.403 E2.73918
G1 X63.193 Y72.680 E2.75091
G1 X63.388 Y72.976 E2.76264
G1 X63.556 Y73.287 E2.77438
G1 X63.695 Y73.613 E2.78611
G1 X63.805 Y73.950 E2.79784
G1 X63.884 Y74.295 E2.80958
G1 X63.923 Y74.587 E2.81932
G1 X63.666 Y74.670 F7800.000
G1 F1800.000
G1 X63.681 Y75.000 E2.83027
G1 X63.666 Y75.330 E2.84121
G1 X63.622 Y75.657 E2.85215
G1 X63.548 Y75.979 E2.86309
G1 X63.446 Y76.293 E2.87404
G1 X63.316 Y76.597 E2.88498
G1 X63.160 Y76.888 E2.89592
G1 X62.978 Y77.164 E2.90687
G1 X62.772 Y77.422 E2.91781
G1 X62.544 Y77.661 E2.92875
G1 X62.295 Y77.878 E2.93969
G1 X62.028 Y78.072 E2.95063
G1 X61.737 Y78.246 E2.96186
G1 X61.171 Y78.492 E2.98230
G1 X60.819 Y78.589 E2.99440
G1 X60.494 Y78.648 E3.00534
G1 X60.165 Y78.677 E3.01628
G1 X59.835 Y78.677 E3.02723
G1 X59.506 Y78.648 E3.03817
G1 X59.181 Y78.589 E3.04911
G1 X58.862 Y78.501 E3.06005
G1 X58.553 Y78.385 E3.07099
G1 X58.256 Y78.242 E3.08194
G1 X57.972 Y78.072 E3.09288
G1 X57.705 Y77.878 E3.10382
G1 X57.456 Y77.661 E3.11477
G1 X57.228 Y77.422 E3.12571
G1 X57.022 Y77.164 E3.13665
G1 X56.840 Y76.888 E3.14760
G1 X56.684 Y76.597 E3.15854
G1 X56.554 Y76.293 E3.16948
G1 X56.452 Y75.979 E3.18042
G1 X56.378 Y75.657 E3.19136
G1 X56.334 Y75.330 E3.20231
G1 X56.319 Y75.000 E3.21325
G1 X56.334 Y74.670 E3.22419
G1 X56.378 Y74.343 E3.23514
G1 X56.452 Y74.021 E3.24608
G1 X56.554 Y73.707 E3.25702
G1 X56.684 Y73.403 E3.26796
G1 X56.840 Y73.112 E3.27891
G1 X57.022 Y72.836 E3.28985
G1 X57.228 Y72.578 E3.30079
G1 X57.456 Y72.339 E3.31173
G1 X57.705 Y72.122 E3.32268
G1 X57.972 Y71.928 E3.33362
G1 X58.256 Y71.758 E3.34456
G1 X58.553 Y71.615 E3.35551
G1 X58.862 Y71.499 E3.36645
G1 X59.181 Y71.411 E3.37739
G1 X59.506 Y71.352 E3.38833
G1 X59.835 Y71.323 E3.39927
G1 X60.165 Y71.323 E3.41022
G1 X60.494 Y71.352 E3.42116
G1 X60.819 Y71.411 E3.43210
G1 X61.138 Y71.499 E3.44305
G1 X61.447 Y71.615 E3.45399
G1 X61.744 Y71.758 E3.46493
G1 X62.028 Y71.928 E3.47588
G1 X62.295 Y72.122 E3.48682
G1 X62.544 Y72.339 E3.49776
G1 X62.772 Y72.578 E3.50871
G1 X62.978 Y72.836 E3.51964
G1 X63.160 Y73.112 E3.53059
G1 X63.316 Y73.403 E3.54153
G1 X63.446 Y73.707 E3.55247
G1 X63.548 Y74.021 E3.56341
G1 X63.622 Y74.343 E3.57436
G1 X63.658 Y74.611 E3.58331
G1 X63.401 Y74.694 F7800.000
G1 F1800.000
G1 X63.415 Y75.000 E3.59347
G1 X63.401 Y75.306 E3.60362
G1 X63.360 Y75.610 E3.61377
G1 X63.292 Y75.909 E3.62392
G1 X63.197 Y76.200 E3.63408
G1 X63.077 Y76.482 E3.64423
G1 X62.932 Y76.752 E3.65438
G1 X62.763 Y77.007 E3.66453
G1 X62.572 Y77.247 E3.67469
G1 X62.360 Y77.468 E3.68484
G1 X62.129 Y77.670 E3.69499
G1 X61.881 Y77.850 E3.70514
G1 X61.616 Y78.009 E3.71540
G1 X61.082 Y78.241 E3.73466
G1 X60.760 Y78.330 E3.74574
G1 X60.458 Y78.384 E3.75589
G1 X60.153 Y78.412 E3.76604
G1 X59.847 Y78.412 E3.77620
G1 X59.542 Y78.384 E3.78635
G1 X59.240 Y78.330 E3.79650
G1 X58.945 Y78.248 E3.80665
G1 X58.658 Y78.140 E3.81681
G1 X58.382 Y78.007 E3.82696
G1 X58.119 Y77.850 E3.83711
G1 X57.871 Y77.670 E3.84726
G1 X57.640 Y77.468 E3.85742
G1 X57.428 Y77.247 E3.86757
G1 X57.237 Y77.007 E3.87772
G1 X57.068 Y76.752 E3.88787
G1 X56.923 Y76.482 E3.89802
G1 X56.803 Y76.200 E3.90818
G1 X56.708 Y75.909 E3.91833
G1 X56.640 Y75.610 E3.92848
G1 X56.599 Y75.306 E3.93863
G1 X56.585 Y75.000 E3.94878
G1 X56.599 Y74.694 E3.95894
G1 X56.640 Y74.390 E3.96909
G1 X56.708 Y74.091 E3.97924
G1 X56.803 Y73.800 E3.98939
G1 X56.923 Y73.518 E3.99955
G1 X57.068 Y73.248 E4.00970
G1 X57.237 Y72.993 E4.01985
G1 X57.428 Y72.753 E4.03000
G1 X57.640 Y72.532 E4.04015
G1 X57.871 Y72.330 E4.05031
G1 X58.119 Y72.150 E4.06046
G1 X58.382 Y71.993 E4.07061
G1 X58.658 Y71.860 E4.08077
G1 X58.945 Y71.752 E4.09092
G1 X59.240 Y71.670 E4.10107
G1 X59.542 Y71.616 E4.11122
G1 X59.847 Y71.588 E4.12137
G1 X60.153 Y71.588 E4.13153
G1 X60.458 Y71.616 E4.14168
G1 X60.760 Y71.670 E4.15183
G1 X61.055 Y71.752 E4.16198
G1 X61.342 Y71.860 E4.17214
G1 X61.618 Y71.993 E4.18229
G1 X61.881 Y72.150 E4.19244
G1 X62.129 Y72.330 E4.20259
G1 X62.360 Y72.532 E4.21275
G1 X62.572 Y72.753 E4.22290
G1 X62.763 Y72.993 E4.23305
G1 X62.932 Y73.248 E4.24320
G1 X63.077 Y73.518 E4.25335
G1 X63.197 Y73.800 E4.26351
G1 X63.292 Y74.091 E4.27366
G1 X63.393 Y74.634 E4.29196
G1 X63.680 Y74.823 F7800.000
G1 E2.29196 F2400.00000
G92 E0
G1 X43.296 Y65.786 F7800.000
G1 E2.00000 F2400.00000
G1 F1800.000
G1 X106.704 Y65.786 E4.10066
G1 X106.704 Y84.214 E4.71117
G1 X92.449 Y84.214 E5.18343
G1 X91.085 Y83.223 E5.23930
G1 X88.836 Y81.879 E5.32609
G1 X86.475 Y80.742 E5.41289
G1 X84.022 Y79.822 E5.49968
G1 X81.502 Y79.126 E5.58629
G1 X78.919 Y78.657 E5.67327
G1 X76.310 Y78.422 E5.76007
G1 X73.690 Y78.422 E5.84686
G1 X71.081 Y78.657 E5.93365
G1 X68.503 Y79.125 E6.02045
G1 X65.978 Y79.822 E6.10724
G1 X63.525 Y80.742 E6.19403
G1 X61.164 Y81.879 E6.28083
G1 X58.915 Y83.223 E6.36762
G1 X57.551 Y84.214 E6.42349
G1 X43.296 Y84.214 E6.89575
G1 X43.296 Y65.846 E7.50427
G1 X43.031 Y65.520 F7800.000
G1 F1800.000
G1 X106.969 Y65.520 E9.62253
G1 X106.969 Y84.480 E10.25065
G1 X92.363 Y84.480 E10.73456
G1 X90.938 Y83.445 E10.79290
G1 X88.710 Y82.113 E10.87890
G1 X86.371 Y80.987 E10.96491
G1 X83.940 Y80.075 E11.05091
G1 X81.443 Y79.385 E11.13673
G1 X78.884 Y78.920 E11.22292
G1 X76.298 Y78.688 E11.30892
G1 X73.702 Y78.688 E11.39492
G1 X71.116 Y78.920 E11.48093
G1 X68.562 Y79.384 E11.56693
G1 X66.060 Y80.075 E11.65293
G1 X63.629 Y80.987 E11.73894
G1 X61.290 Y82.113 E11.82494
G1 X59.062 Y83.445 E11.91094
G1 X57.637 Y84.480 E11.96928
G1 X43.031 Y84.480 E12.45319
G1 X43.031 Y65.580 E13.07932
G1 X42.765 Y65.255 F7800.000
G1 F1800.000
G1 X107.235 Y65.255 E15.21518
G1 X107.235 Y84.745 E15.86089
G1 X92.276 Y84.745 E16.35647
G1 X90.792 Y83.667 E16.41726
G1 X88.584 Y82.347 E16.50248
G1 X86.266 Y81.231 E16.58769
G1 X83.858 Y80.328 E16.67290
G1 X81.384 Y79.644 E16.75793
G1 X78.848 Y79.184 E16.84333
G1 X76.286 Y78.953 E16.92854
G1 X73.714 Y78.953 E17.01376
G1 X71.152 Y79.184 E17.09897
G1 X68.621 Y79.643 E17.18418
G1 X66.142 Y80.328 E17.26939
G1 X63.734 Y81.231 E17.35461
G1 X61.416 Y82.347 E17.43982
G1 X59.208 Y83.667 E17.52504
G1 X57.724 Y84.745 E17.58583
G1 X42.765 Y84.745 E18.08141
G1 X42.765 Y65.315 E18.72513
G1 X43.146 Y65.375 F7800.000
G1 X43.459 Y66.155 F7800.000
G1 F1800.000
G1 X43.665 Y65.948 E18.73481
G1 X44.041 Y65.948 E18.74726
G1 X43.459 Y66.531 E18.77456
G1 X43.459 Y66.907 E18.78701
G1 X44.417 Y65.948 E18.83191
G1 X44.792 Y65.948 E18.84435
G1 X43.459 Y67.282 E18.90686
G1 X43.459 Y67.658 E18.91931
G1 X45.168 Y65.948 E18.99941
G1 X45.544 Y65.948 E19.01186
G1 X43.459 Y68.034 E19.10957
G1 X43.459 Y68.409 E19.12202
G1 X45.920 Y65.948 E19.23734
G1 X46.295 Y65.948 E19.24979
G1 X43.459 Y68.785 E19.38270
G1 X43.459 Y69.161 E19.39515
G1 X46.671 Y65.948 E19.54568
G1 X47.047 Y65.948 E19.55812
G1 X43.459 Y69.536 E19.72625
G1 X43.459 Y69.912 E19.73870
G1 X47.422 Y65.948 E19.92443
G1 X47.798 Y65.948 E19.93688
G1 X43.459 Y70.288 E20.14021
G1 X43.459 Y70.663 E20.15266
G1 X48.174 Y65.948 E20.37360
G1 X48.549 Y65.948 E20.38605
G1 X43.459 Y71.039 E20.62459
G1 X43.459 Y71.415 E20.63704
G1 X48.925 Y65.948 E20.89319
G1 X49.301 Y65.948 E20.90563
G1 X43.459 Y71.790 E21.17939
G1 X43.459 Y72.166 E21.19183
G1 X49.676 Y65.948 E21.48319
G1 X50.052 Y65.948 E21.49564
G1 X43.459 Y72.542 E21.80459
G1 X43.459 Y72.918 E21.81704
G1 X50.428 Y65.948 E22.14360
G1 X50.803 Y65.948 E22.15605
G1 X43.459 Y73.293 E22.50022
G1 X43.459 Y73.669 E22.51267
G1 X51.179 Y65.948 E22.87444
G1 X51.555 Y65.948 E22.88688
G1 X43.459 Y74.045 E23.26626
G1 X43.459 Y74.420 E23.27871
G1 X51.931 Y65.948 E23.67568
