; generated by Slic3r 1.3.1-dev (Build (Unknown revision)) on 2020-04-21 at 15:04:07

; external perimeters extrusion width = 0.44mm (2.86mm^3/s)
; perimeters extrusion width = 0.56mm (4.14mm^3/s)
; infill extrusion width = 0.50mm (3.66mm^3/s)
; solid infill extrusion width = 0.56mm (3.10mm^3/s)
; top infill extrusion width = 0.56mm (3.10mm^3/s)

M107
G92 E0
;D3D:START:START
T0
M104 S215 T0

G21
G90
M107
T0
G28
G29
M109 T0 S215 T0
G0 F3000
M107
T0
G92 E0
G0 X0 Y149 Z0.1 F3600
G1 Y49 E6.5 F1200
G0 Z1
G92 E0
; Filament gcode

G21 ; set units to millimeters
G90 ; use absolute coordinates
M82 ; use absolute distances for extrusion
G92 E0
G1 Z0.300 F7800.000
G1 E-2.00000 F2400.00000
G92 E0
G1 X108.646 Y103.901 F7800.000
G1 E2.00000 F2400.00000
G1 F1800.000
G1 X108.820 Y103.720 E2.00831
G1 X109.151 Y103.456 E2.02234
G1 X109.537 Y103.248 E2.03689
G1 X109.955 Y103.112 E2.05143
G1 X110.390 Y103.053 E2.06598
G1 X110.813 Y103.072 E2.08000
G1 X111.060 Y103.117 E2.08832
G1 X111.463 Y103.248 E2.10234
G1 X111.849 Y103.456 E2.11689
G1 X112.193 Y103.730 E2.13143
G1 X112.481 Y104.061 E2.14598
G1 X112.707 Y104.437 E2.16052
G1 X112.861 Y104.848 E2.17507
G1 X112.939 Y105.280 E2.18961
G1 X112.939 Y105.704 E2.20364
G1 X112.906 Y105.953 E2.21196
G1 X112.793 Y106.361 E2.22598
G1 X112.602 Y106.756 E2.24052
G1 X112.354 Y107.099 E2.25455
G1 X112.180 Y107.280 E2.26286
G1 X111.849 Y107.544 E2.27689
G1 X111.463 Y107.752 E2.29144
G1 X111.045 Y107.888 E2.30598
G1 X110.610 Y107.947 E2.32052
G1 X110.187 Y107.928 E2.33455
G1 X109.940 Y107.883 E2.34287
G1 X109.537 Y107.752 E2.35689
G1 X109.151 Y107.544 E2.37144
G1 X108.807 Y107.270 E2.38598
G1 X108.519 Y106.939 E2.40053
G1 X108.293 Y106.563 E2.41507
G1 X108.139 Y106.152 E2.42962
G1 X108.061 Y105.720 E2.44416
G1 X108.061 Y105.296 E2.45819
G1 X108.094 Y105.047 E2.46651
G1 X108.207 Y104.639 E2.48053
G1 X108.398 Y104.244 E2.49507
G1 X108.611 Y103.950 E2.50711
G1 X108.851 Y104.072 F7800.000
G1 F1800.000
G1 X108.999 Y103.917 E2.51424
G1 X109.298 Y103.679 E2.52688
G1 X109.642 Y103.493 E2.53984
G1 X110.014 Y103.372 E2.55280
G1 X110.402 Y103.320 E2.56576
G1 X110.783 Y103.337 E2.57840
G1 X110.995 Y103.375 E2.58553
G1 X111.358 Y103.493 E2.59817
G1 X111.702 Y103.679 E2.61113
G1 X112.008 Y103.923 E2.62409
G1 X112.266 Y104.217 E2.63706
G1 X112.466 Y104.553 E2.65002
G1 X112.604 Y104.919 E2.66298
G1 X112.674 Y105.304 E2.67594
G1 X112.674 Y105.686 E2.68858
G1 X112.645 Y105.899 E2.69571
G1 X112.543 Y106.267 E2.70835
G1 X112.373 Y106.619 E2.72131
G1 X112.149 Y106.928 E2.73395
G1 X112.001 Y107.083 E2.74107
G1 X111.702 Y107.321 E2.75371
G1 X111.358 Y107.507 E2.76668
G1 X110.986 Y107.628 E2.77964
G1 X110.598 Y107.680 E2.79260
G1 X110.217 Y107.663 E2.80524
G1 X110.005 Y107.625 E2.81237
G1 X109.642 Y107.507 E2.82501
G1 X109.298 Y107.321 E2.83797
G1 X108.992 Y107.077 E2.85093
G1 X108.734 Y106.783 E2.86389
G1 X108.534 Y106.447 E2.87685
G1 X108.396 Y106.081 E2.88981
G1 X108.326 Y105.696 E2.90278
G1 X108.326 Y105.314 E2.91542
G1 X108.355 Y105.101 E2.92255
G1 X108.457 Y104.733 E2.93518
G1 X108.627 Y104.381 E2.94815
G1 X108.816 Y104.121 E2.95880
G1 X109.055 Y104.243 F7800.000
G1 F1800.000
G1 X109.179 Y104.113 E2.96474
G1 X109.445 Y103.901 E2.97599
G1 X109.747 Y103.738 E2.98737
G1 X110.074 Y103.632 E2.99875
G1 X110.414 Y103.586 E3.01013
G1 X110.753 Y103.601 E3.02138
G1 X110.930 Y103.634 E3.02732
G1 X111.253 Y103.738 E3.03857
G1 X111.555 Y103.901 E3.04995
G1 X111.824 Y104.115 E3.06133
G1 X112.050 Y104.374 E3.07271
G1 X112.226 Y104.669 E3.08409
G1 X112.347 Y104.990 E3.09546
G1 X112.408 Y105.328 E3.10684
G1 X112.408 Y105.668 E3.11810
G1 X112.384 Y105.846 E3.12404
G1 X112.293 Y106.173 E3.13529
G1 X112.145 Y106.483 E3.14667
G1 X111.945 Y106.757 E3.15792
G1 X111.821 Y106.887 E3.16386
G1 X111.555 Y107.099 E3.17512
G1 X111.253 Y107.262 E3.18650
G1 X110.926 Y107.368 E3.19787
G1 X110.586 Y107.414 E3.20925
G1 X110.247 Y107.399 E3.22051
G1 X110.070 Y107.366 E3.22645
G1 X109.747 Y107.262 E3.23770
G1 X109.445 Y107.099 E3.24908
G1 X109.176 Y106.885 E3.26046
G1 X108.950 Y106.626 E3.27184
G1 X108.774 Y106.331 E3.28321
G1 X108.653 Y106.010 E3.29459
G1 X108.592 Y105.672 E3.30597
G1 X108.592 Y105.332 E3.31722
G1 X108.616 Y105.154 E3.32316
G1 X108.706 Y104.827 E3.33442
G1 X108.855 Y104.517 E3.34580
G1 X109.020 Y104.291 E3.35506
G1 E1.35506 F2400.00000
G92 E0
G1 X108.518 Y95.434 F7800.000
G1 E2.00000 F2400.00000
G1 F1800.000
G1 X106.535 Y92.000 E2.13135
G1 X108.518 Y88.566 E2.26270
G1 X112.482 Y88.566 E2.39406
G1 X114.465 Y92.000 E2.52542
G1 X112.482 Y95.434 E2.65677
G1 X108.578 Y95.434 E2.78614
G1 X108.671 Y95.168 F7800.000
G1 F1800.000
G1 X106.842 Y92.000 E2.90733
G1 X108.671 Y88.832 E3.02852
G1 X112.329 Y88.832 E3.14972
G1 X114.158 Y92.000 E3.27091
G1 X112.329 Y95.168 E3.39210
G1 X108.731 Y95.168 E3.51131
G1 X108.824 Y94.902 F7800.000
G1 F1800.000
G1 X107.149 Y92.000 E3.62234
G1 X108.824 Y89.098 E3.73337
G1 X112.176 Y89.098 E3.84440
G1 X113.851 Y92.000 E3.95543
G1 X112.176 Y94.902 E4.06646
G1 X108.884 Y94.902 E4.17551
G1 E2.17551 F2400.00000
G92 E0
G1 X105.722 Y87.537 F7800.000
G1 E2.00000 F2400.00000
G1 F1800.000
G1 X105.033 Y87.796 E2.02437
G1 X104.324 Y87.991 E2.04873
G1 X103.600 Y88.123 E2.07310
G1 X102.868 Y88.189 E2.09747
G1 X102.132 Y88.189 E2.12184
G1 X101.400 Y88.123 E2.14620
G1 X100.676 Y87.991 E2.17057
G1 X99.967 Y87.796 E2.19494
G1 X99.278 Y87.537 E2.21930
G1 X98.616 Y87.218 E2.24367
G1 X97.984 Y86.841 E2.26804
G1 X97.389 Y86.409 E2.29240
G1 X96.835 Y85.925 E2.31677
G1 X96.327 Y85.393 E2.34114
G1 X95.869 Y84.818 E2.36550
G1 X95.463 Y84.204 E2.38987
G1 X95.115 Y83.557 E2.41424
G1 X94.826 Y82.880 E2.43861
G1 X94.598 Y82.181 E2.46297
G1 X94.435 Y81.464 E2.48734
G1 X94.336 Y80.735 E2.51171
G1 X94.303 Y80.000 E2.53608
G1 X94.336 Y79.265 E2.56044
G1 X94.435 Y78.536 E2.58481
G1 X94.598 Y77.819 E2.60918
G1 X94.826 Y77.120 E2.63354
G1 X95.115 Y76.443 E2.65791
G1 X95.463 Y75.796 E2.68228
G1 X95.869 Y75.182 E2.70665
G1 X96.327 Y74.607 E2.73101
G1 X96.835 Y74.075 E2.75538
G1 X97.389 Y73.591 E2.77975
G1 X97.984 Y73.159 E2.80411
G1 X98.616 Y72.782 E2.82848
G1 X99.278 Y72.463 E2.85285
G1 X99.967 Y72.204 E2.87722
G1 X100.676 Y72.009 E2.90158
G1 X101.400 Y71.877 E2.92595
G1 X102.132 Y71.811 E2.95032
G1 X102.868 Y71.811 E2.97468
G1 X103.600 Y71.877 E2.99905
G1 X104.324 Y72.009 E3.02342
G1 X105.033 Y72.204 E3.04778
G1 X105.722 Y72.463 E3.07215
G1 X106.384 Y72.782 E3.09652
G1 X107.016 Y73.159 E3.12088
G1 X107.611 Y73.591 E3.14525
G1 X108.165 Y74.075 E3.16962
G1 X108.673 Y74.607 E3.19399
G1 X109.131 Y75.182 E3.21835
G1 X109.537 Y75.796 E3.24272
G1 X109.885 Y76.443 E3.26709
G1 X110.174 Y77.120 E3.29146
G1 X110.402 Y77.819 E3.31582
G1 X110.565 Y78.536 E3.34019
G1 X110.664 Y79.265 E3.36456
G1 X110.697 Y80.000 E3.38892
G1 X110.664 Y80.735 E3.41329
G1 X110.565 Y81.464 E3.43766
G1 X110.402 Y82.181 E3.46202
G1 X110.174 Y82.880 E3.48639
G1 X109.885 Y83.557 E3.51076
G1 X109.537 Y84.204 E3.53513
G1 X109.131 Y84.818 E3.55949
G1 X108.673 Y85.393 E3.58386
G1 X108.165 Y85.925 E3.60822
G1 X107.611 Y86.409 E3.63259
G1 X107.016 Y86.841 E3.65696
G1 X106.384 Y87.218 E3.68133
G1 X105.776 Y87.511 E3.70371
G1 X105.617 Y87.293 F7800.000
G1 F1800.000
G1 X104.951 Y87.543 E3.72728
G1 X104.265 Y87.732 E3.75086
G1 X103.565 Y87.859 E3.77444
G1 X102.856 Y87.923 E3.79801
G1 X102.144 Y87.923 E3.82159
G1 X101.435 Y87.859 E3.84517
G1 X100.735 Y87.732 E3.86874
G1 X100.049 Y87.543 E3.89232
G1 X99.383 Y87.293 E3.91590
G1 X98.742 Y86.984 E3.93947
G1 X98.131 Y86.619 E3.96305
G1 X97.555 Y86.201 E3.98663
G1 X97.019 Y85.733 E4.01020
G1 X96.527 Y85.218 E4.03378
G1 X96.084 Y84.662 E4.05736
G1 X95.692 Y84.068 E4.08093
G1 X95.354 Y83.441 E4.10451
G1 X95.075 Y82.787 E4.12809
G1 X94.855 Y82.110 E4.15166
G1 X94.696 Y81.416 E4.17524
G1 X94.601 Y80.711 E4.19882
G1 X94.569 Y80.000 E4.22239
G1 X94.601 Y79.289 E4.24597
G1 X94.696 Y78.584 E4.26955
G1 X94.855 Y77.890 E4.29312
G1 X95.075 Y77.213 E4.31670
G1 X95.354 Y76.559 E4.34028
G1 X95.692 Y75.932 E4.36385
G1 X96.084 Y75.338 E4.38743
G1 X96.527 Y74.782 E4.41101
G1 X97.019 Y74.267 E4.43458
G1 X97.555 Y73.799 E4.45816
G1 X98.131 Y73.381 E4.48174
G1 X98.742 Y73.016 E4.50531
G1 X99.383 Y72.707 E4.52889
G1 X100.049 Y72.457 E4.55247
G1 X100.735 Y72.268 E4.57604
G1 X101.435 Y72.141 E4.59962
G1 X102.144 Y72.077 E4.62320
G1 X102.856 Y72.077 E4.64677
G1 X103.565 Y72.141 E4.67035
G1 X104.265 Y72.268 E4.69393
G1 X104.951 Y72.457 E4.71750
G1 X105.617 Y72.707 E4.74108
G1 X106.258 Y73.016 E4.76466
G1 X106.869 Y73.381 E4.78823
G1 X107.445 Y73.799 E4.81181
G1 X107.981 Y74.267 E4.83539
G1 X108.473 Y74.782 E4.85896
G1 X108.916 Y75.338 E4.88254
G1 X109.308 Y75.932 E4.90612
G1 X109.646 Y76.559 E4.92969
G1 X109.925 Y77.213 E4.95327
G1 X110.145 Y77.890 E4.97685
G1 X110.304 Y78.584 E5.00042
G1 X110.399 Y79.289 E5.02400
G1 X110.431 Y80.000 E5.04758
G1 X110.399 Y80.711 E5.07115
G1 X110.304 Y81.416 E5.09473
G1 X110.145 Y82.110 E5.11831
G1 X109.925 Y82.787 E5.14188
G1 X109.646 Y83.441 E5.16546
G1 X109.308 Y84.068 E5.18904
G1 X108.916 Y84.662 E5.21261
G1 X108.473 Y85.218 E5.23619
G1 X107.981 Y85.733 E5.25977
G1 X107.445 Y86.201 E5.28334
G1 X106.869 Y86.619 E5.30692
G1 X106.258 Y86.984 E5.33050
G1 X105.671 Y87.267 E5.35208
G1 X105.513 Y87.048 F7800.000
G1 F1800.000
G1 X104.869 Y87.290 E5.37487
G1 X104.206 Y87.473 E5.39766
G1 X103.529 Y87.596 E5.42045
G1 X102.844 Y87.657 E5.44323
G1 X102.156 Y87.657 E5.46602
G1 X101.471 Y87.596 E5.48880
G1 X100.794 Y87.473 E5.51159
G1 X100.131 Y87.290 E5.53437
G1 X99.487 Y87.048 E5.55716
G1 X98.868 Y86.750 E5.57995
G1 X98.277 Y86.397 E5.60273
G1 X97.721 Y85.993 E5.62552
G1 X97.203 Y85.540 E5.64831
G1 X96.728 Y85.043 E5.67109
G1 X96.299 Y84.505 E5.69388
G1 X95.920 Y83.931 E5.71667
G1 X95.594 Y83.326 E5.73945
G1 X95.324 Y82.693 E5.76224
G1 X95.111 Y82.039 E5.78502
G1 X94.958 Y81.369 E5.80781
G1 X94.866 Y80.687 E5.83060
G1 X94.835 Y80.000 E5.85338
G1 X94.866 Y79.313 E5.87617
G1 X94.958 Y78.631 E5.89896
G1 X95.111 Y77.961 E5.92174
G1 X95.324 Y77.307 E5.94453
G1 X95.594 Y76.674 E5.96731
G1 X95.920 Y76.069 E5.99010
G1 X96.299 Y75.495 E6.01289
G1 X96.728 Y74.957 E6.03567
G1 X97.203 Y74.460 E6.05846
G1 X97.721 Y74.007 E6.08125
G1 X98.277 Y73.603 E6.10403
G1 X98.868 Y73.250 E6.12682
G1 X99.487 Y72.952 E6.14960
G1 X100.131 Y72.710 E6.17239
G1 X100.794 Y72.527 E6.19518
G1 X101.471 Y72.404 E6.21796
G1 X102.156 Y72.343 E6.24075
G1 X102.844 Y72.343 E6.26354
G1 X103.529 Y72.404 E6.28632
G1 X104.206 Y72.527 E6.30911
G1 X104.869 Y72.710 E6.33189
G1 X105.513 Y72.952 E6.35468
G1 X106.132 Y73.250 E6.37747
G1 X106.723 Y73.603 E6.40025
G1 X107.279 Y74.007 E6.42304
G1 X107.797 Y74.460 E6.44583
G1 X108.272 Y74.957 E6.46861
G1 X108.701 Y75.495 E6.49140
G1 X109.080 Y76.069 E6.51418
G1 X109.406 Y76.674 E6.53697
G1 X109.676 Y77.307 E6.55976
G1 X109.889 Y77.961 E6.58254
G1 X110.042 Y78.631 E6.60533
G1 X110.134 Y79.313 E6.62812
G1 X110.165 Y80.000 E6.65090
G1 X110.134 Y80.687 E6.67369
G1 X110.042 Y81.369 E6.69647
G1 X109.889 Y82.039 E6.71926
G1 X109.676 Y82.693 E6.74205
G1 X109.406 Y83.326 E6.76483
G1 X109.080 Y83.931 E6.78762
G1 X108.701 Y84.505 E6.81041
G1 X108.272 Y85.043 E6.83319
G1 X107.797 Y85.540 E6.85598
G1 X107.279 Y85.993 E6.87876
G1 X106.723 Y86.397 E6.90155
G1 X106.132 Y86.750 E6.92434
G1 X105.567 Y87.022 E6.94514
G1 E4.94514 F2400.00000
G92 E0
G1 X91.849 Y66.544 F7800.000
G1 E2.00000 F2400.00000
G1 F1800.000
G1 X91.463 Y66.752 E2.01455
G1 X91.045 Y66.888 E2.02910
G1 X90.610 Y66.947 E2.04364
G1 X90.187 Y66.928 E2.05767
G1 X89.940 Y66.883 E2.06598
G1 X89.537 Y66.752 E2.08000
G1 X89.151 Y66.544 E2.09455
G1 X88.807 Y66.270 E2.10909
G1 X88.519 Y65.939 E2.12364
G1 X88.293 Y65.563 E2.13819
G1 X88.139 Y65.152 E2.15273
G1 X88.061 Y64.720 E2.16727
G1 X88.061 Y64.296 E2.18131
G1 X88.094 Y64.047 E2.18962
G1 X88.207 Y63.639 E2.20364
G1 X88.398 Y63.244 E2.21819
G1 X88.646 Y62.901 E2.23221
G1 X88.820 Y62.720 E2.24052
G1 X89.151 Y62.456 E2.25455
G1 X89.537 Y62.248 E2.26910
G1 X89.955 Y62.112 E2.28364
G1 X90.390 Y62.053 E2.29819
G1 X90.813 Y62.072 E2.31221
G1 X91.060 Y62.117 E2.32053
G1 X91.463 Y62.248 E2.33455
G1 X91.849 Y62.456 E2.34910
G1 X92.193 Y62.730 E2.36364
G1 X92.481 Y63.061 E2.37819
G1 X92.707 Y63.437 E2.39274
G1 X92.861 Y63.848 E2.40728
G1 X92.939 Y64.280 E2.42182
G1 X92.939 Y64.704 E2.43585
G1 X92.906 Y64.953 E2.44417
G1 X92.793 Y65.361 E2.45819
G1 X92.602 Y65.756 E2.47273
G1 X92.354 Y66.099 E2.48676
G1 X92.180 Y66.280 E2.49507
G1 X91.896 Y66.506 E2.50711
G1 X91.702 Y66.321 F7800.000
G1 F1800.000
G1 X91.358 Y66.507 E2.52007
G1 X90.986 Y66.628 E2.53304
G1 X90.598 Y66.680 E2.54600
G1 X90.217 Y66.663 E2.55864
G1 X90.005 Y66.625 E2.56576
G1 X89.642 Y66.507 E2.57840
G1 X89.298 Y66.321 E2.59136
G1 X88.992 Y66.077 E2.60433
G1 X88.734 Y65.783 E2.61729
G1 X88.534 Y65.447 E2.63025
G1 X88.396 Y65.081 E2.64321
G1 X88.326 Y64.696 E2.65617
G1 X88.326 Y64.314 E2.66882
G1 X88.355 Y64.101 E2.67594
G1 X88.457 Y63.733 E2.68858
G1 X88.627 Y63.381 E2.70154
G1 X88.851 Y63.072 E2.71418
G1 X88.999 Y62.917 E2.72131
G1 X89.298 Y62.679 E2.73395
G1 X89.642 Y62.493 E2.74691
G1 X90.014 Y62.372 E2.75987
G1 X90.402 Y62.320 E2.77283
G1 X90.783 Y62.337 E2.78547
G1 X90.995 Y62.375 E2.79260
G1 X91.358 Y62.493 E2.80524
G1 X91.702 Y62.679 E2.81820
G1 X92.008 Y62.923 E2.83116
G1 X92.266 Y63.217 E2.84413
G1 X92.466 Y63.553 E2.85709
G1 X92.604 Y63.919 E2.87005
G1 X92.674 Y64.304 E2.88301
G1 X92.674 Y64.686 E2.89565
G1 X92.645 Y64.899 E2.90278
G1 X92.543 Y65.267 E2.91542
G1 X92.373 Y65.619 E2.92838
G1 X92.149 Y65.928 E2.94102
G1 X92.001 Y66.083 E2.94814
G1 X91.749 Y66.284 E2.95880
G1 X91.555 Y66.099 F7800.000
G1 F1800.000
G1 X91.253 Y66.262 E2.97018
G1 X90.926 Y66.368 E2.98155
G1 X90.586 Y66.414 E2.99293
G1 X90.247 Y66.399 E3.00419
G1 X90.070 Y66.366 E3.01013
G1 X89.747 Y66.262 E3.02138
G1 X89.445 Y66.099 E3.03276
G1 X89.176 Y65.885 E3.04414
G1 X88.950 Y65.626 E3.05552
G1 X88.774 Y65.331 E3.06689
G1 X88.653 Y65.010 E3.07827
G1 X88.592 Y64.672 E3.08965
G1 X88.592 Y64.332 E3.10090
G1 X88.616 Y64.154 E3.10684
G1 X88.706 Y63.827 E3.11810
G1 X88.855 Y63.517 E3.12947
G1 X89.055 Y63.243 E3.14073
G1 X89.179 Y63.113 E3.14667
G1 X89.445 Y62.901 E3.15792
G1 X89.747 Y62.738 E3.16930
G1 X90.074 Y62.632 E3.18068
G1 X90.414 Y62.586 E3.19206
G1 X90.753 Y62.601 E3.20331
G1 X90.930 Y62.634 E3.20925
G1 X91.253 Y62.738 E3.22050
G1 X91.555 Y62.901 E3.23188
G1 X91.824 Y63.115 E3.24326
G1 X92.050 Y63.374 E3.25464
G1 X92.226 Y63.669 E3.26602
G1 X92.347 Y63.990 E3.27739
G1 X92.408 Y64.328 E3.28877
G1 X92.408 Y64.668 E3.30003
G1 X92.384 Y64.846 E3.30597
G1 X92.293 Y65.173 E3.31722
G1 X92.145 Y65.483 E3.32860
G1 X91.945 Y65.757 E3.33985
G1 X91.821 Y65.887 E3.34579
G1 X91.602 Y66.061 E3.35506
G1 E1.35506 F2400.00000
G92 E0
G1 X86.444 Y70.001 F7800.000
G1 E2.00000 F2400.00000
G1 F1800.000
G1 X87.295 Y71.067 E2.04518
G1 X88.046 Y72.206 E2.09035
G1 X88.692 Y73.406 E2.13553
G1 X89.228 Y74.660 E2.18070
G1 X89.649 Y75.957 E2.22588
G1 X89.953 Y77.287 E2.27106
G1 X90.136 Y78.638 E2.31623
G1 X90.197 Y80.000 E2.36141
G1 X90.136 Y81.362 E2.40658
G1 X89.953 Y82.713 E2.45176
G1 X89.649 Y84.043 E2.49694
G1 X89.228 Y85.340 E2.54211
G1 X88.692 Y86.594 E2.58729
G1 X88.046 Y87.794 E2.63246
G1 X87.295 Y88.933 E2.67764
G1 X86.444 Y89.999 E2.72282
G1 X85.502 Y90.984 E2.76799
G1 X84.475 Y91.881 E2.81317
G1 X83.372 Y92.683 E2.85834
G1 X82.201 Y93.382 E2.90352
G1 X80.973 Y93.974 E2.94870
G1 X79.696 Y94.453 E2.99387
G1 X78.382 Y94.816 E3.03905
G1 X77.040 Y95.059 E3.08422
G1 X75.682 Y95.182 E3.12940
G1 X74.318 Y95.182 E3.17457
G1 X72.960 Y95.059 E3.21975
G1 X71.618 Y94.816 E3.26493
G1 X70.304 Y94.453 E3.31010
G1 X69.027 Y93.974 E3.35528
G1 X67.799 Y93.382 E3.40046
G1 X66.628 Y92.683 E3.44563
G1 X65.525 Y91.881 E3.49081
G1 X64.498 Y90.984 E3.53598
G1 X63.556 Y89.999 E3.58116
G1 X62.705 Y88.933 E3.62633
G1 X61.954 Y87.794 E3.67151
G1 X61.308 Y86.594 E3.71669
G1 X60.772 Y85.340 E3.76186
G1 X60.351 Y84.043 E3.80704
G1 X60.047 Y82.713 E3.85222
G1 X59.864 Y81.362 E3.89739
G1 X59.803 Y80.000 E3.94257
G1 X59.864 Y78.638 E3.98774
G1 X60.047 Y77.287 E4.03292
G1 X60.351 Y75.957 E4.07809
G1 X60.772 Y74.660 E4.12327
G1 X61.308 Y73.406 E4.16845
