; generated by Slic3r 1.3.1-dev (Build (Unknown revision)) on 2020-04-21 at 15:04:44

; external perimeters extrusion width = 0.44mm (2.86mm^3/s)
; perimeters extrusion width = 0.56mm (4.14mm^3/s)
; infill extrusion width = 0.50mm (3.66mm^3/s)
; solid infill extrusion width = 0.56mm (3.10mm^3/s)
; top infill extrusion width = 0.56mm (3.10mm^3/s)

M107
G92 E0
;D3D:START:START
T0
M104 S215 T0

G21
G90
M107
T0
G28
G29
M109 T0 S215 T0
G0 F3000
M107
T0
G92 E0
G0 X0 Y149 Z0.1 F3600
G1 Y49 E6.5 F1200
G0 Z1
G92 E0
; Filament gcode

G21 ; set units to millimeters
G90 ; use absolute coordinates
M82 ; use absolute distances for extrusion
G92 E0
G1 Z0.300 F7800.000
G1 E-2.00000 F2400.00000
G92 E0
G1 X38.354 Y78.960 F7800.000
G1 E2.00000 F2400.00000
G1 F1800.000
G1 X38.743 Y78.794 E2.01403
G1 X39.156 Y78.700 E2.02805
G1 X39.406 Y78.677 E2.03636
G1 X39.829 Y78.696 E2.05039
G1 X40.257 Y78.794 E2.06493
G1 X40.646 Y78.960 E2.07896
G1 X40.861 Y79.089 E2.08727
G1 X41.192 Y79.353 E2.10130
G1 X41.481 Y79.684 E2.11585
G1 X41.698 Y80.047 E2.12987
G1 X41.797 Y80.278 E2.13818
G1 X41.910 Y80.686 E2.15221
G1 X41.946 Y81.093 E2.16575
G1 X41.939 Y83.344 E2.24032
G1 X41.861 Y83.775 E2.25483
G1 X41.712 Y84.171 E2.26885
G1 X41.593 Y84.392 E2.27716
G1 X41.354 Y84.722 E2.29067
G1 X41.180 Y84.903 E2.29898
G1 X40.849 Y85.167 E2.31301
G1 X40.476 Y85.368 E2.32704
G1 X40.241 Y85.456 E2.33535
G1 X39.844 Y85.547 E2.34885
G1 X39.594 Y85.569 E2.35716
G1 X39.187 Y85.551 E2.37067
G1 X38.940 Y85.506 E2.37898
G1 X38.537 Y85.375 E2.39300
G1 X38.151 Y85.167 E2.40755
G1 X37.807 Y84.893 E2.42210
G1 X37.519 Y84.563 E2.43664
G1 X37.302 Y84.199 E2.45067
G1 X37.203 Y83.969 E2.45898
G1 X37.090 Y83.561 E2.47300
G1 X37.054 Y83.153 E2.48655
G1 X37.061 Y80.902 E2.56112
G1 X37.139 Y80.472 E2.57563
G1 X37.288 Y80.075 E2.58965
G1 X37.407 Y79.854 E2.59796
G1 X37.646 Y79.525 E2.61146
G1 X37.820 Y79.343 E2.61978
G1 X38.139 Y79.089 E2.63328
G1 X38.302 Y78.991 E2.63961
G1 X38.475 Y79.198 F7800.000
G1 F1800.000
G1 X38.826 Y79.048 E2.65225
G1 X39.198 Y78.963 E2.66489
G1 X39.412 Y78.944 E2.67201
G1 X39.793 Y78.961 E2.68465
G1 X40.174 Y79.048 E2.69762
G1 X40.525 Y79.198 E2.71026
G1 X40.710 Y79.308 E2.71738
G1 X41.008 Y79.546 E2.73002
G1 X41.266 Y79.841 E2.74298
G1 X41.461 Y80.168 E2.75562
G1 X41.546 Y80.366 E2.76275
G1 X41.647 Y80.734 E2.77539
G1 X41.681 Y81.105 E2.78773
G1 X41.673 Y83.320 E2.86111
G1 X41.604 Y83.704 E2.87405
G1 X41.470 Y84.061 E2.88669
G1 X41.368 Y84.250 E2.89382
G1 X41.149 Y84.551 E2.90613
G1 X41.001 Y84.707 E2.91326
G1 X40.702 Y84.945 E2.92590
G1 X40.366 Y85.125 E2.93854
G1 X40.165 Y85.201 E2.94567
G1 X39.802 Y85.284 E2.95799
G1 X39.588 Y85.303 E2.96511
G1 X39.217 Y85.286 E2.97743
G1 X39.005 Y85.248 E2.98455
G1 X38.642 Y85.130 E2.99719
G1 X38.298 Y84.945 E3.01016
G1 X37.992 Y84.701 E3.02312
G1 X37.734 Y84.406 E3.03608
G1 X37.539 Y84.078 E3.04872
G1 X37.454 Y83.881 E3.05584
G1 X37.353 Y83.513 E3.06848
G1 X37.319 Y83.142 E3.08083
G1 X37.327 Y80.927 E3.15421
G1 X37.396 Y80.543 E3.16715
G1 X37.530 Y80.186 E3.17978
G1 X37.632 Y79.996 E3.18691
G1 X37.851 Y79.695 E3.19923
G1 X37.999 Y79.540 E3.20635
G1 X38.290 Y79.308 E3.21867
G1 X38.423 Y79.228 E3.22381
G1 X38.596 Y79.435 F7800.000
G1 F1800.000
G1 X38.908 Y79.301 E3.23507
G1 X39.239 Y79.226 E3.24632
G1 X39.418 Y79.210 E3.25226
G1 X39.757 Y79.225 E3.26351
G1 X40.092 Y79.301 E3.27489
G1 X40.404 Y79.435 E3.28615
G1 X40.558 Y79.527 E3.29209
G1 X40.824 Y79.739 E3.30334
G1 X41.050 Y79.997 E3.31472
G1 X41.224 Y80.289 E3.32597
G1 X41.294 Y80.454 E3.33191
G1 X41.385 Y80.781 E3.34317
G1 X41.415 Y81.116 E3.35431
G1 X41.408 Y83.295 E3.42650
G1 X41.347 Y83.633 E3.43787
G1 X41.227 Y83.951 E3.44913
G1 X41.142 Y84.109 E3.45507
G1 X40.945 Y84.381 E3.46620
G1 X40.821 Y84.510 E3.47213
G1 X40.555 Y84.722 E3.48339
G1 X40.256 Y84.883 E3.49465
G1 X40.088 Y84.946 E3.50058
G1 X39.761 Y85.021 E3.51172
G1 X39.582 Y85.037 E3.51766
G1 X39.247 Y85.022 E3.52879
G1 X39.070 Y84.990 E3.53473
G1 X38.747 Y84.885 E3.54598
G1 X38.445 Y84.722 E3.55736
G1 X38.176 Y84.508 E3.56874
G1 X37.950 Y84.249 E3.58012
G1 X37.776 Y83.958 E3.59137
G1 X37.706 Y83.793 E3.59731
G1 X37.615 Y83.465 E3.60856
G1 X37.585 Y83.130 E3.61970
G1 X37.592 Y80.951 E3.69190
G1 X37.653 Y80.614 E3.70327
G1 X37.773 Y80.296 E3.71452
G1 X37.858 Y80.138 E3.72046
G1 X38.055 Y79.866 E3.73159
G1 X38.179 Y79.736 E3.73753
G1 X38.544 Y79.466 E3.75259
G1 E1.75259 F2400.00000
G92 E0
G1 X71.557 Y71.748 F7800.000
G1 E2.00000 F2400.00000
G1 F1800.000
G1 X71.504 Y71.153 E2.01980
G1 X71.515 Y68.808 E2.09749
G1 X71.624 Y68.208 E2.11769
G1 X71.731 Y67.880 E2.12912
G1 X71.996 Y67.329 E2.14939
G1 X72.356 Y66.834 E2.16965
G1 X72.583 Y66.596 E2.18056
G1 X72.831 Y66.379 E2.19148
G1 X73.329 Y66.051 E2.21122
G1 X73.640 Y65.901 E2.22265
G1 X74.221 Y65.712 E2.24291
G1 X74.843 Y65.628 E2.26369
G1 X75.454 Y65.655 E2.28396
G1 X75.794 Y65.717 E2.29539
G1 X76.375 Y65.906 E2.31565
G1 X76.928 Y66.203 E2.33643
G1 X77.418 Y66.594 E2.35722
G1 X77.820 Y67.055 E2.37748
G1 X78.011 Y67.343 E2.38891
G1 X78.276 Y67.894 E2.40917
G1 X78.443 Y68.498 E2.42996
G1 X78.496 Y69.094 E2.44976
G1 X78.485 Y71.439 E2.52744
G1 X78.376 Y72.039 E2.54765
G1 X78.269 Y72.367 E2.55908
G1 X78.004 Y72.918 E2.57934
G1 X77.644 Y73.413 E2.59960
G1 X77.417 Y73.651 E2.61052
G1 X77.169 Y73.868 E2.62143
G1 X76.671 Y74.196 E2.64117
G1 X76.360 Y74.346 E2.65261
G1 X75.779 Y74.535 E2.67287
G1 X75.157 Y74.619 E2.69365
G1 X74.546 Y74.591 E2.71391
G1 X74.206 Y74.530 E2.72535
G1 X73.625 Y74.341 E2.74561
G1 X73.072 Y74.043 E2.76639
G1 X72.582 Y73.652 E2.78717
G1 X72.180 Y73.192 E2.80743
G1 X71.989 Y72.904 E2.81887
G1 X71.724 Y72.353 E2.83913
G1 X71.573 Y71.806 E2.85792
G1 X71.820 Y71.700 F7800.000
G1 F1800.000
G1 X71.769 Y71.142 E2.87651
G1 X71.781 Y68.832 E2.95301
G1 X71.882 Y68.273 E2.97185
G1 X71.978 Y67.979 E2.98210
G1 X72.225 Y67.465 E3.00098
G1 X72.560 Y67.004 E3.01985
G1 X72.767 Y66.788 E3.02978
G1 X72.993 Y66.591 E3.03971
G1 X73.460 Y66.282 E3.05826
G1 X73.739 Y66.148 E3.06851
G1 X74.281 Y65.972 E3.08738
G1 X74.855 Y65.894 E3.10658
G1 X75.424 Y65.920 E3.12546
G1 X75.729 Y65.975 E3.13570
G1 X76.270 Y66.151 E3.15458
G1 X76.781 Y66.426 E3.17378
G1 X77.234 Y66.787 E3.19298
G1 X77.609 Y67.216 E3.21185
G1 X77.779 Y67.474 E3.22210
G1 X78.026 Y67.987 E3.24098
G1 X78.180 Y68.546 E3.26018
G1 X78.231 Y69.105 E3.27877
G1 X78.219 Y71.414 E3.35527
G1 X78.118 Y71.974 E3.37411
G1 X78.022 Y72.268 E3.38435
G1 X77.775 Y72.781 E3.40323
G1 X77.440 Y73.242 E3.42211
G1 X77.233 Y73.459 E3.43203
G1 X77.007 Y73.656 E3.44196
G1 X76.540 Y73.964 E3.46051
G1 X76.261 Y74.099 E3.47076
G1 X75.719 Y74.275 E3.48964
G1 X75.145 Y74.352 E3.50883
G1 X74.576 Y74.327 E3.52771
G1 X74.271 Y74.272 E3.53796
G1 X73.730 Y74.095 E3.55683
G1 X73.219 Y73.821 E3.57603
G1 X72.766 Y73.460 E3.59523
G1 X72.391 Y73.031 E3.61411
G1 X72.221 Y72.772 E3.62435
G1 X71.974 Y72.259 E3.64323
G1 X71.836 Y71.758 E3.66044
G1 X72.082 Y71.653 F7800.000
G1 F1800.000
G1 X72.035 Y71.130 E3.67782
G1 X72.046 Y68.857 E3.75313
G1 X72.141 Y68.338 E3.77061
G1 X72.225 Y68.078 E3.77967
G1 X72.454 Y67.602 E3.79716
G1 X72.764 Y67.175 E3.81465
G1 X73.154 Y66.803 E3.83251
G1 X73.592 Y66.514 E3.84988
G1 X73.838 Y66.395 E3.85894
G1 X74.340 Y66.232 E3.87643
G1 X74.867 Y66.161 E3.89405
G1 X75.394 Y66.184 E3.91154
G1 X75.663 Y66.233 E3.92060
G1 X76.166 Y66.396 E3.93809
G1 X76.634 Y66.648 E3.95570
G1 X77.049 Y66.980 E3.97332
G1 X77.397 Y67.377 E3.99081
G1 X77.547 Y67.606 E3.99987
G1 X77.777 Y68.081 E4.01736
G1 X77.918 Y68.594 E4.03497
G1 X77.965 Y69.116 E4.05235
G1 X77.954 Y71.389 E4.12767
G1 X77.859 Y71.909 E4.14514
G1 X77.775 Y72.169 E4.15420
G1 X77.546 Y72.644 E4.17170
G1 X77.236 Y73.071 E4.18919
G1 X76.846 Y73.444 E4.20704
G1 X76.408 Y73.733 E4.22441
G1 X76.162 Y73.851 E4.23347
G1 X75.660 Y74.015 E4.25096
G1 X75.133 Y74.086 E4.26858
G1 X74.606 Y74.062 E4.28607
G1 X74.337 Y74.013 E4.29513
G1 X73.834 Y73.850 E4.31262
G1 X73.366 Y73.598 E4.33023
G1 X72.951 Y73.267 E4.34785
G1 X72.603 Y72.869 E4.36534
G1 X72.453 Y72.641 E4.37440
G1 X72.223 Y72.165 E4.39189
G1 X72.098 Y71.711 E4.40752
G1 E2.40752 F2400.00000
G92 E0
G1 X108.139 Y80.472 F7800.000
G1 E2.00000 F2400.00000
G1 F1800.000
G1 X108.288 Y80.075 E2.01402
G1 X108.407 Y79.854 E2.02233
G1 X108.646 Y79.525 E2.03584
G1 X108.820 Y79.343 E2.04415
G1 X109.139 Y79.089 E2.05766
G1 X109.354 Y78.960 E2.06597
G1 X109.743 Y78.794 E2.07999
G1 X110.156 Y78.700 E2.09402
G1 X110.406 Y78.677 E2.10233
G1 X110.829 Y78.696 E2.11636
G1 X111.257 Y78.794 E2.13090
G1 X111.646 Y78.960 E2.14493
G1 X111.861 Y79.089 E2.15324
G1 X112.192 Y79.353 E2.16727
G1 X112.481 Y79.684 E2.18181
G1 X112.698 Y80.047 E2.19584
G1 X112.797 Y80.278 E2.20415
G1 X112.910 Y80.686 E2.21817
G1 X112.946 Y81.093 E2.23172
G1 X112.939 Y83.344 E2.30629
G1 X112.861 Y83.775 E2.32080
G1 X112.712 Y84.171 E2.33482
G1 X112.593 Y84.392 E2.34313
G1 X112.354 Y84.722 E2.35663
G1 X112.180 Y84.903 E2.36495
G1 X111.849 Y85.167 E2.37897
G1 X111.476 Y85.368 E2.39300
G1 X111.241 Y85.456 E2.40131
G1 X110.844 Y85.547 E2.41482
G1 X110.594 Y85.569 E2.42313
G1 X110.187 Y85.551 E2.43663
G1 X109.940 Y85.506 E2.44495
G1 X109.537 Y85.375 E2.45897
G1 X109.151 Y85.167 E2.47352
G1 X108.807 Y84.893 E2.48806
G1 X108.519 Y84.563 E2.50261
G1 X108.302 Y84.199 E2.51663
G1 X108.203 Y83.969 E2.52495
G1 X108.090 Y83.561 E2.53897
G1 X108.054 Y83.153 E2.55252
G1 X108.061 Y80.902 E2.62709
G1 X108.129 Y80.531 E2.63961
G1 X108.396 Y80.543 F7800.000
G1 F1800.000
G1 X108.530 Y80.186 E2.65224
G1 X108.632 Y79.996 E2.65937
G1 X108.851 Y79.695 E2.67169
G1 X108.999 Y79.540 E2.67881
G1 X109.290 Y79.308 E2.69113
G1 X109.475 Y79.198 E2.69826
G1 X109.826 Y79.048 E2.71090
G1 X110.198 Y78.963 E2.72354
G1 X110.412 Y78.944 E2.73066
G1 X110.793 Y78.961 E2.74330
G1 X111.174 Y79.048 E2.75627
G1 X111.525 Y79.198 E2.76891
G1 X111.710 Y79.308 E2.77603
G1 X112.008 Y79.546 E2.78867
G1 X112.266 Y79.841 E2.80163
G1 X112.461 Y80.168 E2.81427
G1 X112.546 Y80.366 E2.82140
G1 X112.647 Y80.734 E2.83404
G1 X112.681 Y81.105 E2.84638
G1 X112.673 Y83.320 E2.91976
G1 X112.604 Y83.704 E2.93270
G1 X112.470 Y84.061 E2.94534
G1 X112.368 Y84.250 E2.95247
G1 X112.149 Y84.551 E2.96478
G1 X112.001 Y84.707 E2.97191
G1 X111.702 Y84.945 E2.98455
G1 X111.366 Y85.125 E2.99719
G1 X111.165 Y85.201 E3.00432
G1 X110.802 Y85.284 E3.01664
G1 X110.588 Y85.303 E3.02376
G1 X110.217 Y85.286 E3.03608
G1 X110.005 Y85.248 E3.04320
G1 X109.642 Y85.130 E3.05584
G1 X109.298 Y84.945 E3.06881
G1 X108.992 Y84.701 E3.08177
G1 X108.734 Y84.406 E3.09473
G1 X108.539 Y84.078 E3.10737
G1 X108.454 Y83.881 E3.11449
G1 X108.353 Y83.513 E3.12713
G1 X108.319 Y83.142 E3.13948
G1 X108.327 Y80.927 E3.21286
G1 X108.386 Y80.602 E3.22381
G1 X108.653 Y80.614 F7800.000
G1 F1800.000
G1 X108.773 Y80.296 E3.23506
G1 X108.858 Y80.138 E3.24100
G1 X109.055 Y79.866 E3.25213
G1 X109.179 Y79.736 E3.25807
G1 X109.442 Y79.527 E3.26920
G1 X109.596 Y79.435 E3.27514
G1 X109.908 Y79.301 E3.28640
G1 X110.239 Y79.226 E3.29765
G1 X110.418 Y79.210 E3.30359
G1 X110.757 Y79.225 E3.31485
G1 X111.092 Y79.301 E3.32623
G1 X111.404 Y79.435 E3.33748
G1 X111.558 Y79.527 E3.34342
G1 X111.824 Y79.739 E3.35467
G1 X112.050 Y79.997 E3.36605
G1 X112.224 Y80.289 E3.37731
G1 X112.294 Y80.454 E3.38325
G1 X112.385 Y80.781 E3.39450
G1 X112.415 Y81.116 E3.40564
G1 X112.408 Y83.295 E3.47784
G1 X112.347 Y83.633 E3.48921
G1 X112.227 Y83.951 E3.50046
G1 X112.142 Y84.109 E3.50640
G1 X111.945 Y84.381 E3.51753
G1 X111.821 Y84.510 E3.52347
G1 X111.555 Y84.722 E3.53472
G1 X111.256 Y84.883 E3.54598
G1 X111.088 Y84.946 E3.55192
G1 X110.761 Y85.021 E3.56305
G1 X110.582 Y85.037 E3.56899
G1 X110.247 Y85.022 E3.58012
G1 X110.070 Y84.990 E3.58606
G1 X109.747 Y84.885 E3.59731
G1 X109.445 Y84.722 E3.60869
G1 X109.176 Y84.508 E3.62007
G1 X108.950 Y84.249 E3.63145
G1 X108.776 Y83.958 E3.64270
G1 X108.706 Y83.793 E3.64864
G1 X108.615 Y83.465 E3.65989
G1 X108.585 Y83.130 E3.67104
G1 X108.592 Y80.951 E3.74323
G1 X108.643 Y80.673 E3.75261
G1 E1.75261 F2400.00000
G92 E0
G1 X104.834 Y89.927 F7800.000
G1 E2.00000 F2400.00000
G1 F1800.000
G1 X104.766 Y91.457 E2.05074
G1 X104.654 Y92.284 E2.07840
G1 X104.468 Y93.098 E2.10606
G1 X104.210 Y93.892 E2.13371
G1 X103.882 Y94.660 E2.16136
G1 X103.486 Y95.395 E2.18902
G1 X103.026 Y96.091 E2.21668
G1 X102.506 Y96.744 E2.24433
G1 X101.929 Y97.347 E2.27199
G1 X101.300 Y97.897 E2.29964
G1 X100.625 Y98.387 E2.32730
G1 X99.908 Y98.816 E2.35495
G1 X99.156 Y99.178 E2.38261
G1 X98.375 Y99.471 E2.41026
G1 X97.570 Y99.693 E2.43792
G1 X96.749 Y99.842 E2.46557
G1 X95.917 Y99.917 E2.49323
G1 X54.083 Y99.917 E3.87919
G1 X53.251 Y99.842 E3.90685
G1 X52.430 Y99.693 E3.93450
G1 X51.625 Y99.471 E3.96216
G1 X50.844 Y99.178 E3.98982
G1 X50.092 Y98.816 E4.01747
G1 X49.375 Y98.387 E4.04513
G1 X48.700 Y97.897 E4.07278
G1 X48.071 Y97.347 E4.10044
G1 X47.494 Y96.744 E4.12809
G1 X46.974 Y96.091 E4.15575
G1 X46.514 Y95.395 E4.18340
G1 X46.118 Y94.660 E4.21106
G1 X45.790 Y93.892 E4.23871
G1 X45.532 Y93.098 E4.26637
G1 X45.346 Y92.284 E4.29402
G1 X45.234 Y91.457 E4.32168
G1 X45.166 Y89.927 E4.37242
G1 X35.196 Y89.927 E4.70270
G1 X35.196 Y50.083 E6.02271
G1 X114.804 Y50.083 E8.66007
G1 X114.804 Y89.927 E9.98008
G1 X104.894 Y89.927 E10.30838
G1 X105.088 Y90.193 F7800.000
G1 F1800.000
G1 X105.030 Y91.481 E10.35110
G1 X104.915 Y92.332 E10.37955
G1 X104.724 Y93.169 E10.40799
G1 X104.459 Y93.985 E10.43644
G1 X104.121 Y94.775 E10.46488
G1 X103.714 Y95.531 E10.49333
G1 X103.241 Y96.248 E10.52178
G1 X102.706 Y96.919 E10.55022
G1 X102.113 Y97.540 E10.57867
G1 X101.466 Y98.105 E10.60711
G1 X100.772 Y98.609 E10.63556
G1 X100.034 Y99.050 E10.66400
G1 X99.261 Y99.422 E10.69245
G1 X98.457 Y99.724 E10.72089
G1 X97.629 Y99.952 E10.74934
G1 X96.784 Y100.106 E10.77779
G1 X95.929 Y100.183 E10.80623
G1 X54.071 Y100.183 E12.19299
G1 X53.216 Y100.106 E12.22143
G1 X52.371 Y99.952 E12.24988
G1 X51.543 Y99.724 E12.27833
G1 X50.739 Y99.422 E12.30677
G1 X49.966 Y99.050 E12.33522
G1 X49.228 Y98.609 E12.36366
G1 X48.534 Y98.105 E12.39211
G1 X47.887 Y97.540 E12.42055
G1 X47.294 Y96.919 E12.44900
G1 X46.759 Y96.248 E12.47744
G1 X46.286 Y95.531 E12.50589
G1 X45.879 Y94.775 E12.53434
G1 X45.541 Y93.985 E12.56278
G1 X45.276 Y93.169 E12.59123
G1 X45.085 Y92.332 E12.61967
G1 X44.970 Y91.481 E12.64812
G1 X44.912 Y90.193 E12.69084
G1 X34.931 Y90.193 E13.02151
G1 X34.931 Y49.817 E14.35912
G1 X115.069 Y49.817 E17.01408
G1 X115.069 Y90.193 E18.35169
G1 X105.148 Y90.193 E18.68037
G1 X105.342 Y90.458 F7800.000
G1 F1800.000
G1 X105.295 Y91.505 E18.71508
G1 X105.177 Y92.379 E18.74432
G1 X104.980 Y93.240 E18.77355
G1 X104.708 Y94.079 E18.80279
G1 X104.361 Y94.890 E18.83202
G1 X103.943 Y95.668 E18.86126
G1 X103.457 Y96.404 E18.89050
G1 X102.906 Y97.094 E18.91973
G1 X102.296 Y97.732 E18.94897
G1 X101.632 Y98.312 E18.97820
G1 X100.918 Y98.831 E19.00744
G1 X100.160 Y99.284 E19.03668
G1 X99.365 Y99.667 E19.06591
G1 X98.539 Y99.977 E19.09515
G1 X97.688 Y100.212 E19.12438
G1 X96.820 Y100.369 E19.15362
G1 X95.941 Y100.448 E19.18286
G1 X54.059 Y100.448 E20.57040
G1 X53.180 Y100.369 E20.59964
G1 X52.312 Y100.212 E20.62887
G1 X51.461 Y99.977 E20.65811
G1 X50.635 Y99.667 E20.68735
G1 X49.840 Y99.284 E20.71658
G1 X49.082 Y98.831 E20.74582
G1 X48.368 Y98.312 E20.77506
G1 X47.704 Y97.732 E20.80429
G1 X47.094 Y97.094 E20.83353
G1 X46.543 Y96.404 E20.86276
G1 X46.057 Y95.668 E20.89200
G1 X45.639 Y94.890 E20.92124
G1 X45.292 Y94.079 E20.95047
G1 X45.020 Y93.240 E20.97971
G1 X44.823 Y92.379 E21.00894
G1 X44.705 Y91.505 E21.03818
G1 X44.658 Y90.458 E21.07289
G1 X34.665 Y90.458 E21.40394
G1 X34.665 Y49.552 E22.75915
G1 X115.335 Y49.552 E25.43171
G1 X115.335 Y90.458 E26.78692
G1 X105.402 Y90.458 E27.11599
G1 E25.11599 F2400.00000
G92 E0
G1 X112.497 Y84.937 F7800.000
G1 E2.00000 F2400.00000
G1 F1800.000
G1 X114.641 Y82.793 E2.10052
G1 X114.641 Y82.417 E2.11297
G1 X112.957 Y84.101 E2.19191
G1 X113.014 Y83.949 E2.19729
G1 X113.077 Y83.606 E2.20886
G1 X114.641 Y82.041 E2.28220
G1 X114.641 Y81.665 E2.29466
G1 X113.102 Y83.205 E2.36682
G1 X113.103 Y82.828 E2.37931
G1 X114.641 Y81.290 E2.45142
G1 X114.641 Y80.914 E2.46387
G1 X113.105 Y82.451 E2.53592
G1 X113.106 Y82.074 E2.54842
